;FLAVOR:Marlin
;TIME:1904
;Filament used: 1.91142m
;Layer height: 0.2
;MINX:119.574
;MINY:130.64
;MINZ:0.24
;MAXX:180.434
;MAXY:166.469
;MAXZ:6.13
;Generated with Cura_SteamEngine 4.12.0
M140 S60
M105
M190 S60
M104 S200
M105
M109 S200
M82 ;absolute extrusion mode
M201 X500.00 Y500.00 Z100.00 E5000.00 ;Setup machine max acceleration
M203 X500.00 Y500.00 Z10.00 E50.00 ;Setup machine max feedrate
M204 P500.00 R1000.00 T500.00 ;Setup Print/Retract/Travel acceleration
M205 X8.00 Y8.00 Z0.40 E5.00 ;Setup Jerk
M220 S100 ;Reset Feedrate
M221 S100 ;Reset Flowrate

G28 ;Home

G92 E0 ;Reset Extruder
G1 Z2.0 F3000 ;Move Z Axis up
G1 X10.1 Y20 Z0.28 F5000.0 ;Move to start position
G1 X10.1 Y200.0 Z0.28 F1500.0 E15 ;Draw the first line
G1 X10.4 Y200.0 Z0.28 F5000.0 ;Move to side a little
G1 X10.4 Y20 Z0.28 F1500.0 E30 ;Draw the second line
G92 E0 ;Reset Extruder
G1 Z2.0 F3000 ;Move Z Axis up

G92 E0
G92 E0
G1 F2700 E-7
;LAYER_COUNT:25
;LAYER:-6
M107
G0 F9000 X123.912 Y139.155 Z0.24
;TYPE:SUPPORT-INTERFACE
G1 F2700 E0
G1 F1350 X124.045 Y139.045 E0.01378
G1 X124.91 Y138.383 E0.10073
G1 X125.055 Y138.28 E0.11492
G1 X125.465 Y138.009 E0.15415
G1 X125.584 Y137.94 E0.16514
G1 X125.991 Y137.742 E0.20126
G1 X126.126 Y137.681 E0.21309
G1 X127.169 Y137.25 E0.30317
G1 X127.264 Y137.214 E0.31128
G1 X127.725 Y137.055 E0.35021
G1 X127.833 Y137.029 E0.35908
G1 X128.351 Y136.923 E0.40128
G1 X128.5 Y136.898 E0.41334
G1 X129.687 Y136.743 E0.5089
G1 X129.936 Y136.719 E0.52887
G1 X130.245 Y136.706 E0.55356
G1 X130.348 Y136.704 E0.56178
G1 X132.513 Y136.704 E0.7346
G1 X133.181 Y136.662 E0.78803
G1 X133.852 Y136.533 E0.84257
G1 X134.501 Y136.32 E0.89709
G1 X135.118 Y136.028 E0.95158
G1 X135.693 Y135.66 E1.00608
G1 X136.222 Y135.218 E1.0611
G1 X136.866 Y134.481 E1.13923
G1 X137.109 Y134.163 E1.17118
G1 X137.202 Y134.051 E1.1828
G1 X137.519 Y133.689 E1.22121
G1 X137.605 Y133.601 E1.23103
G1 X137.98 Y133.274 E1.27075
G1 X138.087 Y133.186 E1.28181
G1 X138.346 Y132.987 E1.30788
G1 X138.462 Y132.902 E1.31936
G1 X138.872 Y132.626 E1.35881
G1 X138.96 Y132.578 E1.36681
G1 X139.437 Y132.34 E1.40936
G1 X139.579 Y132.276 E1.4218
G1 X139.869 Y132.157 E1.44682
G1 X140.007 Y132.105 E1.45859
G1 X140.405 Y131.967 E1.49222
G1 X140.536 Y131.931 E1.50306
G1 X141.055 Y131.825 E1.54535
G1 X141.221 Y131.798 E1.55877
G1 X141.677 Y131.739 E1.59547
G1 X141.904 Y131.717 E1.61368
G1 X142.19 Y131.706 E1.63653
G1 X142.293 Y131.704 E1.64475
G1 X157.716 Y131.705 E2.87588
G1 X157.819 Y131.707 E2.8841
G1 X158.122 Y131.72 E2.90831
G1 X158.405 Y131.749 E2.93102
G1 X158.442 Y131.752 E2.93398
G1 X158.804 Y131.802 E2.96315
G1 X158.957 Y131.826 E2.97552
G1 X159.318 Y131.894 E3.00484
G1 X159.436 Y131.927 E3.01462
G1 X159.983 Y132.104 E3.06051
G1 X160.14 Y132.162 E3.07387
G1 X160.411 Y132.273 E3.09725
G1 X160.562 Y132.34 E3.11044
G1 X160.958 Y132.532 E3.14557
G1 X161.091 Y132.607 E3.15776
G1 X161.524 Y132.894 E3.19922
G1 X161.661 Y132.992 E3.21267
G1 X161.903 Y133.178 E3.23703
G1 X162.02 Y133.274 E3.24911
G1 X162.395 Y133.601 E3.28883
G1 X162.481 Y133.689 E3.29865
G1 X162.798 Y134.051 E3.33706
G1 X162.891 Y134.163 E3.34868
G1 X163.128 Y134.473 E3.37983
G1 X163.553 Y134.991 E3.43332
G1 X164.05 Y135.459 E3.48781
G1 X164.602 Y135.861 E3.54232
G1 X165.199 Y136.191 E3.59677
G1 X165.834 Y136.441 E3.65125
G1 X166.502 Y136.612 E3.70629
G1 X167.481 Y136.704 E3.78478
G1 X169.652 Y136.704 E3.95808
G1 X169.755 Y136.706 E3.9663
G1 X170.064 Y136.718 E3.99099
G1 X170.333 Y136.745 E4.01257
G1 X171.5 Y136.898 E4.10652
G1 X171.649 Y136.923 E4.11858
G1 X172.167 Y137.029 E4.16078
G1 X172.3 Y137.063 E4.17174
G1 X172.736 Y137.214 E4.20857
G1 X172.831 Y137.25 E4.21668
G1 X173.874 Y137.681 E4.30677
G1 X174.009 Y137.742 E4.31859
G1 X174.416 Y137.94 E4.35472
G1 X174.524 Y138.002 E4.36466
G1 X174.945 Y138.28 E4.40494
G1 X175.09 Y138.383 E4.41913
G1 X175.955 Y139.045 E4.50608
G1 X176.088 Y139.155 E4.51986
G1 X176.52 Y139.544 E4.56626
G1 X176.636 Y139.661 E4.57942
G1 X176.86 Y139.925 E4.60705
G1 X176.935 Y140.017 E4.61653
G1 X177.608 Y140.888 E4.70439
G1 X177.698 Y141.014 E4.71675
G1 X178.005 Y141.475 E4.76096
G1 X178.068 Y141.583 E4.77094
G1 X178.264 Y141.984 E4.80657
G1 X178.309 Y142.085 E4.8154
G1 X178.737 Y143.107 E4.90384
G1 X178.808 Y143.298 E4.92011
G1 X178.985 Y143.84 E4.96562
G1 X179.022 Y143.971 E4.97649
G1 X179.089 Y144.324 E5.00517
G1 X179.111 Y144.46 E5.01617
G1 X179.269 Y145.625 E5.11001
G1 X179.302 Y145.94 E5.1353
G1 X179.316 Y146.324 E5.16597
G1 X179.37 Y160.576 E6.30363
G1 X179.365 Y160.732 E6.31609
G1 X179.344 Y161.102 E6.34568
G1 X179.309 Y161.381 E6.36812
G1 X179.255 Y161.67 E6.39159
G1 X179.181 Y161.959 E6.4154
G1 X179.093 Y162.237 E6.43868
G1 X178.99 Y162.498 E6.46108
G1 X178.857 Y162.778 E6.48582
G1 X178.732 Y163.008 E6.50672
G1 X178.574 Y163.256 E6.53019
G1 X178.384 Y163.515 E6.55583
G1 X178.076 Y163.877 E6.59377
G1 X177.875 Y164.081 E6.61663
G1 X177.584 Y164.34 E6.64773
G1 X177.375 Y164.503 E6.66889
G1 X177.11 Y164.684 E6.6945
G1 X176.882 Y164.819 E6.71565
G1 X176.62 Y164.953 E6.73914
G1 X176.338 Y165.076 E6.7637
G1 X176.098 Y165.162 E6.78405
G1 X175.777 Y165.256 E6.81075
G1 X175.551 Y165.306 E6.82923
G1 X175.207 Y165.358 E6.857
G1 X174.739 Y165.395 E6.89448
G1 X174.533 Y165.404 E6.91094
G1 X125.423 Y165.404 E10.83111
G1 X125.297 Y165.4 E10.84117
G1 X124.92 Y165.376 E10.87133
G1 X124.622 Y165.339 E10.8953
G1 X124.338 Y165.284 E10.91839
G1 X124.047 Y165.208 E10.9424
G1 X123.787 Y165.123 E10.96423
G1 X123.51 Y165.013 E10.98802
G1 X123.251 Y164.89 E11.01091
G1 X122.993 Y164.747 E11.03446
G1 X122.774 Y164.608 E11.05516
G1 X122.502 Y164.405 E11.08225
G1 X122.13 Y164.084 E11.12148
G1 X121.938 Y163.896 E11.14293
G1 X121.674 Y163.592 E11.17506
G1 X121.505 Y163.372 E11.19721
G1 X121.341 Y163.128 E11.22068
G1 X121.184 Y162.858 E11.24561
G1 X121.063 Y162.618 E11.26706
G1 X120.948 Y162.346 E11.29064
G1 X120.849 Y162.064 E11.31449
G1 X120.775 Y161.802 E11.33623
G1 X120.714 Y161.518 E11.35941
G1 X120.671 Y161.218 E11.38361
G1 X120.637 Y160.743 E11.42162
G1 X120.63 Y160.56 E11.43624
G1 X120.684 Y146.33 E12.57215
G1 X120.698 Y145.94 E12.6033
G1 X120.73 Y145.632 E12.62802
G1 X120.888 Y144.469 E12.7217
G1 X120.909 Y144.335 E12.73253
G1 X120.981 Y143.96 E12.76301
G1 X121.015 Y143.84 E12.77297
G1 X121.192 Y143.298 E12.81848
G1 X121.263 Y143.107 E12.83475
G1 X121.688 Y142.092 E12.92258
G1 X121.736 Y141.984 E12.93202
G1 X121.932 Y141.583 E12.96765
G1 X121.995 Y141.475 E12.97763
G1 X122.302 Y141.014 E13.02184
G1 X122.384 Y140.899 E13.03311
G1 X123.059 Y140.025 E13.12127
G1 X123.139 Y139.925 E13.13149
G1 X123.396 Y139.625 E13.16302
G1 X123.48 Y139.544 E13.17234
G1 X123.912 Y139.155 E13.21874
G0 F9000 X123.2 Y139.853
G1 F1350 X123.2 Y164.861 E15.21499
G0 F9000 X124.8 Y165.361
G1 F1350 X124.8 Y138.467 E17.36178
G0 F9000 X126.4 Y137.567
G1 F1350 X126.4 Y165.404 E19.58385
G0 F9000 X128 Y165.404
G1 F1350 X128 Y136.994 E21.85166
G0 F9000 X129.6 Y136.754
G1 F1350 X129.6 Y165.404 E24.13863
G0 F9000 X131.2 Y165.404
G1 F1350 X131.2 Y136.704 E26.42959
G0 F9000 X132.8 Y136.685
G1 F1350 X132.8 Y165.404 E28.72206
G0 F9000 X134.4 Y165.404
G1 F1350 X134.4 Y136.353 E31.04104
G0 F9000 X136 Y135.403
G1 F1350 X136 Y165.404 E33.43585
G0 F9000 X137.6 Y165.404
G1 F1350 X137.6 Y133.606 E35.9741
G0 F9000 X139.2 Y132.458
G1 F1350 X139.2 Y165.404 E38.60399
G0 F9000 X140.8 Y165.404
G1 F1350 X140.8 Y131.877 E41.28026
G0 F9000 X142.4 Y131.705
G1 F1350 X142.4 Y165.404 E43.97026
G0 F9000 X144 Y165.404
G1 F1350 X144 Y131.705 E46.66026
G0 F9000 X145.6 Y131.705
G1 F1350 X145.6 Y165.404 E49.35026
G0 F9000 X147.2 Y165.404
G1 F1350 X147.2 Y131.705 E52.04026
G0 F9000 X148.8 Y131.705
G1 F1350 X148.8 Y165.404 E54.73026
G0 F9000 X150.4 Y165.404
G1 F1350 X150.4 Y131.705 E57.42026
G0 F9000 X152 Y131.705
G1 F1350 X152 Y165.404 E60.11026
G0 F9000 X153.6 Y165.404
G1 F1350 X153.6 Y131.705 E62.80026
G0 F9000 X155.2 Y131.705
G1 F1350 X155.2 Y165.404 E65.49026
G0 F9000 X156.8 Y165.404
G1 F1350 X156.8 Y131.705 E68.18026
G0 F9000 X158.4 Y131.749
G1 F1350 X158.4 Y165.404 E70.86675
G0 F9000 X160 Y165.404
G1 F1350 X160 Y132.111 E73.52434
G0 F9000 X161.6 Y132.949
G1 F1350 X161.6 Y165.404 E76.11504
G0 F9000 X163.2 Y165.404
G1 F1350 X163.2 Y134.561 E78.57706
G0 F9000 X164.8 Y135.971
G1 F1350 X164.8 Y165.404 E80.92653
G0 F9000 X166.4 Y165.404
G1 F1350 X166.4 Y136.586 E83.22691
G0 F9000 X168 Y136.704
G1 F1350 X168 Y165.404 E85.51787
G0 F9000 X169.6 Y165.404
G1 F1350 X169.6 Y136.704 E87.80882
G0 F9000 X171.2 Y136.859
G1 F1350 X171.2 Y165.404 E90.08741
G0 F9000 X172.8 Y165.404
G1 F1350 X172.8 Y137.239 E92.33566
G0 F9000 X174.4 Y137.933
G1 F1350 X174.4 Y165.404 E94.52852
G0 F9000 X176 Y165.191
G1 F1350 X176 Y139.083 E96.61257
G0 F9000 X177.6 Y140.878
G1 F1350 X177.6 Y164.326 E98.48429
G0 F9000 X179.2 Y161.885
G1 F1350 X179.2 Y145.117 E99.82278
G1 F2700 E92.82278
G0 F9000 X180.254 Y144.973
G0 X180.006 Y143.536
G0 X179.232 Y141.541
G0 X178.898 Y140.896
G0 X177.682 Y139.249
G0 X176.777 Y138.344
G0 X174.985 Y137.037
G0 X173.092 Y136.211
G0 X160.324 Y131.095
G0 X159.135 Y130.777
G0 X157.729 Y130.64
G0 X141.758 Y130.66
G0 X140.082 Y130.952
G0 X125.533 Y136.78
G0 X124.447 Y137.406
G0 X122.749 Y138.77
G0 X121.423 Y140.415
G0 X120.712 Y141.667
G0 X121.6 Y142.302
G1 F2700 E99.82278
G1 F1350 X121.6 Y163.495 E101.5145
G0 F300 X121.6 Y163.495 Z0.54
G0 F9000 X120.775 Y161.801
;TIME_ELAPSED:67.313565
;LAYER:-5
;TYPE:SUPPORT
G1 F1350 X120.848 Y162.063 E101.54164
G1 X120.948 Y162.345 E101.57149
G1 X121.063 Y162.616 E101.60087
G1 X121.184 Y162.857 E101.62778
G1 X121.34 Y163.126 E101.6588
G1 X121.504 Y163.371 E101.68822
G1 X121.673 Y163.591 E101.7159
G1 X121.938 Y163.895 E101.75614
G1 X122.011 Y163.973 E101.7668
G1 X122.13 Y164.082 E101.7829
G1 X122.502 Y164.403 E101.83193
G1 X122.773 Y164.607 E101.86578
G1 X122.992 Y164.745 E101.89161
G1 X123.25 Y164.889 E101.92109
G1 X123.509 Y165.012 E101.9497
G1 X123.787 Y165.122 E101.97953
G1 X124.047 Y165.207 E102.00682
G1 X124.247 Y165.259 E102.02744
G1 X120.771 Y161.783 E102.51794
G1 F2700 E95.51794
G0 F9000 X119.834 Y162.387
G0 X120.253 Y163.376
G0 X120.848 Y164.263
G0 X121.426 Y164.882
G0 X122.455 Y165.666
G0 X122.726 Y165.794
G0 X123.751 Y166.231
G0 X124.247 Y165.259
G1 F2700 E102.51794
G1 F1350 X124.337 Y165.283 E102.52724
G1 X124.621 Y165.338 E102.5561
G1 X124.92 Y165.375 E102.58616
G1 X125.296 Y165.399 E102.62376
G1 X125.423 Y165.402 E102.63643
G1 X125.804 Y165.402 E102.67445
G1 X120.631 Y160.228 E103.40449
G1 X120.636 Y158.82 E103.54498
G1 X127.219 Y165.402 E104.47384
G1 X128.633 Y165.402 E104.61493
G1 X120.641 Y157.411 E105.74262
G1 X120.647 Y156.002 E105.88321
G1 X130.047 Y165.402 E107.20965
G1 X131.461 Y165.402 E107.35074
G1 X120.652 Y154.593 E108.87601
G1 X120.657 Y153.184 E109.0166
G1 X132.875 Y165.402 E110.74069
G1 X134.29 Y165.402 E110.88188
G1 X120.662 Y151.775 E112.80487
G1 X120.668 Y150.366 E112.94546
G1 X135.704 Y165.402 E115.0672
G1 X137.118 Y165.402 E115.20829
G1 X120.673 Y148.957 E117.52886
G1 X120.679 Y147.549 E117.66935
G1 X138.532 Y165.402 E120.1886
G1 X139.947 Y165.402 E120.32979
G1 X120.69 Y146.146 E123.04709
G1 X120.698 Y145.939 E123.06776
G1 X120.729 Y145.631 E123.09865
G1 X120.832 Y144.874 E123.17488
G1 X141.361 Y165.402 E126.07167
G1 X142.775 Y165.402 E126.21276
G1 X121.063 Y143.69 E129.27656
G1 X121.191 Y143.297 E129.3178
G1 X121.262 Y143.106 E129.33813
G1 X121.448 Y142.661 E129.38625
G1 X144.189 Y165.402 E132.59525
G1 X145.603 Y165.402 E132.73634
G1 X121.883 Y141.682 E136.08349
G1 X121.932 Y141.582 E136.0946
G1 X121.953 Y141.54 E136.09929
G1 X121.995 Y141.474 E136.1071
G1 X122.301 Y141.013 E136.16231
G1 X122.383 Y140.898 E136.1764
G1 X122.44 Y140.825 E136.18564
G1 X147.018 Y165.402 E139.65379
G1 X148.432 Y165.402 E139.79488
G1 X123.056 Y140.026 E143.37571
G0 F9000 X123.059 Y140.024
G1 F1350 X123.139 Y139.924 E143.38849
G1 X123.395 Y139.623 E143.42791
G1 X123.48 Y139.543 E143.43956
G1 X123.747 Y139.303 E143.47538
G1 X149.846 Y165.402 E147.15823
G1 X151.26 Y165.402 E147.29932
G1 X124.53 Y138.672 E151.07121
G1 X124.91 Y138.382 E151.11891
G1 X125.054 Y138.278 E151.13664
G1 X125.354 Y138.082 E151.17239
G1 X152.674 Y165.402 E155.02754
G1 X154.089 Y165.402 E155.16873
G1 X126.296 Y137.61 E159.09055
G1 X127.168 Y137.249 E159.18472
G1 X127.264 Y137.213 E159.19495
G1 X127.301 Y137.201 E159.19883
G1 X155.503 Y165.402 E163.17837
G1 X156.917 Y165.402 E163.31946
G1 X128.425 Y136.91 E167.33999
G1 X128.499 Y136.897 E167.34748
G1 X129.673 Y136.744 E167.46562
G1 X158.331 Y165.402 E171.50957
G1 X159.746 Y165.402 E171.65076
G1 X131.046 Y136.703 E175.70057
G1 X132.46 Y136.703 E175.84166
G1 X161.16 Y165.402 E179.89147
G1 X162.574 Y165.402 E180.03256
G1 X133.728 Y136.556 E184.10304
G1 X133.852 Y136.532 E184.11564
G1 X134.5 Y136.319 E184.1837
G1 X134.775 Y136.19 E184.21401
G1 X163.988 Y165.402 E188.33621
G1 X165.402 Y165.402 E188.4773
G1 X135.672 Y135.672 E192.67252
G1 X135.692 Y135.659 E192.6749
G1 X136.221 Y135.218 E192.74362
G1 X136.412 Y134.998 E192.77269
G1 X166.817 Y165.402 E197.0631
G1 X168.231 Y165.402 E197.20419
G1 X137.057 Y134.229 E201.6031
G1 X137.108 Y134.162 E201.61151
G1 X137.201 Y134.05 E201.62603
G1 X137.518 Y133.689 E201.67397
G1 X137.604 Y133.6 E201.68632
G1 X137.732 Y133.489 E201.70322
G1 X169.645 Y165.402 E206.20649
G1 X171.059 Y165.402 E206.34758
G1 X138.52 Y132.863 E210.93919
G1 X138.871 Y132.626 E210.98145
G1 X138.959 Y132.578 E210.99145
G1 X139.419 Y132.348 E211.04276
G1 X172.473 Y165.402 E215.70704
G1 X173.888 Y165.402 E215.84823
G1 X140.441 Y131.956 E220.56789
G1 X140.472 Y131.946 E220.57114
G1 X140.535 Y131.931 E220.5776
G1 X141.054 Y131.825 E220.63046
G1 X141.22 Y131.797 E220.64726
G1 X141.643 Y131.743 E220.68981
G1 X175.25 Y165.35 E225.43212
G1 X175.55 Y165.306 E225.46237
G1 X175.776 Y165.255 E225.48549
G1 X176.097 Y165.162 E225.51884
G1 X176.337 Y165.076 E225.54427
G1 X176.373 Y165.059 E225.54825
G1 X143.018 Y131.705 E230.25493
G1 X144.432 Y131.705 E230.39602
G1 X177.288 Y164.56 E235.03228
G1 X177.374 Y164.503 E235.04258
G1 X177.582 Y164.34 E235.06895
G1 X177.874 Y164.081 E235.10789
G1 X177.975 Y163.985 E235.12179
G1 X178.048 Y163.906 E235.13253
G1 X145.847 Y131.705 E239.67644
G1 X147.261 Y131.705 E239.81753
G1 X178.666 Y163.11 E244.24911
G1 X178.731 Y163.007 E244.26126
G1 X178.856 Y162.778 E244.2873
G1 X178.989 Y162.498 E244.31823
G1 X179.091 Y162.237 E244.34619
G1 X179.12 Y162.149 E244.35543
G1 X148.675 Y131.705 E248.65148
G1 X150.089 Y131.705 E248.79257
G1 X179.351 Y160.966 E252.92168
G1 X179.363 Y160.731 E252.94516
G1 X179.369 Y160.576 E252.96064
G1 X179.366 Y159.567 E253.06132
G1 X151.503 Y131.705 E256.99302
G1 X152.918 Y131.705 E257.13421
G1 X179.36 Y158.147 E260.86546
G1 X179.355 Y156.728 E261.00705
G1 X154.332 Y131.705 E264.53806
G1 X155.746 Y131.705 E264.67915
G1 X179.349 Y155.308 E268.00979
G1 X179.344 Y153.888 E268.15148
G1 X157.16 Y131.705 E271.28181
G1 X157.715 Y131.705 E271.33719
G1 X157.817 Y131.707 E271.34737
G1 X158.121 Y131.719 E271.37773
G1 X158.187 Y131.724 E271.38433
G1 X158.441 Y131.752 E271.40983
G1 X158.651 Y131.781 E271.43098
G1 X179.339 Y152.469 E274.35028
G1 X179.333 Y151.049 E274.49197
G1 X160.684 Y132.4 E277.12355
G1 X160.957 Y132.531 E277.15376
G1 X161.029 Y132.569 E277.16188
G1 X161.09 Y132.606 E277.169
G1 X161.522 Y132.893 E277.22075
G1 X161.66 Y132.991 E277.23764
G1 X161.901 Y133.177 E277.26802
G1 X162.019 Y133.274 E277.28326
G1 X162.394 Y133.6 E277.33284
G1 X162.48 Y133.688 E277.34512
G1 X162.797 Y134.05 E277.39313
G1 X162.889 Y134.162 E277.40759
G1 X163.127 Y134.472 E277.44659
G1 X163.552 Y134.99 E277.51344
G1 X164.048 Y135.459 E277.58156
G1 X164.601 Y135.861 E277.64977
G1 X165.197 Y136.19 E277.7177
G1 X165.832 Y136.441 E277.78583
G1 X166.245 Y136.546 E277.82835
G1 X179.327 Y149.629 E279.67444
G1 X179.322 Y148.21 E279.81603
G1 X167.816 Y136.704 E281.43965
G1 X169.231 Y136.704 E281.58084
G1 X179.317 Y146.79 E283.00408
G1 X179.315 Y146.324 E283.05058
G1 X179.301 Y145.939 E283.08902
G1 X179.267 Y145.625 E283.12053
G1 X179.221 Y145.28 E283.15526
G1 X170.739 Y136.798 E284.35216
G1 X171.499 Y136.897 E284.42864
G1 X171.648 Y136.923 E284.44373
