;FLAVOR:Marlin
;TIME:3637
;Filament used: 2.36217m
;Layer height: 0.2
;MINX:116.967
;MINY:130.131
;MINZ:0.2
;MAXX:183.033
;MAXY:169.869
;MAXZ:14.4
;Generated with Cura_SteamEngine 4.12.0
M140 S65
M105
M190 S65
M104 S200
M105
M109 S200
M82 ;absolute extrusion mode
M201 X500.00 Y500.00 Z100.00 E5000.00 ;Setup machine max acceleration
M203 X500.00 Y500.00 Z10.00 E50.00 ;Setup machine max feedrate
M204 P500.00 R1000.00 T500.00 ;Setup Print/Retract/Travel acceleration
M205 X8.00 Y8.00 Z0.40 E5.00 ;Setup Jerk
M220 S100 ;Reset Feedrate
M221 S100 ;Reset Flowrate

G28 ;Home

G92 E0 ;Reset Extruder
G1 Z2.0 F3000 ;Move Z Axis up
G1 X10.1 Y20 Z0.28 F5000.0 ;Move to start position
G1 X10.1 Y200.0 Z0.28 F1500.0 E15 ;Draw the first line
G1 X10.4 Y200.0 Z0.28 F5000.0 ;Move to side a little
G1 X10.4 Y20 Z0.28 F1500.0 E30 ;Draw the second line
G92 E0 ;Reset Extruder
G1 Z2.0 F3000 ;Move Z Axis up

G92 E0
G92 E0
G1 F2700 E-7
;LAYER_COUNT:72
;LAYER:0
M107
G0 F6000 X179.974 Y138.731 Z0.2
;TYPE:SKIRT
G1 F2700 E0
G1 F1200 X180.568 Y138.731 E0.01976
G1 X180.568 Y139.634 E0.04979
G1 X180.511 Y139.516 E0.05415
G1 X180.351 Y139.248 E0.06453
G1 X180.015 Y138.781 E0.08367
G1 X179.974 Y138.731 E0.08582
G0 F6000 X179.69 Y139.014
G1 F1200 X179.523 Y138.818 E0.09438
G1 X179.038 Y138.331 E0.11724
G1 X180.968 Y138.331 E0.18143
G1 X180.968 Y146.849 E0.46474
G1 X179.383 Y146.851 E0.51746
G1 X179.509 Y146.722 E0.52346
G1 X179.731 Y146.473 E0.53455
G1 X179.907 Y146.237 E0.54434
G1 X179.994 Y146.094 E0.54991
G1 X180.256 Y145.598 E0.56857
G1 X180.391 Y145.261 E0.58064
G1 X180.453 Y145.019 E0.58895
G1 X180.543 Y144.472 E0.60739
G1 X180.567 Y144.164 E0.61767
G1 X180.568 Y141.361 E0.71089
G1 X180.562 Y141.235 E0.71509
G1 X180.536 Y140.944 E0.72481
G1 X180.458 Y140.546 E0.7383
G1 X180.296 Y140.027 E0.75638
G1 X180.151 Y139.69 E0.76858
G1 X180.026 Y139.481 E0.77668
G1 X179.69 Y139.014 E0.79582
G0 F6000 X179.366 Y139.248
G1 F1200 X179.207 Y139.066 E0.80385
G1 X178.073 Y137.931 E0.85722
G1 X181.368 Y137.931 E0.96681
G1 X181.368 Y147.249 E1.27673
G1 X179.15 Y147.251 E1.3505
G1 X178.871 Y147.291 E1.35987
G1 X178.614 Y147.408 E1.36927
G1 X178.444 Y147.544 E1.37651
G1 X178.162 Y147.826 E1.38977
G1 X177.993 Y148.052 E1.39916
G1 X177.893 Y148.316 E1.40855
G1 X177.869 Y148.533 E1.41581
G1 X177.868 Y151.163 E1.50328
G1 X176.376 Y149.671 E1.57346
G1 X176.278 Y149.512 E1.57967
G1 X176.309 Y149.374 E1.58438
G1 X176.376 Y149.293 E1.58787
G1 X179.171 Y146.497 E1.71937
G1 X179.432 Y146.206 E1.73237
G1 X179.64 Y145.907 E1.74448
G1 X179.902 Y145.411 E1.76314
G1 X180.014 Y145.127 E1.77329
G1 X180.059 Y144.954 E1.77924
G1 X180.149 Y144.407 E1.79768
G1 X180.167 Y144.163 E1.80581
G1 X180.168 Y141.36 E1.89904
G1 X180.164 Y141.271 E1.902
G1 X180.138 Y140.98 E1.91172
G1 X180.077 Y140.665 E1.92239
G1 X179.915 Y140.146 E1.94048
G1 X179.791 Y139.864 E1.95072
G1 X179.702 Y139.715 E1.95649
G1 X179.366 Y139.248 E1.97563
G0 F6000 X179.041 Y139.482
G1 F1200 X178.924 Y139.349 E1.98152
G1 X177.108 Y137.531 E2.06699
G1 X181.768 Y137.531 E2.22198
G1 X181.768 Y147.648 E2.55847
G1 X179.15 Y147.651 E2.64555
G1 X178.936 Y147.691 E2.65279
G1 X178.727 Y147.827 E2.66108
G1 X178.445 Y148.109 E2.67435
G1 X178.321 Y148.288 E2.68159
G1 X178.269 Y148.533 E2.68992
G1 X178.267 Y152.132 E2.80962
G1 X178.222 Y152.083 E2.81184
G1 X176.078 Y149.939 E2.91268
G1 X175.922 Y149.714 E2.92179
G1 X175.873 Y149.483 E2.92964
G1 X175.915 Y149.264 E2.93706
G1 X176.08 Y149.023 E2.94677
G1 X178.912 Y146.189 E3.08003
G1 X179.134 Y145.94 E3.09113
G1 X179.287 Y145.72 E3.10004
G1 X179.549 Y145.224 E3.11869
G1 X179.664 Y144.889 E3.13048
G1 X179.754 Y144.342 E3.14891
G1 X179.767 Y144.163 E3.15488
G1 X179.768 Y141.36 E3.24811
G1 X179.766 Y141.307 E3.24987
G1 X179.74 Y141.016 E3.25959
G1 X179.695 Y140.784 E3.26745
G1 X179.533 Y140.265 E3.28554
G1 X179.377 Y139.949 E3.29726
G1 X179.041 Y139.482 E3.31639
G0 F6000 X178.716 Y139.715
G1 F1200 X178.641 Y139.632 E3.32011
G1 X176.158 Y137.147 E3.43695
G1 X176.139 Y137.131 E3.43778
G1 X182.168 Y137.131 E3.6383
G1 X182.168 Y148.048 E4.0014
G1 X179.151 Y148.051 E4.10175
G1 X179.01 Y148.11 E4.10683
G1 X178.728 Y148.392 E4.1201
G1 X178.669 Y148.533 E4.12518
G1 X178.667 Y153.353 E4.2855
G1 X178.608 Y153.767 E4.2994
G1 X178.543 Y153.405 E4.31164
G1 X178.535 Y153.381 E4.31248
G1 X178.358 Y152.947 E4.32807
G1 X178.266 Y152.786 E4.33424
G1 X177.972 Y152.403 E4.35029
G1 X177.927 Y152.354 E4.35251
G1 X175.78 Y150.205 E4.45354
G1 X175.548 Y149.862 E4.46732
G1 X175.472 Y149.487 E4.48004
G1 X175.541 Y149.117 E4.49256
G1 X175.771 Y148.768 E4.50646
G1 X178.613 Y145.923 E4.64021
G1 X178.85 Y145.655 E4.65211
G1 X178.933 Y145.533 E4.65702
G1 X179.195 Y145.037 E4.67568
G1 X179.269 Y144.824 E4.68318
G1 X179.362 Y144.257 E4.70229
G1 X179.367 Y144.163 E4.70542
G1 X179.367 Y141.342 E4.79924
G1 X179.339 Y141.032 E4.8096
G1 X179.313 Y140.903 E4.81397
G1 X179.151 Y140.384 E4.83206
G1 X179.052 Y140.182 E4.83954
G1 X178.716 Y139.715 E4.85867
G0 F6000 X180.568 Y145.865
G1 F1200 X180.568 Y146.45 E4.87813
G1 X180.244 Y146.45 E4.88891
G1 X180.348 Y146.281 E4.89551
G1 X180.568 Y145.865 E4.91116
G0 F6000 X177.469 Y148.766
G1 F1200 X177.468 Y150.197 E4.95875
G1 X176.753 Y149.482 E4.99239
G1 X177.469 Y148.766 E5.02606
G1 F2700 E-1.97394
;MESH:dribblermountv3.stl
G0 F6000 X175.356 Y148.749
G0 X174.124 Y148.202
G0 X177.166 Y144.225
G0 X177.197 Y141.471
G0 X174.701 Y138.761
G0 X167.799 Y137.676
G0 X166.718 Y136.045
G0 X162.744 Y136.042
G0 X159.271 Y138.601
G0 X135.351 Y137.833
G0 X134.741 Y137.672
G0 X133.957 Y137.223
G0 X133.502 Y136.765
G0 X133.057 Y135.992
G0 X132.89 Y135.368
G0 X132.798 Y133.007
G0 X132.611 Y132.388
G0 X132.142 Y131.691
G0 X131.634 Y131.274
G0 X130.869 Y130.959
G0 X130.227 Y130.894
G0 X129.393 Y131.059
G0 X128.783 Y131.416
G0 X127.897 Y132.209
;TYPE:WALL-INNER
G1 F2700 E5.02606
G1 F1200 X127.897 Y131.976 E5.03769
G1 X127.96 Y131.624 E5.05553
G1 X128.115 Y131.357 E5.07093
G1 X128.356 Y131.157 E5.08656
G1 X128.657 Y131.047 E5.10254
G1 X129.074 Y131.031 E5.12336
G1 X128.849 Y131.153 E5.12422
G1 X128.721 Y131.239 E5.126
G1 X128.443 Y131.468 E5.1393
G1 X128.329 Y131.582 E5.14487
G1 X128.086 Y131.882 E5.16079
G1 X127.897 Y132.209 E5.16877
G0 F6000 X127.773 Y133.372
G0 X127.896 Y134.652
G1 F1200 X128.019 Y134.878 E5.1816
G1 X128.105 Y135.006 E5.1893
G1 X128.335 Y135.285 E5.20734
G1 X128.449 Y135.397 E5.21531
G1 X128.744 Y135.637 E5.23428
G1 X128.873 Y135.723 E5.24202
G1 X129.193 Y135.893 E5.26009
G1 X129.337 Y135.953 E5.26788
G1 X129.69 Y136.06 E5.28628
G1 X129.845 Y136.092 E5.29418
G1 X130.217 Y136.129 E5.31283
G1 X130.375 Y136.129 E5.32071
G1 X130.747 Y136.092 E5.33936
G1 X130.902 Y136.06 E5.34726
G1 X131.254 Y135.953 E5.36561
G1 X131.404 Y135.892 E5.37369
G1 X131.743 Y135.708 E5.39293
G1 X131.871 Y135.622 E5.40063
G1 X132.15 Y135.392 E5.41867
G1 X132.262 Y135.278 E5.42664
G1 X132.502 Y134.983 E5.44561
G1 X132.697 Y134.649 E5.46491
G1 X132.697 Y134.955 E5.4676
G1 X132.7 Y135.023
G1 X132.732 Y135.398 E5.48638
G1 X132.756 Y135.538 E5.49347
G1 X132.862 Y135.93 E5.51373
G1 X132.912 Y136.062 E5.52077
G1 X133.085 Y136.43 E5.54106
G1 X133.155 Y136.551 E5.54803
G1 X133.38 Y136.871 E5.56755
G1 X133.468 Y136.975 E5.57434
G1 X133.749 Y137.257 E5.59421
G1 X133.859 Y137.35 E5.60139
G1 X134.2 Y137.586 E5.62208
G1 X134.32 Y137.655 E5.62899
G1 X134.674 Y137.819 E5.64845
G1 X134.804 Y137.866 E5.65535
G1 X135.191 Y137.969 E5.67533
G1 X135.326 Y137.993 E5.68217
G1 X135.713 Y138.028 E5.70156
G1 X135.783 Y138.031 E5.70505
G1 X159.257 Y138.03 E6.87617
G1 X159.327 Y138.027 E6.87967
G1 X159.703 Y137.993 E6.8985
G1 X159.838 Y137.969 E6.90534
G1 X160.228 Y137.866 E6.92547
G1 X160.362 Y137.816 E6.9326
G1 X160.733 Y137.642 E6.95305
G1 X160.852 Y137.573 E6.95991
G1 X161.171 Y137.349 E6.97936
G1 X161.277 Y137.26 E6.98626
G1 X161.564 Y136.974 E7.00648
G1 X161.654 Y136.863 E7.01361
G1 X161.888 Y136.528 E7.03399
G1 X161.957 Y136.407 E7.04094
G1 X162.121 Y136.053 E7.06041
G1 X162.168 Y135.923 E7.0673
G1 X162.271 Y135.536 E7.08728
G1 X162.295 Y135.401 E7.09412
G1 X162.33 Y135.014 E7.11351
G1 X162.333 Y134.944 E7.11701
G1 X162.333 Y134.652 E7.13157
G1 X162.451 Y134.873 E7.13318
G1 X162.54 Y135.005 E7.13661
G1 X162.771 Y135.285 E7.15472
G1 X162.884 Y135.398 E7.16269
G1 X163.185 Y135.641 E7.18199
G1 X163.313 Y135.724 E7.1896
G1 X163.63 Y135.893 E7.20753
G1 X163.774 Y135.953 E7.21531
G1 X164.127 Y136.06 E7.23371
G1 X164.282 Y136.092 E7.24161
G1 X164.654 Y136.129 E7.26026
G1 X164.812 Y136.129 E7.26814
G1 X165.184 Y136.092 E7.28679
G1 X165.339 Y136.06 E7.29469
G1 X165.691 Y135.953 E7.31304
G1 X165.841 Y135.892 E7.32112
G1 X166.18 Y135.708 E7.34037
G1 X166.308 Y135.622 E7.34806
G1 X166.587 Y135.392 E7.3661
G1 X166.699 Y135.278 E7.37407
G1 X166.939 Y134.983 E7.39304
G1 X167.134 Y134.649 E7.41234
G1 X167.134 Y134.955 E7.41414
G1 X167.137 Y135.023
G1 X167.169 Y135.399 E7.43296
G1 X167.193 Y135.536 E7.4399
G1 X167.297 Y135.924 E7.45994
G1 X167.346 Y136.06 E7.46716
G1 X167.523 Y136.433 E7.48775
G1 X167.591 Y136.551 E7.49455
G1 X167.817 Y136.871 E7.51409
G1 X167.905 Y136.975 E7.52089
G1 X168.186 Y137.257 E7.54075
G1 X168.296 Y137.35 E7.54794
G1 X168.637 Y137.586 E7.56863
G1 X168.757 Y137.655 E7.57553
G1 X169.111 Y137.819 E7.595
G1 X169.241 Y137.866 E7.60189
G1 X169.628 Y137.969 E7.62187
G1 X169.763 Y137.993 E7.62872
G1 X170.15 Y138.028 E7.6481
G1 X170.22 Y138.031 E7.6516
G1 X174.366 Y138.032 E7.85844
G1 X174.677 Y138.081 E7.87415
G1 X174.943 Y138.216 E7.88903
G1 X175.081 Y138.333 E7.89806
G1 X177.471 Y140.725 E8.06676
G1 X177.665 Y140.994 E8.0833
G1 X177.756 Y141.283 E8.09842
G1 X177.768 Y141.43 E8.10578
G1 X177.767 Y144.096 E8.23878
G1 X177.714 Y144.415 E8.25492
G1 X177.569 Y144.691 E8.27047
G1 X177.452 Y144.822 E8.27923
G1 X174.609 Y147.666 E8.47986
G1 X174.558 Y147.724 E8.48371
G1 X174.354 Y147.973 E8.49977
G1 X174.304 Y148.047 E8.50423
G1 X174.304 Y143.471 E8.73252
G1 X174.228 Y143.097 E8.75156
G1 X173.978 Y142.731 E8.77368
G1 X173.609 Y142.497 E8.79548
G1 X173.261 Y142.431 E8.81315
G1 X126.736 Y142.431 E11.13429
G1 X126.362 Y142.507 E11.15333
G1 X125.996 Y142.757 E11.17544
G1 X125.762 Y143.126 E11.19724
G1 X125.696 Y143.474 E11.21491
G1 X125.696 Y163.529 E12.21546
G1 X125.772 Y163.903 E12.2345
G1 X126.022 Y164.269 E12.25661
G1 X126.391 Y164.503 E12.27841
G1 X126.739 Y164.569 E12.29608
G1 X166.238 Y164.569 E14.2667
G1 X166.642 Y164.569 E14.28685
G1 X166.35 Y164.808 E14.29338
G1 X166.238 Y164.922 E14.30022
G1 X165.998 Y165.217 E14.31919
G1 X165.912 Y165.346 E14.32693
G1 X165.742 Y165.666 E14.34501
G1 X165.682 Y165.81 E14.35279
G1 X165.575 Y166.163 E14.37119
G1 X165.543 Y166.318 E14.37909
G1 X165.506 Y166.69 E14.39774
G1 X165.506 Y166.848 E14.40562
G1 X165.543 Y167.221 E14.42432
G1 X165.575 Y167.376 E14.43222
G1 X165.682 Y167.728 E14.45057
G1 X165.743 Y167.878 E14.45865
G1 X165.927 Y168.217 E14.47789
G1 X166.014 Y168.344 E14.48558
G1 X166.242 Y168.62 E14.50344
G1 X166.355 Y168.735 E14.51148
G1 X166.643 Y168.969 E14.52999
G1 X166.242 Y168.969 E14.53775
G1 X124.599 Y168.969 E16.61533
G1 X124.196 Y168.968 E16.63543
G1 X124.207 Y168.961
G1 X124.485 Y168.732 E16.64166
G1 X124.599 Y168.618 E16.64848
G1 X124.842 Y168.318 E16.66774
G1 X124.924 Y168.191 E16.67528
G1 X125.094 Y167.874 E16.69322
G1 X125.154 Y167.729 E16.70105
G1 X125.261 Y167.376 E16.71946
G1 X125.293 Y167.221 E16.72735
G1 X125.33 Y166.845 E16.7462
G1 X125.329 Y166.681 E16.75438
G1 X125.289 Y166.301 E16.77345
G1 X125.258 Y166.154 E16.78094
G1 X125.154 Y165.811 E16.79882
G1 X125.093 Y165.661 E16.8069
G1 X124.909 Y165.322 E16.82615
G1 X124.823 Y165.194 E16.83384
G1 X124.593 Y164.915 E16.85188
G1 X124.479 Y164.803 E16.85985
G1 X124.184 Y164.563 E16.87882
G1 X124.055 Y164.477 E16.88656
G1 X123.735 Y164.307 E16.90464
G1 X123.591 Y164.247 E16.91242
G1 X123.238 Y164.14 E16.93082
G1 X123.083 Y164.108 E16.93872
G1 X122.711 Y164.071 E16.95737
G1 X122.553 Y164.071 E16.96525
G1 X122.181 Y164.108 E16.9839
G1 X122.026 Y164.14 E16.9918
G1 X121.674 Y164.247 E17.01015
G1 X121.524 Y164.308 E17.01823
G1 X121.185 Y164.492 E17.03748
G1 X121.057 Y164.578 E17.04517
G1 X120.778 Y164.808 E17.06321
G1 X120.666 Y164.922 E17.07118
G1 X120.426 Y165.217 E17.09016
G1 X120.34 Y165.346 E17.09789
G1 X120.17 Y165.666 E17.11597
G1 X120.11 Y165.81 E17.12375
G1 X120.003 Y166.163 E17.14215
G1 X119.971 Y166.318 E17.15005
G1 X119.934 Y166.69 E17.1687
G1 X119.934 Y166.848 E17.17658
G1 X119.971 Y167.221 E17.19528
G1 X120.003 Y167.376 E17.20318
G1 X120.11 Y167.728 E17.22153
G1 X120.171 Y167.878 E17.22961
G1 X120.355 Y168.217 E17.24886
G1 X120.442 Y168.344 E17.25654
G1 X120.67 Y168.62 E17.2744
G1 X120.783 Y168.735 E17.28244
G1 X121.07 Y168.968 E17.30088
G1 X120.67 Y168.968 E17.3086
G1 X119.679 Y168.968 E17.35804
G1 X119.334 Y168.908 E17.37551
G1 X119.056 Y168.748 E17.39152
G1 X118.855 Y168.505 E17.40725
G1 X118.747 Y168.204 E17.4232
G1 X118.732 Y168.037 E17.43157
G1 X118.732 Y138.031 E18.92857
G1 X126.856 Y138.031 E19.33388
G1 X127.23 Y137.955 E19.35292
G1 X127.596 Y137.705 E19.37503
G1 X127.83 Y137.336 E19.39683
G1 X127.896 Y136.988 E19.41451
G1 X127.896 Y134.652 E19.53105
G0 F6000 X128.296 Y135.788
G1 F1200 X128.506 Y135.959 E19.54456
G1 X128.668 Y136.067 E19.55427
G1 X129.022 Y136.255 E19.57427
G1 X129.202 Y136.33 E19.584
G1 X129.591 Y136.448 E19.60428
G1 X129.785 Y136.488 E19.61416
G1 X130.197 Y136.529 E19.63482
G1 X130.395 Y136.529 E19.6447
G1 X130.807 Y136.488 E19.66535
G1 X131.001 Y136.448 E19.67524
G1 X131.388 Y136.33 E19.69542
G1 X131.575 Y136.254 E19.70549
G1 X131.95 Y136.051 E19.72676
G1 X132.11 Y135.943 E19.7364
G1 X132.389 Y135.713 E19.75444
G1 X132.481 Y136.053 E19.76429
G1 X132.543 Y136.218 E19.77308
G1 X132.73 Y136.616 E19.79502
G1 X132.818 Y136.767 E19.80374
G1 X133.063 Y137.116 E19.82501
G1 X133.173 Y137.246 E19.83351
G1 X133.478 Y137.551 E19.85503
G1 X133.615 Y137.668 E19.86402
G1 X133.986 Y137.924 E19.88651
G1 X134.136 Y138.011 E19.89516
G1 X134.522 Y138.189 E19.91636
G1 X134.684 Y138.248 E19.92497
G1 X135.104 Y138.36 E19.94665
G1 X135.273 Y138.39 E19.95521
G1 X135.686 Y138.427 E19.9759
G1 X135.774 Y138.431 E19.9803
G1 X159.266 Y138.43 E21.15232
G1 X159.354 Y138.426 E21.15671
G1 X159.756 Y138.39 E21.17685
G1 X159.924 Y138.36 E21.18536
G1 X160.349 Y138.248 E21.20729
G1 X160.517 Y138.185 E21.21624
G1 X160.919 Y137.997 E21.23838
G1 X161.068 Y137.91 E21.24699
G1 X161.415 Y137.666 E21.26815
G1 X161.547 Y137.555 E21.27676
G1 X161.861 Y137.242 E21.29888
G1 X161.974 Y137.104 E21.30778
G1 X162.226 Y136.742 E21.32978
G1 X162.313 Y136.59 E21.33852
G1 X162.491 Y136.205 E21.35968
G1 X162.55 Y136.043 E21.36828
G1 X162.638 Y135.714 E21.38527
G1 X162.95 Y135.965 E21.39685
G1 X163.11 Y136.069 E21.40637
G1 X163.459 Y136.255 E21.42611
G1 X163.639 Y136.33 E21.43583
G1 X164.028 Y136.448 E21.45611
G1 X164.222 Y136.488 E21.466
G1 X164.634 Y136.529 E21.48665
G1 X164.832 Y136.529 E21.49653
G1 X165.244 Y136.488 E21.51719
G1 X165.438 Y136.448 E21.52707
G1 X165.825 Y136.33 E21.54725
G1 X166.012 Y136.254 E21.55733
G1 X166.387 Y136.051 E21.5786
G1 X166.547 Y135.943 E21.58823
G1 X166.826 Y135.713 E21.60627
G1 X166.915 Y136.044 E21.61564
G1 X166.976 Y136.214 E21.62465
G1 X167.168 Y136.619 E21.64701
G1 X167.254 Y136.767 E21.65555
G1 X167.5 Y137.116 E21.67685
G1 X167.61 Y137.246 E21.68535
G1 X167.915 Y137.551 E21.70687
G1 X168.052 Y137.668 E21.71585
G1 X168.423 Y137.924 E21.73834
G1 X168.573 Y138.011 E21.74699
G1 X168.959 Y138.189 E21.7682
G1 X169.121 Y138.248 E21.7768
G1 X169.541 Y138.36 E21.79849
G1 X169.71 Y138.39 E21.80705
G1 X170.123 Y138.427 E21.82774
G1 X170.211 Y138.431 E21.83213
G1 X174.336 Y138.432 E22.03793
G1 X174.551 Y138.466 E22.04879
G1 X174.809 Y138.627 E22.06396
G1 X177.168 Y140.988 E22.23047
G1 X177.302 Y141.174 E22.24191
G1 X177.368 Y141.451 E22.25612
G1 X177.367 Y144.06 E22.38628
G1 X177.329 Y144.288 E22.39781
G1 X177.169 Y144.539 E22.41266
G1 X175.044 Y146.665 E22.56263
G1 X174.704 Y147.005 E22.58662
G1 X174.704 Y146.524 E22.59954
G1 X174.704 Y143.431 E22.75385
G1 X174.604 Y142.938 E22.77894
G1 X174.262 Y142.437 E22.80921
G1 X173.759 Y142.118 E22.83892
G1 X173.299 Y142.031 E22.86228
G1 X126.696 Y142.031 E25.18731
