;FLAVOR:Marlin
;TIME:540
;Filament used: 0.408176m
;Layer height: 0.2
;MINX:126.836
;MINY:132.335
;MINZ:0.24
;MAXX:173.164
;MAXY:150.665
;MAXZ:3.53
;Generated with Cura_SteamEngine 4.12.0
M140 S60
M105
M190 S60
M104 S200
M105
M109 S200
M82 ;absolute extrusion mode
M201 X500.00 Y500.00 Z100.00 E5000.00 ;Setup machine max acceleration
M203 X500.00 Y500.00 Z10.00 E50.00 ;Setup machine max feedrate
M204 P500.00 R1000.00 T500.00 ;Setup Print/Retract/Travel acceleration
M205 X8.00 Y8.00 Z0.40 E5.00 ;Setup Jerk
M220 S100 ;Reset Feedrate
M221 S100 ;Reset Flowrate

G28 ;Home

G92 E0 ;Reset Extruder
G1 Z2.0 F3000 ;Move Z Axis up
G1 X10.1 Y20 Z0.28 F5000.0 ;Move to start position
G1 X10.1 Y200.0 Z0.28 F1500.0 E15 ;Draw the first line
G1 X10.4 Y200.0 Z0.28 F5000.0 ;Move to side a little
G1 X10.4 Y20 Z0.28 F1500.0 E30 ;Draw the second line
G92 E0 ;Reset Extruder
G1 Z2.0 F3000 ;Move Z Axis up

G92 E0
G92 E0
G1 F2700 E-7
;LAYER_COUNT:12
;LAYER:-6
M107
G0 F9000 X131.154 Y134.839 Z0.24
;TYPE:SUPPORT-INTERFACE
G1 F2700 E0
G1 F1350 X131.261 Y134.739 E0.01169
G1 X131.556 Y134.48 E0.04303
G1 X131.758 Y134.323 E0.06345
G1 X132.013 Y134.151 E0.088
G1 X132.276 Y133.997 E0.11233
G1 X132.655 Y133.809 E0.1461
G1 X132.858 Y133.724 E0.16367
G1 X133.207 Y133.606 E0.19308
G1 X133.488 Y133.53 E0.21631
G1 X133.767 Y133.474 E0.23903
G1 X134.058 Y133.435 E0.26246
G1 X134.466 Y133.406 E0.29512
G1 X134.643 Y133.4 E0.30925
G1 X140.807 Y133.4 E0.80129
G1 X140.933 Y133.404 E0.81135
G1 X141.31 Y133.428 E0.84151
G1 X141.608 Y133.465 E0.86548
G1 X141.892 Y133.52 E0.88857
G1 X142.183 Y133.596 E0.91258
G1 X142.441 Y133.68 E0.93424
G1 X142.72 Y133.791 E0.9582
G1 X142.978 Y133.913 E0.98099
G1 X143.236 Y134.056 E1.00453
G1 X143.464 Y134.202 E1.02614
G1 X143.652 Y134.342 E1.04485
G1 X144.214 Y134.706 E1.0983
G1 X144.829 Y135.003 E1.15282
G1 X145.477 Y135.219 E1.20734
G1 X146.147 Y135.353 E1.26189
G1 X146.85 Y135.4 E1.31813
G1 X153.145 Y135.4 E1.82062
G1 X153.813 Y135.358 E1.87405
G1 X154.484 Y135.229 E1.92859
G1 X155.133 Y135.016 E1.98312
G1 X155.753 Y134.722 E2.03789
G1 X155.947 Y134.604 E2.05602
G1 X156.65 Y134.127 E2.12383
G1 X156.918 Y133.969 E2.14867
G1 X157.175 Y133.839 E2.17166
G1 X157.445 Y133.723 E2.19511
G1 X157.701 Y133.631 E2.21683
G1 X157.993 Y133.547 E2.24108
G1 X158.254 Y133.491 E2.26239
G1 X158.574 Y133.443 E2.28822
G1 X159.042 Y133.407 E2.32569
G1 X159.234 Y133.4 E2.34102
G1 X165.382 Y133.4 E2.83178
G1 X165.508 Y133.404 E2.84185
G1 X165.885 Y133.428 E2.872
G1 X166.18 Y133.465 E2.89573
G1 X166.468 Y133.52 E2.91914
G1 X166.76 Y133.597 E2.94324
G1 X167.143 Y133.725 E2.97548
G1 X167.31 Y133.791 E2.98981
G1 X167.673 Y133.968 E3.02205
G1 X167.924 Y134.11 E3.04507
G1 X168.158 Y134.263 E3.06739
G1 X168.408 Y134.452 E3.0924
G1 X168.731 Y134.732 E3.12653
G1 X168.847 Y134.84 E3.13918
G1 X170.661 Y136.654 E3.34396
G1 X170.761 Y136.761 E3.35565
G1 X171.02 Y137.056 E3.38699
G1 X171.177 Y137.258 E3.40741
G1 X171.349 Y137.513 E3.43196
G1 X171.497 Y137.765 E3.45529
G1 X171.69 Y138.152 E3.48981
G1 X171.772 Y138.348 E3.50677
G1 X171.897 Y138.716 E3.53779
G1 X171.97 Y138.988 E3.56027
G1 X172.026 Y139.267 E3.58299
G1 X172.065 Y139.553 E3.60603
G1 X172.094 Y139.965 E3.639
G1 X172.1 Y140.13 E3.65218
G1 X172.1 Y144.807 E4.02552
G1 X172.096 Y144.933 E4.03558
G1 X172.072 Y145.31 E4.06573
G1 X172.035 Y145.608 E4.0897
G1 X171.98 Y145.892 E4.1128
G1 X171.904 Y146.183 E4.1368
G1 X171.82 Y146.441 E4.15846
G1 X171.709 Y146.72 E4.18243
G1 X171.587 Y146.978 E4.20521
G1 X171.443 Y147.237 E4.22887
G1 X171.304 Y147.456 E4.24957
G1 X171.106 Y147.722 E4.27604
G1 X170.802 Y148.076 E4.31329
G1 X170.591 Y148.291 E4.33734
G1 X170.298 Y148.548 E4.36845
G1 X170.081 Y148.717 E4.3904
G1 X169.85 Y148.873 E4.41265
G1 X169.582 Y149.031 E4.43749
G1 X169.325 Y149.161 E4.46048
G1 X169.056 Y149.276 E4.48383
G1 X168.799 Y149.369 E4.50565
G1 X168.507 Y149.453 E4.5299
G1 X168.246 Y149.509 E4.55121
G1 X167.926 Y149.557 E4.57704
G1 X167.458 Y149.593 E4.61451
G1 X167.266 Y149.6 E4.62984
G1 X132.693 Y149.6 E7.38961
G1 X132.567 Y149.596 E7.39967
G1 X132.19 Y149.572 E7.42983
G1 X131.892 Y149.535 E7.4538
G1 X131.608 Y149.48 E7.47689
G1 X131.317 Y149.404 E7.5009
G1 X131.057 Y149.319 E7.52273
G1 X130.78 Y149.209 E7.54652
G1 X130.521 Y149.086 E7.56941
G1 X130.263 Y148.943 E7.59296
G1 X130.044 Y148.804 E7.61366
G1 X129.778 Y148.606 E7.64013
G1 X129.424 Y148.302 E7.67738
G1 X129.209 Y148.091 E7.70143
G1 X128.95 Y147.796 E7.73276
G1 X128.783 Y147.581 E7.75449
G1 X128.624 Y147.345 E7.77721
G1 X128.469 Y147.082 E7.80158
G1 X128.339 Y146.825 E7.82457
G1 X128.223 Y146.555 E7.84802
G1 X128.131 Y146.299 E7.86974
G1 X128.047 Y146.007 E7.89399
G1 X127.991 Y145.746 E7.9153
G1 X127.943 Y145.426 E7.94113
G1 X127.906 Y144.948 E7.9794
G1 X127.9 Y144.78 E7.99282
G1 X127.9 Y140.118 E8.36496
G1 X127.904 Y139.992 E8.37502
G1 X127.928 Y139.615 E8.40518
G1 X127.965 Y139.32 E8.42891
G1 X128.02 Y139.032 E8.45232
G1 X128.091 Y138.76 E8.47476
G1 X128.228 Y138.345 E8.50964
G1 X128.291 Y138.19 E8.523
G1 X128.468 Y137.827 E8.55524
G1 X128.611 Y137.574 E8.57843
G1 X128.763 Y137.342 E8.60057
G1 X128.952 Y137.092 E8.62559
G1 X129.232 Y136.769 E8.65971
G1 X129.34 Y136.653 E8.67236
G1 X131.154 Y134.839 E8.87714
G0 F9000 X131.2 Y134.796
G1 F1350 X131.2 Y149.365 E10.0401
G0 F9000 X132.8 Y149.6
G1 F1350 X132.8 Y133.748 E11.30548
G0 F9000 X134.4 Y133.41
G1 F1350 X134.4 Y149.6 E12.59784
G0 F9000 X136 Y149.6
G1 F1350 X136 Y133.4 E13.89099
G0 F9000 X137.6 Y133.4
G1 F1350 X137.6 Y149.6 E15.18414
G0 F9000 X139.2 Y149.6
G1 F1350 X139.2 Y133.4 E16.4773
G0 F9000 X140.8 Y133.4
G1 F1350 X140.8 Y149.6 E17.77045
G0 F9000 X142.4 Y149.6
G1 F1350 X142.4 Y133.667 E19.04229
G0 F9000 X144 Y134.568
G1 F1350 X144 Y149.6 E20.24221
G0 F9000 X145.6 Y149.6
G1 F1350 X145.6 Y135.244 E21.38817
G0 F9000 X147.2 Y135.4
G1 F1350 X147.2 Y149.6 E22.52168
G0 F9000 X148.8 Y149.6
G1 F1350 X148.8 Y135.4 E23.65518
G0 F9000 X150.4 Y135.4
G1 F1350 X150.4 Y149.6 E24.78869
G0 F9000 X152 Y149.6
G1 F1350 X152 Y135.4 E25.92219
G0 F9000 X153.6 Y135.371
G1 F1350 X153.6 Y149.6 E27.05801
G0 F9000 X155.2 Y149.6
G1 F1350 X155.2 Y134.984 E28.22472
G0 F9000 X156.8 Y134.038
G1 F1350 X156.8 Y149.6 E29.46695
G0 F9000 X158.4 Y149.6
G1 F1350 X158.4 Y133.469 E30.7546
G0 F9000 X160 Y133.4
G1 F1350 X160 Y149.6 E32.04775
G0 F9000 X161.6 Y149.6
G1 F1350 X161.6 Y133.4 E33.3409
G0 F9000 X163.2 Y133.4
G1 F1350 X163.2 Y149.6 E34.63406
G0 F9000 X164.8 Y149.6
G1 F1350 X164.8 Y133.4 E35.92721
G0 F9000 X166.4 Y133.508
G1 F1350 X166.4 Y149.6 E37.21175
G0 F9000 X168 Y149.546
G1 F1350 X168 Y134.16 E38.43992
G0 F9000 X169.6 Y135.593
G1 F1350 X169.6 Y149.021 E39.5118
G0 F9000 X171.2 Y147.596
G1 F1350 X171.2 Y137.293 E40.33423
G1 F2700 E33.33423
G0 F9000 X171.833 Y136.369
G0 X169.448 Y133.945
G0 X168.476 Y133.199
G0 X167.499 Y132.722
G0 X166.351 Y132.413
G0 X165.405 Y132.336
G0 X134.418 Y132.343
G0 X133.246 Y132.493
G0 X132.202 Y132.845
G0 X131.144 Y133.453
G0 X130.735 Y133.8
G0 X128.847 Y135.64
G0 X129.6 Y136.393
G1 F2700 E40.33423
G1 F1350 X129.6 Y148.453 E41.29692
G0 F9000 X128 Y145.787
G1 F1350 X128 Y139.136 E41.82783
G1 F2700 E34.82783
G0 F300 X128 Y139.136 Z0.54
G0 F9000 X126.868 Y139.513
G0 X126.844 Y145.016
G0 X126.94 Y145.727
G0 X127.113 Y146.613
G0 X128.263 Y146.648
;TIME_ELAPSED:33.036274
;LAYER:-5
;TYPE:SUPPORT
G1 F2700 E41.82783
G1 F1350 X130.852 Y149.237 E42.19316
G1 X130.78 Y149.208 E42.20091
G1 X130.521 Y149.085 E42.22952
G1 X130.263 Y148.942 E42.25895
G1 X130.044 Y148.803 E42.28483
G1 X129.778 Y148.605 E42.31792
G1 X129.423 Y148.3 E42.36462
G1 X129.295 Y148.184 E42.38186
G1 X129.208 Y148.09 E42.39464
G1 X128.949 Y147.795 E42.43381
G1 X128.782 Y147.58 E42.46097
G1 X128.624 Y147.344 E42.48931
G1 X128.468 Y147.081 E42.51982
G1 X128.339 Y146.824 E42.54851
G1 F2700 E35.54851
G0 F9000 X127.535 Y147.594
G0 X128.137 Y148.483
G0 X128.722 Y149.102
G0 X129.289 Y149.532
G0 X130.024 Y150.028
G0 X130.852 Y149.237
G1 F2700 E42.54851
G1 F1350 X131.056 Y149.318 E42.57041
G1 X131.316 Y149.403 E42.59771
G1 X131.608 Y149.479 E42.62781
G1 X131.891 Y149.533 E42.65656
G1 X132.19 Y149.57 E42.68662
G1 X132.566 Y149.595 E42.72422
G1 X132.626 Y149.596 E42.73021
G1 X127.902 Y144.873 E43.39675
G1 X127.9 Y144.778 E43.40623
G1 X127.9 Y143.456 E43.53814
G1 X134.043 Y149.599 E44.40498
G1 X135.457 Y149.599 E44.54607
G1 X127.9 Y142.042 E45.61245
G1 X127.9 Y140.627 E45.75364
G1 X136.871 Y149.599 E47.01961
G1 X138.286 Y149.599 E47.1608
G1 X127.971 Y139.285 E48.61629
G1 X128.02 Y139.031 E48.6421
G1 X128.09 Y138.759 E48.67012
G1 X128.228 Y138.344 E48.71376
G1 X128.262 Y138.251 E48.72364
G1 X128.29 Y138.189 E48.73043
G1 X139.7 Y149.599 E50.34051
G1 X141.114 Y149.599 E50.48159
G1 X128.802 Y137.287 E52.21895
G1 X128.952 Y137.091 E52.24358
G1 X129.232 Y136.768 E52.28623
G1 X129.339 Y136.652 E52.30198
G1 X129.46 Y136.531 E52.31905
G1 X142.528 Y149.599 E54.16309
G1 X143.942 Y149.599 E54.30418
G1 X130.167 Y135.824 E56.24798
G1 X130.874 Y135.117 E56.34774
G1 X145.357 Y149.599 E58.39138
G1 X146.771 Y149.599 E58.53247
G1 X131.609 Y134.437 E60.67199
G1 X131.758 Y134.322 E60.69077
G1 X132.013 Y134.15 E60.72146
G1 X132.276 Y133.996 E60.75187
G1 X132.48 Y133.894 E60.77463
G1 X148.185 Y149.599 E62.99078
G1 X149.599 Y149.599 E63.13187
G1 X133.522 Y133.522 E65.40051
G1 X133.766 Y133.473 E65.42534
G1 X134.057 Y133.435 E65.45462
G1 X134.465 Y133.406 E65.49543
G1 X134.642 Y133.4 E65.5131
G1 X134.814 Y133.4 E65.53027
G1 X151.013 Y149.599 E67.81612
G1 X152.428 Y149.599 E67.95731
G1 X136.229 Y133.4 E70.24316
G1 X137.643 Y133.4 E70.38425
G1 X153.842 Y149.599 E72.67011
G1 X155.256 Y149.599 E72.8112
G1 X139.057 Y133.4 E75.09705
G1 X140.471 Y133.4 E75.23814
G1 X156.67 Y149.599 E77.52399
G1 X158.085 Y149.599 E77.66518
G1 X142.046 Y133.561 E79.92839
G1 X142.182 Y133.596 E79.9424
G1 X142.44 Y133.68 E79.96947
G1 X142.718 Y133.79 E79.99931
G1 X142.976 Y133.913 E80.02783
G1 X143.235 Y134.056 E80.05735
G1 X143.463 Y134.201 E80.08431
G1 X143.651 Y134.341 E80.1077
G1 X144.213 Y134.705 E80.17451
G1 X144.828 Y135.002 E80.24265
G1 X144.939 Y135.04 E80.25436
G1 X159.499 Y149.599 E82.30886
G1 X160.913 Y149.599 E82.44995
G1 X146.704 Y135.39 E84.455
G1 X146.849 Y135.399 E84.46949
G1 X148.128 Y135.4 E84.59711
G1 X162.327 Y149.599 E86.60074
G1 X163.741 Y149.599 E86.74183
G1 X149.542 Y135.4 E88.74546
G1 X150.956 Y135.4 E88.88655
G1 X165.156 Y149.599 E90.89026
G1 X166.57 Y149.599 E91.03135
G1 X152.37 Y135.4 E93.03505
G1 X153.144 Y135.4 E93.11228
G1 X153.746 Y135.362 E93.17247
G1 X167.939 Y149.554 E95.17518
G1 X168.245 Y149.508 E95.20606
G1 X168.506 Y149.452 E95.23269
G1 X168.798 Y149.368 E95.26301
G1 X169.055 Y149.275 E95.29028
G1 X169.068 Y149.269 E95.29171
G1 X154.893 Y135.094 E97.29196
G1 X155.132 Y135.016 E97.31704
G1 X155.752 Y134.721 E97.38555
G1 X155.862 Y134.649 E97.39867
G1 X169.99 Y148.777 E99.39228
G1 X170.08 Y148.717 E99.40307
G1 X170.297 Y148.548 E99.43052
G1 X170.59 Y148.29 E99.46947
G1 X170.684 Y148.203 E99.48225
G1 X170.754 Y148.127 E99.49256
G1 X156.716 Y134.088 E101.47355
G1 X156.917 Y133.969 E101.49685
G1 X157.174 Y133.838 E101.52564
G1 X157.443 Y133.723 E101.55483
G1 X157.679 Y133.638 E101.57986
G1 X171.379 Y147.337 E103.513
G1 X171.442 Y147.236 E103.52488
G1 X171.586 Y146.977 E103.55445
G1 X171.708 Y146.72 E103.58284
G1 X171.819 Y146.441 E103.6128
G1 X171.838 Y146.383 E103.61889
G1 X158.876 Y133.42 E105.44804
G1 X159.041 Y133.407 E105.46455
G1 X159.233 Y133.399 E105.48373
G1 X160.269 Y133.399 E105.5871
G1 X172.077 Y145.207 E107.25333
G1 X172.095 Y144.932 E107.28083
G1 X172.099 Y144.806 E107.29341
G1 X172.099 Y143.815 E107.39229
G1 X161.684 Y133.399 E108.86203
G1 X163.098 Y133.399 E109.00312
G1 X172.099 Y142.401 E110.27333
G1 X172.099 Y140.987 E110.41442
G1 X164.512 Y133.399 E111.4851
G1 X165.38 Y133.399 E111.57171
G1 X165.506 Y133.404 E111.58429
G1 X165.884 Y133.428 E111.62208
G1 X165.965 Y133.438 E111.63023
G1 X172.062 Y139.535 E112.49058
G1 X172.025 Y139.266 E112.51767
G1 X171.969 Y138.988 E112.54597
G1 X171.896 Y138.715 E112.57417
G1 X171.771 Y138.347 E112.61295
G1 X171.738 Y138.257 E112.62251
G1 X171.689 Y138.152 E112.63407
G1 X171.496 Y137.764 E112.67731
G1 X171.348 Y137.513 E112.70639
G1 X171.176 Y137.257 E112.73716
G1 X171.097 Y137.156 E112.74996
G1 X168.349 Y134.408 E113.13773
G1 X168.407 Y134.452 E113.14499
G1 X168.729 Y134.732 E113.18757
G1 X168.846 Y134.84 E113.20346
G1 X170.66 Y136.654 E113.45943
G1 X170.759 Y136.76 E113.47391
G1 X171.019 Y137.055 E113.51314
G1 F2700 E106.51314
G0 F300 X171.019 Y137.055 Z0.74
G0 F9000 X171.555 Y136.052
G0 X169.078 Y133.624
G0 X168.171 Y133.026
G0 X167.055 Y132.574
G0 X166.451 Y132.458
G0 X165.552 Y132.341
G0 X165.389 Y133.2
;TIME_ELAPSED:67.985924
;LAYER:-4
;TYPE:SUPPORT-INTERFACE
G1 F2700 E113.51314
G1 F1800 X159.227 Y133.2 E113.71809
G1 X159.028 Y133.207 E113.72471
G1 X158.556 Y133.243 E113.74046
G1 X158.214 Y133.294 E113.75196
G1 X157.94 Y133.354 E113.76129
G1 X157.655 Y133.435 E113.77114
G1 X157.367 Y133.539 E113.78133
G1 X157.225 Y133.6 E113.78647
G1 X167.373 Y133.6 E114.12399
G1 X167.773 Y133.794 E114.13878
G1 X168.025 Y133.937 E114.14841
G1 X168.122 Y134 E114.15226
G1 X156.483 Y134 E114.53938
G1 X156.001 Y134.326 E114.55873
G1 X155.998 Y134.321 E114.55892
G1 X155.879 Y134.4 E114.56367
G1 X168.654 Y134.4 E114.98857
G1 X168.873 Y134.59 E114.99822
G1 X168.979 Y134.688 E115.00302
G1 X169.091 Y134.8 E115.00829
G1 X155.122 Y134.8 E115.4729
G0 F9000 X155.058 Y134.83
G1 F1800 X154.434 Y135.035 E115.49474
G1 X153.788 Y135.159 E115.51662
G1 X153.138 Y135.2 E115.53828
G1 X146.856 Y135.2 E115.74722
G1 X146.174 Y135.155 E115.76995
G1 X145.529 Y135.026 E115.79183
G1 X144.905 Y134.818 E115.81371
G1 X144.868 Y134.8 E115.81508
G1 X130.908 Y134.8 E116.27939
G1 X130.508 Y135.2 E116.2982
G1 X169.491 Y135.2 E117.59478
G1 X169.891 Y135.6 E117.6136
G1 X130.108 Y135.6 E118.93679
G1 X129.708 Y136 E118.9556
G1 X170.291 Y136 E120.3054
G1 X170.691 Y136.4 E120.32421
G1 X129.308 Y136.4 E121.70062
G1 X129.187 Y136.521 E121.70631
G1 X129.089 Y136.627 E121.71111
G1 X128.94 Y136.8 E121.7187
G1 X171.063 Y136.8 E123.11972
G1 X171.163 Y136.915 E123.12479
G1 X171.347 Y137.151 E123.13474
G1 X171.381 Y137.2 E123.13673
G1 X128.619 Y137.2 E124.559
G1 X128.591 Y137.237 E124.56054
G1 X128.441 Y137.467 E124.56967
G1 X128.366 Y137.6 E124.57475
G1 X171.632 Y137.6 E126.01378
G1 X171.682 Y137.687 E126.01712
G1 X171.839 Y138 E126.02877
G1 X128.161 Y138 E127.4815
G1 X128.082 Y138.163 E127.48753
G1 X128.036 Y138.288 E127.49196
G1 X127.999 Y138.4 E127.49588
G1 X172.002 Y138.4 E128.95943
G1 X172.083 Y138.639 E128.96782
G1 X172.127 Y138.8 E128.97337
G1 X127.874 Y138.8 E130.44523
G1 X127.822 Y138.999 E130.45207
G1 X127.783 Y139.2 E130.45888
G1 X172.218 Y139.2 E131.9368
G1 X172.222 Y139.223 E131.93757
G1 X172.264 Y139.539 E131.94818
G1 X172.269 Y139.6 E131.95021
G1 X127.728 Y139.6 E133.43165
G1 X127.703 Y139.992 E133.44472
G1 X127.703 Y140 E133.44498
G1 X172.296 Y140 E134.92815
G1 X172.3 Y140.13 E134.93248
G1 X172.3 Y140.4 E134.94146
G1 X127.699 Y140.4 E136.42489
G1 X127.699 Y140.8 E136.4382
G1 X172.3 Y140.8 E137.92163
G1 X172.3 Y141.2 E137.93494
G1 X127.699 Y141.2 E139.41837
G1 X127.699 Y141.6 E139.43168
G1 X172.3 Y141.6 E140.91511
G1 X172.3 Y142 E140.92842
G1 X127.699 Y142 E142.41185
G1 X127.699 Y142.4 E142.42515
G1 X172.3 Y142.4 E143.90859
G1 X172.3 Y142.8 E143.92189
G1 X127.699 Y142.8 E145.40533
G1 X127.699 Y143.2 E145.41863
G1 X172.3 Y143.2 E146.90207
G1 X172.3 Y143.6 E146.91537
G1 X127.699 Y143.6 E148.39881
G1 X127.699 Y144 E148.41211
G1 X172.3 Y144 E149.89555
G1 X172.3 Y144.4 E149.90885
G1 X127.699 Y144.4 E151.39229
G1 X127.699 Y144.78 E151.40493
G1 X127.699 Y144.8 E151.40559
G1 X172.3 Y144.8 E152.88903
G1 X172.3 Y144.814 E152.88949
G1 X172.296 Y144.933 E152.89345
G1 X172.279 Y145.2 E152.90235
G1 X127.723 Y145.2 E154.38429
G1 X127.742 Y145.444 E154.39243
G1 X127.765 Y145.6 E154.39767
G1 X172.238 Y145.6 E155.87685
G1 X172.234 Y145.634 E155.87799
G1 X172.176 Y145.935 E155.88819
G1 X172.159 Y146 E155.89042
G1 X127.839 Y146 E157.36451
G1 X127.851 Y146.054 E157.36635
G1 X127.933 Y146.341 E157.37628
G1 X127.954 Y146.4 E157.37836
