;FLAVOR:Marlin
;TIME:10460
;Filament used: 6.82697m
;Layer height: 0.2
;MINX:115.876
;MINY:100.435
;MINZ:0.2
;MAXX:184.124
;MAXY:208.072
;MAXZ:30
;Generated with Cura_SteamEngine 4.12.0
M140 S60
M105
M190 S60
M104 S200
M105
M109 S200
M82 ;absolute extrusion mode
M201 X500.00 Y500.00 Z100.00 E5000.00 ;Setup machine max acceleration
M203 X500.00 Y500.00 Z10.00 E50.00 ;Setup machine max feedrate
M204 P500.00 R1000.00 T500.00 ;Setup Print/Retract/Travel acceleration
M205 X8.00 Y8.00 Z0.40 E5.00 ;Setup Jerk
M220 S100 ;Reset Feedrate
M221 S100 ;Reset Flowrate

G28 ;Home

G92 E0 ;Reset Extruder
G1 Z2.0 F3000 ;Move Z Axis up
G1 X10.1 Y20 Z0.28 F5000.0 ;Move to start position
G1 X10.1 Y200.0 Z0.28 F1500.0 E15 ;Draw the first line
G1 X10.4 Y200.0 Z0.28 F5000.0 ;Move to side a little
G1 X10.4 Y20 Z0.28 F1500.0 E30 ;Draw the second line
G92 E0 ;Reset Extruder
G1 Z2.0 F3000 ;Move Z Axis up

G92 E0
G92 E0
G1 F2400 E-7.5
;LAYER_COUNT:150
;LAYER:0
M107
G0 F6000 X118.458 Y104.494 Z0.2
;TYPE:SKIRT
G1 F2400 E0
G1 F1200 X119.109 Y103.783 E0.03206
G1 X119.225 Y103.667 E0.03752
G1 X119.916 Y103.033 E0.06871
G1 X120.658 Y102.459 E0.09991
G1 X121.447 Y101.952 E0.1311
G1 X122.275 Y101.513 E0.16228
G1 X123.139 Y101.146 E0.1935
G1 X124.03 Y100.854 E0.22468
G1 X124.943 Y100.64 E0.25587
G1 X125.871 Y100.503 E0.28707
G1 X126.632 Y100.451 E0.31244
G1 X127.012 Y100.441 E0.32509
G1 X127.408 Y100.436 E0.33826
G1 X127.705 Y100.436 E0.34814
G1 X128.341 Y100.445 E0.36929
G1 X129.735 Y100.455 E0.41566
G1 X169.865 Y100.455 E1.75039
G1 X170.948 Y100.44 E1.78641
G1 X172.3 Y100.435 E1.83138
G1 X173.159 Y100.446 E1.85995
G1 X174.095 Y100.499 E1.89113
G1 X175.023 Y100.632 E1.92231
G1 X175.937 Y100.844 E1.95352
G1 X176.83 Y101.132 E1.98473
G1 X177.694 Y101.496 E2.01591
G1 X178.525 Y101.932 E2.04712
G1 X179.315 Y102.437 E2.07831
G1 X180.059 Y103.007 E2.10948
G1 X180.71 Y103.597 E2.1387
G1 X180.822 Y103.707 E2.14392
G1 X181.462 Y104.392 E2.1751
G1 X182.042 Y105.129 E2.2063
G1 X182.557 Y105.913 E2.2375
G1 X183.003 Y106.738 E2.26869
G1 X183.378 Y107.598 E2.29989
G1 X183.677 Y108.487 E2.33109
G1 X183.9 Y109.398 E2.36228
G1 X184.045 Y110.324 E2.39346
G1 X184.107 Y111.157 E2.42124
G1 X184.118 Y111.554 E2.43445
G1 X184.124 Y112.092 E2.45235
G1 X184.122 Y115.797 E2.57557
G1 X184.112 Y116.474 E2.59809
G1 X184.058 Y117.411 E2.62931
G1 X183.866 Y118.629 E2.67032
G1 X183.824 Y118.825 E2.67699
G1 X183.304 Y121.408 E2.76462
G1 X182.878 Y123.889 E2.84835
G1 X182.525 Y126.357 E2.93127
G1 X182.238 Y128.872 E3.01546
G1 X182.023 Y131.381 E3.09922
G1 X181.88 Y133.881 E3.1825
G1 X181.804 Y136.572 E3.27204
G1 X181.791 Y137.464 E3.30171
G1 X181.78 Y137.815 E3.31339
G1 X181.764 Y138.162 E3.32495
G1 X181.627 Y139.458 E3.36829
G1 X181.576 Y139.765 E3.37864
G1 X181.372 Y140.727 E3.41135
G1 X181.349 Y140.814 E3.41434
G1 X180.729 Y143.347 E3.50108
G1 X180.198 Y145.807 E3.58478
G1 X179.744 Y148.265 E3.66792
G1 X179.354 Y150.754 E3.75171
G1 X179.036 Y153.245 E3.83524
G1 X178.79 Y155.732 E3.91836
G1 X178.61 Y158.278 E4.00325
G1 X178.504 Y160.776 E4.08641
G1 X178.469 Y163.292 E4.1701
G1 X178.506 Y165.822 E4.25426
G1 X178.612 Y168.331 E4.33778
G1 X178.791 Y170.83 E4.42111
G1 X179.041 Y173.349 E4.50531
G1 X179.359 Y175.831 E4.58853
G1 X179.751 Y178.331 E4.6727
G1 X180.213 Y180.805 E4.75641
G1 X180.739 Y183.246 E4.83946
G1 X181.362 Y185.769 E4.92589
G1 X181.468 Y186.246 E4.94215
G1 X181.556 Y186.685 E4.95704
G1 X181.741 Y188.032 E5.00226
G1 X181.756 Y188.234 E5.009
G1 X181.785 Y188.87 E5.03017
G1 X181.799 Y189.728 E5.05871
G1 X181.8 Y194.388 E5.21371
G1 X181.791 Y195.096 E5.23726
G1 X181.781 Y195.437 E5.2486
G1 X181.765 Y195.787 E5.26025
G1 X181.632 Y197.059 E5.30279
G1 X181.59 Y197.316 E5.31145
G1 X181.285 Y198.654 E5.3571
G1 X181.221 Y198.871 E5.36462
G1 X180.777 Y200.1 E5.40808
G1 X180.707 Y200.263 E5.41398
G1 X180.104 Y201.461 E5.45859
G1 X179.907 Y201.799 E5.47161
G1 X179.4 Y202.589 E5.50283
G1 X179.05 Y203.06 E5.52234
G1 X178.969 Y203.163 E5.5267
G1 X178.277 Y203.96 E5.56181
G1 X178.086 Y204.16 E5.57101
G1 X177.41 Y204.81 E5.6022
G1 X176.884 Y205.246 E5.62492
G1 X176.695 Y205.393 E5.63288
G1 X175.79 Y206.027 E5.66964
G1 X175.653 Y206.113 E5.67502
G1 X174.485 Y206.751 E5.71928
G1 X174.234 Y206.869 E5.72851
G1 X172.937 Y207.381 E5.77488
G1 X172.674 Y207.466 E5.78408
G1 X171.43 Y207.789 E5.82683
G1 X171.198 Y207.835 E5.83469
G1 X169.928 Y208.011 E5.87734
G1 X169.827 Y208.019 E5.88071
G1 X169.16 Y208.051 E5.90292
G1 X168.123 Y208.07 E5.93741
G1 X167.921 Y208.072 E5.94413
G1 X157.672 Y208.071 E6.28501
G1 X157.248 Y208.065 E6.29912
G1 X156.877 Y208.053 E6.31146
G1 X155.333 Y207.979 E6.36288
G1 X155.123 Y207.967 E6.36987
G1 X154.402 Y207.919 E6.39391
G1 X151.851 Y207.82 E6.47882
G1 X149.362 Y207.795 E6.56161
G1 X146.829 Y207.84 E6.64587
G1 X144.282 Y207.958 E6.73067
G1 X143.411 Y208.017 E6.75971
G1 X143.039 Y208.037 E6.7721
G1 X142.713 Y208.048 E6.78295
G1 X141.803 Y208.063 E6.81322
G1 X131.43 Y208.064 E7.15822
G1 X130.847 Y208.057 E7.17762
G1 X130.473 Y208.045 E7.19006
G1 X129.91 Y208.018 E7.20881
G1 X128.976 Y207.934 E7.24
G1 X128.38 Y207.837 E7.26008
G1 X127.297 Y207.579 E7.29711
G1 X126.883 Y207.458 E7.31146
G1 X125.995 Y207.157 E7.34264
G1 X125.212 Y206.818 E7.37102
G1 X124.991 Y206.712 E7.37917
G1 X124.163 Y206.271 E7.41038
G1 X123.724 Y205.998 E7.42757
G1 X123.533 Y205.873 E7.43516
G1 X122.685 Y205.259 E7.46998
G1 X122.63 Y205.215 E7.47233
G1 X121.846 Y204.523 E7.50711
G1 X121.618 Y204.302 E7.51767
G1 X120.702 Y203.298 E7.56287
G1 X120.513 Y203.063 E7.5729
G1 X119.81 Y202.082 E7.61304
G1 X119.759 Y202.002 E7.6162
G1 X119.289 Y201.191 E7.64738
G1 X119.07 Y200.749 E7.66378
G1 X118.918 Y200.424 E7.67572
G1 X118.416 Y199.15 E7.72126
G1 X118.361 Y198.98 E7.7272
G1 X118.042 Y197.76 E7.76914
G1 X117.992 Y197.511 E7.77759
G1 X117.812 Y196.218 E7.82101
G1 X117.794 Y195.992 E7.82855
G1 X117.76 Y195.287 E7.85203
G1 X117.746 Y194.269 E7.88589
G1 X117.747 Y189.627 E8.04028
G1 X117.755 Y189.08 E8.05848
G1 X117.765 Y188.754 E8.06933
G1 X117.781 Y188.393 E8.08134
G1 X117.919 Y187.078 E8.12532
G1 X117.966 Y186.795 E8.13486
G1 X118.174 Y185.816 E8.16815
G1 X118.223 Y185.627 E8.17465
G1 X118.825 Y183.16 E8.25911
G1 X119.357 Y180.691 E8.34311
G1 X119.808 Y178.247 E8.42577
G1 X120.202 Y175.716 E8.51097
G1 X120.513 Y173.272 E8.59291
G1 X120.764 Y170.724 E8.67807
G1 X120.939 Y168.224 E8.76142
G1 X121.043 Y165.729 E8.84448
G1 X121.077 Y163.19 E8.92893
G1 X121.039 Y160.681 E9.01239
G1 X120.931 Y158.163 E9.09622
G1 X120.75 Y155.647 E9.18012
G1 X120.501 Y153.156 E9.26338
G1 X120.178 Y150.645 E9.34758
G1 X119.786 Y148.163 E9.43116
G1 X119.328 Y145.708 E9.51422
G1 X118.796 Y143.25 E9.59787
G1 X118.178 Y140.75 E9.68352
G1 X118.072 Y140.273 E9.69977
G1 X117.99 Y139.864 E9.71365
G1 X117.804 Y138.505 E9.75927
G1 X117.789 Y138.3 E9.7661
G1 X117.761 Y137.676 E9.78688
G1 X117.747 Y136.818 E9.81542
G1 X117.746 Y135.635 E9.85477
G1 X117.709 Y133.026 E9.94155
G1 X117.602 Y130.504 E10.02551
G1 X117.425 Y128.01 E10.10867
G1 X117.178 Y125.515 E10.19206
G1 X116.858 Y123.014 E10.27592
G1 X116.467 Y120.53 E10.35956
G1 X116.32 Y119.753 E10.38586
G1 X116.297 Y119.597 E10.3911
G1 X116.056 Y118.243 E10.43684
G1 X115.931 Y117.313 E10.46805
G1 X115.892 Y116.685 E10.48898
G1 X115.882 Y116.302 E10.50172
G1 X115.876 Y115.758 E10.51982
G1 X115.878 Y112.039 E10.64351
G1 X115.888 Y111.391 E10.66507
G1 X115.943 Y110.455 E10.69625
G1 X116.077 Y109.527 E10.72744
G1 X116.289 Y108.613 E10.75865
G1 X116.579 Y107.721 E10.78984
G1 X116.943 Y106.857 E10.82103
G1 X117.38 Y106.027 E10.85222
G1 X117.886 Y105.237 E10.88343
G1 X118.458 Y104.494 E10.91461
G0 F6000 X118.852 Y104.648
G1 F1200 X119.392 Y104.066 E10.94102
G1 X119.508 Y103.95 E10.94648
G1 X120.186 Y103.328 E10.97708
G1 X120.916 Y102.767 E11.0077
G1 X121.692 Y102.271 E11.03833
G1 X122.508 Y101.845 E11.06895
G1 X123.358 Y101.491 E11.09957
G1 X124.236 Y101.213 E11.13021
G1 X125.134 Y101.011 E11.16082
G1 X126.047 Y100.888 E11.19146
G1 X126.645 Y100.851 E11.21139
G1 X127.017 Y100.841 E11.22376
G1 X127.413 Y100.836 E11.23694
G1 X127.699 Y100.836 E11.24645
G1 X128.333 Y100.845 E11.26754
G1 X129.732 Y100.855 E11.31407
G1 X169.871 Y100.855 E12.6491
G1 X170.95 Y100.84 E12.68499
G1 X172.3 Y100.835 E12.72989
G1 X173.153 Y100.846 E12.75826
G1 X174.072 Y100.899 E12.78888
G1 X174.983 Y101.032 E12.8195
G1 X175.879 Y101.243 E12.85012
G1 X176.754 Y101.531 E12.88076
G1 X177.6 Y101.894 E12.91138
G1 X178.411 Y102.329 E12.94199
G1 X179.182 Y102.833 E12.97262
G1 X179.906 Y103.401 E13.00323
G1 X180.43 Y103.882 E13.02689
G1 X180.542 Y103.992 E13.03211
G1 X181.17 Y104.665 E13.06272
G1 X181.737 Y105.39 E13.09334
G1 X182.24 Y106.162 E13.12398
G1 X182.673 Y106.974 E13.15459
G1 X183.035 Y107.821 E13.18523
G1 X183.321 Y108.696 E13.21584
G1 X183.531 Y109.592 E13.24645
G1 X183.662 Y110.504 E13.2771
G1 X183.707 Y111.171 E13.29933
G1 X183.718 Y111.559 E13.31224
G1 X183.724 Y112.092 E13.32997
G1 X183.722 Y115.792 E13.45303
G1 X183.712 Y116.469 E13.47555
G1 X183.658 Y117.388 E13.50617
G1 X183.475 Y118.545 E13.54513
G1 X183.433 Y118.742 E13.55183
G1 X182.911 Y121.332 E13.63971
G1 X182.481 Y123.836 E13.72421
G1 X182.131 Y126.287 E13.80656
G1 X181.837 Y128.864 E13.89282
G1 X181.626 Y131.325 E13.97498
G1 X181.48 Y133.881 E14.06013
G1 X181.404 Y136.556 E14.14914
G1 X181.391 Y137.458 E14.17914
G1 X181.381 Y137.796 E14.19039
G1 X181.365 Y138.143 E14.20194
G1 X181.233 Y139.392 E14.24371
G1 X181.182 Y139.699 E14.25406
G1 X180.985 Y140.627 E14.28562
G1 X180.335 Y143.273 E14.37624
G1 X179.808 Y145.715 E14.45933
G1 X179.349 Y148.202 E14.54345
G1 X178.961 Y150.679 E14.62684
G1 X178.636 Y153.226 E14.71224
G1 X178.391 Y155.697 E14.79483
G1 X178.21 Y158.269 E14.88058
G1 X178.104 Y160.753 E14.96328
G1 X178.069 Y163.291 E15.0477
G1 X178.106 Y165.845 E15.13265
G1 X178.212 Y168.341 E15.21575
G1 X178.392 Y170.865 E15.29991
G1 X178.644 Y173.403 E15.38474
G1 X178.96 Y175.873 E15.46756
G1 X179.357 Y178.394 E15.55244
G1 X179.822 Y180.891 E15.63692
G1 X180.354 Y183.361 E15.72096
G1 X180.973 Y185.865 E15.80675
G1 X181.076 Y186.325 E15.82242
G1 X181.164 Y186.764 E15.83732
G1 X181.342 Y188.062 E15.88089
G1 X181.357 Y188.264 E15.88763
G1 X181.385 Y188.876 E15.90801
G1 X181.399 Y189.734 E15.93655
G1 X181.4 Y194.388 E16.09134
G1 X181.391 Y195.09 E16.11469
G1 X181.381 Y195.419 E16.12564
G1 X181.365 Y195.769 E16.13729
G1 X181.237 Y196.995 E16.17829
G1 X181.195 Y197.252 E16.18695
G1 X180.901 Y198.541 E16.23092
G1 X180.837 Y198.758 E16.23845
G1 X180.41 Y199.942 E16.28031
G1 X180.34 Y200.105 E16.28621
G1 X179.758 Y201.26 E16.32923
G1 X179.561 Y201.598 E16.34224
G1 X179.063 Y202.372 E16.37285
G1 X178.735 Y202.812 E16.3911
G1 X178.654 Y202.915 E16.39546
G1 X177.988 Y203.684 E16.4293
G1 X177.797 Y203.884 E16.4385
G1 X177.133 Y204.521 E16.4691
G1 X176.639 Y204.93 E16.49043
G1 X176.45 Y205.077 E16.4984
G1 X175.578 Y205.688 E16.53381
G1 X175.441 Y205.774 E16.53919
G1 X174.315 Y206.389 E16.58186
G1 X174.064 Y206.507 E16.59109
G1 X172.814 Y207 E16.63578
G1 X172.551 Y207.085 E16.64497
G1 X171.353 Y207.397 E16.68615
G1 X171.121 Y207.443 E16.69401
G1 X169.896 Y207.612 E16.73514
G1 X169.795 Y207.62 E16.73851
G1 X169.152 Y207.651 E16.75992
G1 X167.921 Y207.672 E16.80087
G1 X157.678 Y207.671 E17.14156
G1 X157.254 Y207.665 E17.15566
G1 X156.897 Y207.654 E17.16754
G1 X155.353 Y207.58 E17.21895
G1 X154.41 Y207.518 E17.25038
G1 X151.87 Y207.42 E17.33493
G1 X149.359 Y207.395 E17.41845
G1 X146.84 Y207.44 E17.50224
G1 X144.237 Y207.56 E17.58891
G1 X143.384 Y207.618 E17.61735
G1 X143.021 Y207.638 E17.62944
G1 X142.707 Y207.648 E17.63989
G1 X141.797 Y207.663 E17.67016
G1 X131.43 Y207.664 E18.01497
G1 X130.852 Y207.657 E18.03419
G1 X130.492 Y207.646 E18.04617
G1 X129.929 Y207.619 E18.06492
G1 X129.012 Y207.535 E18.09555
G1 X128.453 Y207.444 E18.11438
G1 X127.409 Y207.195 E18.15008
G1 X126.995 Y207.074 E18.16443
G1 X126.124 Y206.778 E18.19502
G1 X125.385 Y206.457 E18.22182
G1 X125.164 Y206.351 E18.22997
G1 X124.352 Y205.918 E18.26058
G1 X123.943 Y205.663 E18.27661
G1 X123.752 Y205.538 E18.28421
G1 X122.935 Y204.946 E18.31776
G1 X122.88 Y204.902 E18.32011
G1 X122.124 Y204.236 E18.35362
G1 X121.896 Y204.015 E18.36418
G1 X121.014 Y203.047 E18.40773
G1 X120.825 Y202.812 E18.41776
G1 X120.147 Y201.867 E18.45645
G1 X120.096 Y201.787 E18.4596
G1 X119.432 Y200.58 E18.50542
G1 X119.28 Y200.255 E18.51735
G1 X118.797 Y199.027 E18.56124
G1 X118.742 Y198.857 E18.56719
G1 X118.434 Y197.681 E18.60762
G1 X118.384 Y197.432 E18.61607
G1 X118.21 Y196.187 E18.65788
G1 X118.192 Y195.961 E18.66542
G1 X118.16 Y195.281 E18.68806
G1 X118.146 Y194.269 E18.72172
G1 X118.147 Y189.633 E18.87592
G1 X118.155 Y189.086 E18.89411
G1 X118.164 Y188.772 E18.90456
G1 X118.18 Y188.411 E18.91658
G1 X118.313 Y187.143 E18.95898
G1 X118.36 Y186.86 E18.96853
G1 X118.561 Y185.918 E19.00056
G1 X118.609 Y185.733 E19.00692
G1 X119.211 Y183.268 E19.09131
G1 X119.748 Y180.776 E19.1761
G1 X120.208 Y178.28 E19.26052
G1 X120.591 Y175.825 E19.34316
G1 X120.913 Y173.286 E19.42828
G1 X121.163 Y170.758 E19.51277
G1 X121.337 Y168.269 E19.59576
G1 X121.443 Y165.716 E19.68075
G1 X121.477 Y163.19 E19.76477
G1 X121.439 Y160.659 E19.84896
G1 X121.331 Y158.151 E19.93245
G1 X121.149 Y155.614 E20.01705
G1 X120.897 Y153.102 E20.10102
G1 X120.575 Y150.597 E20.18502
G1 X120.182 Y148.105 E20.26893
G1 X119.717 Y145.615 E20.35318
G1 X119.182 Y143.142 E20.43734
G1 X118.567 Y140.654 E20.52258
G1 X118.464 Y140.195 E20.53822
G1 X118.382 Y139.786 E20.5521
G1 X118.203 Y138.476 E20.59607
G1 X118.188 Y138.271 E20.60291
G1 X118.161 Y137.67 E20.62292
G1 X118.147 Y136.812 E20.65146
G1 X118.146 Y135.629 E20.69081
G1 X118.109 Y133.004 E20.77812
G1 X118.002 Y130.495 E20.86165
G1 X117.824 Y127.975 E20.94567
G1 X117.575 Y125.461 E21.0297
G1 X117.256 Y122.972 E21.11316
G1 X116.86 Y120.454 E21.19794
G1 X116.713 Y119.678 E21.22421
G1 X116.69 Y119.522 E21.22945
G1 X116.45 Y118.172 E21.27506
G1 X116.328 Y117.26 E21.30566
G1 X116.292 Y116.672 E21.32525
G1 X116.282 Y116.297 E21.33773
G1 X116.276 Y115.758 E21.35566
G1 X116.278 Y112.045 E21.47915
G1 X116.288 Y111.397 E21.50071
G1 X116.342 Y110.478 E21.53133
G1 X116.476 Y109.567 E21.56195
G1 X116.688 Y108.672 E21.59255
G1 X116.978 Y107.798 E21.62317
G1 X117.342 Y106.952 E21.65381
G1 X117.777 Y106.141 E21.68441
G1 X118.282 Y105.371 E21.71504
G1 X118.852 Y104.648 E21.74566
G0 F6000 X119.245 Y104.805
G1 F1200 X119.675 Y104.349 E21.76651
G1 X119.791 Y104.233 E21.77197
G1 X120.457 Y103.623 E21.802
G1 X121.174 Y103.074 E21.83204
G1 X121.938 Y102.592 E21.86208
G1 X122.741 Y102.178 E21.89213
G1 X123.577 Y101.838 E21.92215
G1 X124.44 Y101.572 E21.95219
G1 X125.323 Y101.384 E21.98221
G1 X126.659 Y101.251 E22.02687
G1 X127.022 Y101.241 E22.03895
G1 X127.418 Y101.236 E22.05212
G1 X127.694 Y101.236 E22.0613
G1 X128.326 Y101.245 E22.08232
G1 X129.729 Y101.255 E22.12899
G1 X169.877 Y101.255 E23.46431
G1 X170.952 Y101.24 E23.50007
G1 X172.3 Y101.235 E23.54491
G1 X173.147 Y101.246 E23.57308
G1 X174.049 Y101.299 E23.60313
G1 X174.942 Y101.431 E23.63316
G1 X175.82 Y101.642 E23.66319
G1 X176.676 Y101.93 E23.69323
G1 X177.504 Y102.292 E23.72329
G1 X178.296 Y102.726 E23.75332
G1 X179.046 Y103.229 E23.78336
G1 X179.749 Y103.795 E23.81338
G1 X180.149 Y104.168 E23.83157
G1 X180.261 Y104.278 E23.83679
G1 X180.877 Y104.939 E23.86684
G1 X181.432 Y105.651 E23.89687
G1 X181.921 Y106.41 E23.9269
G1 X182.342 Y107.209 E23.95694
G1 X182.69 Y108.042 E23.98696
G1 X182.963 Y108.903 E24.017
G1 X183.159 Y109.785 E24.04706
G1 X183.276 Y110.68 E24.07708
G1 X183.307 Y111.186 E24.09394
G1 X183.318 Y111.564 E24.10652
G1 X183.324 Y112.092 E24.12408
G1 X183.322 Y115.786 E24.24694
G1 X183.312 Y116.463 E24.26946
G1 X183.259 Y117.364 E24.29948
G1 X183.084 Y118.461 E24.33643
G1 X183.042 Y118.658 E24.34313
G1 X182.52 Y121.251 E24.4311
G1 X182.084 Y123.789 E24.51675
G1 X181.731 Y126.256 E24.59964
G1 X181.442 Y128.785 E24.6843
G1 X181.224 Y131.336 E24.76946
G1 X181.08 Y133.846 E24.85308
G1 X181.004 Y136.54 E24.94272
G1 X180.991 Y137.452 E24.97305
G1 X180.981 Y137.778 E24.9839
G1 X180.965 Y138.125 E24.99545
G1 X180.838 Y139.327 E25.03566
G1 X180.787 Y139.634 E25.04601
