;FLAVOR:Marlin
;TIME:10499
;Filament used: 6.68748m
;Layer height: 0.2
;MINX:108.115
;MINY:88.927
;MINZ:0.2
;MAXX:191.884
;MAXY:199.575
;MAXZ:25.8
;Generated with Cura_SteamEngine 4.12.0
M140 S60
M105
M190 S60
M104 S200
M105
M109 S200
M82 ;absolute extrusion mode
M201 X500.00 Y500.00 Z100.00 E5000.00 ;Setup machine max acceleration
M203 X500.00 Y500.00 Z10.00 E50.00 ;Setup machine max feedrate
M204 P500.00 R1000.00 T500.00 ;Setup Print/Retract/Travel acceleration
M205 X8.00 Y8.00 Z0.40 E5.00 ;Setup Jerk
M220 S100 ;Reset Feedrate
M221 S100 ;Reset Flowrate

G28 ;Home

G92 E0 ;Reset Extruder
G1 Z2.0 F3000 ;Move Z Axis up
G1 X10.1 Y20 Z0.28 F5000.0 ;Move to start position
G1 X10.1 Y200.0 Z0.28 F1500.0 E15 ;Draw the first line
G1 X10.4 Y200.0 Z0.28 F5000.0 ;Move to side a little
G1 X10.4 Y20 Z0.28 F1500.0 E30 ;Draw the second line
G92 E0 ;Reset Extruder
G1 Z2.0 F3000 ;Move Z Axis up

G92 E0
G92 E0
G1 F2700 E-7
;LAYER_COUNT:129
;LAYER:0
M107
G0 F6000 X122.806 Y93.139 Z0.2
;TYPE:SKIRT
G1 F2700 E0
G1 F1200 X123.417 Y92.427 E0.03121
G1 X124.086 Y91.77 E0.06239
G1 X124.809 Y91.172 E0.0936
G1 X125.58 Y90.639 E0.12477
G1 X126.394 Y90.172 E0.15599
G1 X127.245 Y89.777 E0.18719
G1 X128.126 Y89.456 E0.21838
G1 X129.031 Y89.211 E0.24956
G1 X130.279 Y89.004 E0.29164
G1 X130.335 Y88.998 E0.29351
G1 X131.362 Y88.936 E0.32773
G1 X132.113 Y88.927 E0.35271
G1 X140.453 Y88.927 E0.6301
G1 X141.125 Y88.935 E0.65245
G1 X141.468 Y88.945 E0.66387
G1 X141.85 Y88.962 E0.67658
G1 X142.131 Y88.978 E0.68595
G1 X143.258 Y89.058 E0.72352
G1 X144.241 Y89.141 E0.75634
G1 X146.74 Y89.28 E0.83958
G1 X149.263 Y89.349 E0.92353
G1 X151.787 Y89.347 E1.00748
G1 X154.257 Y89.275 E1.08966
G1 X158.131 Y89.025 E1.21878
G1 X158.4 Y89.004 E1.22776
G1 X159.105 Y88.971 E1.25123
G1 X160.076 Y88.958 E1.28353
G1 X168.498 Y88.959 E1.56364
G1 X169.198 Y88.969 E1.58693
G1 X170.134 Y89.022 E1.61811
G1 X171.063 Y89.155 E1.64932
G1 X171.977 Y89.367 E1.68053
G1 X172.869 Y89.656 E1.71172
G1 X173.733 Y90.019 E1.74289
G1 X174.564 Y90.455 E1.7741
G1 X175.354 Y90.96 E1.80529
G1 X176.41 Y91.801 E1.85019
G1 X177.079 Y92.457 E1.88135
G1 X177.691 Y93.169 E1.91258
G1 X178.239 Y93.929 E1.94374
G1 X178.721 Y94.734 E1.97495
G1 X179.133 Y95.577 E2.00615
G1 X179.527 Y96.623 E2.04333
G1 X179.629 Y96.942 E2.05447
G1 X180.456 Y99.406 E2.14092
G1 X181.322 Y101.767 E2.22456
G1 X182.601 Y104.923 E2.33782
G1 X182.744 Y105.258 E2.34993
G1 X182.972 Y105.782 E2.36894
G1 X183.29 Y106.603 E2.39822
G1 X183.374 Y106.848 E2.40684
G1 X183.7 Y107.997 E2.44656
G1 X183.755 Y108.241 E2.45488
G1 X183.967 Y109.546 E2.49886
G1 X183.984 Y109.713 E2.50444
G1 X184.039 Y110.631 E2.53503
G1 X184.059 Y111.836 E2.57511
G1 X184.058 Y134.048 E3.31388
G1 X184.051 Y134.56 E3.33092
G1 X184.042 Y134.879 E3.34153
G1 X184.025 Y135.277 E3.35478
G1 X184.008 Y135.576 E3.36474
G1 X183.929 Y136.688 E3.40182
G1 X183.859 Y137.509 E3.42922
G1 X183.715 Y140.028 E3.51314
G1 X183.644 Y142.513 E3.59583
G1 X183.644 Y145.038 E3.67981
G1 X183.714 Y147.56 E3.76372
G1 X183.857 Y150.082 E3.84774
G1 X184.07 Y152.606 E3.93199
G1 X184.349 Y155.068 E4.0144
G1 X184.709 Y157.6 E4.09946
G1 X185.131 Y160.064 E4.18261
G1 X185.625 Y162.529 E4.26622
G1 X186.18 Y164.949 E4.3488
G1 X186.823 Y167.422 E4.43379
G1 X187.522 Y169.828 E4.51712
G1 X188.297 Y172.241 E4.60142
G1 X189.128 Y174.596 E4.68448
G1 X190.047 Y176.984 E4.76958
G1 X190.805 Y178.816 E4.83552
G1 X190.986 Y179.238 E4.8508
G1 X191.318 Y180.115 E4.88199
G1 X191.573 Y181.017 E4.91316
G1 X191.751 Y181.938 E4.94436
G1 X191.861 Y183.067 E4.98209
G1 X191.868 Y183.222 E4.98725
G1 X191.878 Y183.584 E4.9993
G1 X191.884 Y184.127 E5.01736
G1 X191.883 Y187.973 E5.14527
G1 X191.873 Y188.71 E5.16979
G1 X191.82 Y189.647 E5.201
G1 X191.688 Y190.575 E5.23218
G1 X191.477 Y191.489 E5.26338
G1 X191.189 Y192.382 E5.29459
G1 X190.826 Y193.246 E5.32576
G1 X190.391 Y194.077 E5.35695
G1 X189.887 Y194.868 E5.38815
G1 X189.317 Y195.613 E5.41935
G1 X188.685 Y196.306 E5.45054
G1 X187.997 Y196.943 E5.48173
G1 X187.257 Y197.52 E5.51294
G1 X186.471 Y198.031 E5.54412
G1 X185.644 Y198.473 E5.57531
G1 X184.782 Y198.843 E5.60651
G1 X183.892 Y199.139 E5.6377
G1 X182.98 Y199.358 E5.6689
G1 X182.053 Y199.498 E5.70008
G1 X181.52 Y199.542 E5.71787
G1 X181.367 Y199.551 E5.72297
G1 X180.855 Y199.569 E5.74001
G1 X180.312 Y199.575 E5.75807
G1 X119.675 Y199.574 E7.77486
G1 X118.973 Y199.564 E7.79821
G1 X118.037 Y199.511 E7.8294
G1 X117.109 Y199.378 E7.86058
G1 X116.195 Y199.166 E7.89178
G1 X115.302 Y198.878 E7.92299
G1 X114.438 Y198.514 E7.95417
G1 X113.607 Y198.078 E7.98539
G1 X112.817 Y197.573 E8.01657
G1 X112.073 Y197.003 E8.04774
G1 X111.38 Y196.371 E8.07894
G1 X110.743 Y195.682 E8.11015
G1 X110.167 Y194.942 E8.14134
G1 X109.656 Y194.155 E8.17255
G1 X109.215 Y193.328 E8.20372
G1 X108.845 Y192.466 E8.23492
G1 X108.55 Y191.576 E8.26611
G1 X108.332 Y190.664 E8.29729
G1 X108.193 Y189.736 E8.3285
G1 X108.151 Y189.24 E8.34506
G1 X108.14 Y189.061 E8.35102
G1 X108.119 Y188.49 E8.37003
G1 X108.115 Y187.959 E8.38769
G1 X108.116 Y184.219 E8.51208
G1 X108.129 Y183.382 E8.53993
G1 X108.184 Y182.445 E8.57114
G1 X108.319 Y181.517 E8.60233
G1 X108.533 Y180.604 E8.63352
G1 X108.824 Y179.712 E8.66473
G1 X109.037 Y179.184 E8.68367
G1 X109.372 Y178.412 E8.71166
G1 X110.377 Y176.009 E8.79829
G1 X111.282 Y173.662 E8.88195
G1 X112.112 Y171.316 E8.96472
G1 X112.889 Y168.899 E9.04916
G1 X113.584 Y166.509 E9.13195
G1 X114.226 Y164.044 E9.21667
G1 X114.798 Y161.569 E9.30116
G1 X115.283 Y159.142 E9.38348
G1 X115.711 Y156.656 E9.46738
G1 X116.068 Y154.145 E9.55173
G1 X116.351 Y151.664 E9.63479
G1 X116.565 Y149.155 E9.71854
G1 X116.709 Y146.625 E9.80282
G1 X116.78 Y144.14 E9.88551
G1 X116.78 Y141.615 E9.96949
G1 X116.71 Y139.111 E10.05281
G1 X116.519 Y135.896 E10.15993
G1 X116.492 Y135.552 E10.1714
G1 X116.461 Y134.89 E10.19345
G1 X116.442 Y133.705 E10.23286
G1 X116.443 Y111.49 E10.97174
G1 X116.45 Y110.972 E10.98897
G1 X116.46 Y110.628 E11.00041
G1 X116.477 Y110.249 E11.01303
G1 X116.594 Y109.067 E11.05254
G1 X116.639 Y108.775 E11.06236
G1 X116.822 Y107.855 E11.09356
G1 X117.017 Y107.152 E11.11783
G1 X117.083 Y106.942 E11.12515
G1 X117.468 Y105.904 E11.16197
G1 X117.805 Y105.118 E11.19042
G1 X118.785 Y102.747 E11.27575
G1 X119.699 Y100.346 E11.36119
G1 X120.503 Y98.03 E11.44273
G1 X120.786 Y97.145 E11.47364
G1 X121.029 Y96.423 E11.49898
G1 X121.366 Y95.548 E11.53016
G1 X121.777 Y94.705 E11.56136
G1 X122.258 Y93.9 E11.59254
G1 X122.806 Y93.139 E11.62374
G0 F6000 X123.163 Y93.333
G1 F1200 X123.767 Y92.639 E11.65434
G1 X124.43 Y92 E11.68496
G1 X125.145 Y91.42 E11.71558
G1 X125.909 Y90.905 E11.74623
G1 X126.714 Y90.459 E11.77684
G1 X127.554 Y90.083 E11.80745
G1 X128.424 Y89.782 E11.83807
G1 X129.317 Y89.558 E11.86869
G1 X130.322 Y89.401 E11.90252
G1 X130.378 Y89.395 E11.90439
G1 X131.367 Y89.336 E11.93735
G1 X132.113 Y89.327 E11.96216
G1 X140.453 Y89.327 E12.23955
G1 X141.12 Y89.335 E12.26174
G1 X141.45 Y89.344 E12.27272
G1 X141.832 Y89.361 E12.28543
G1 X142.103 Y89.377 E12.29446
G1 X143.224 Y89.457 E12.33184
G1 X144.186 Y89.538 E12.36395
G1 X146.74 Y89.68 E12.44903
G1 X149.253 Y89.749 E12.53264
G1 X151.799 Y89.747 E12.61732
G1 X154.264 Y89.675 E12.69934
G1 X158.194 Y89.422 E12.83033
G1 X158.432 Y89.403 E12.83827
G1 X159.111 Y89.371 E12.86088
G1 X160.076 Y89.358 E12.89298
G1 X168.492 Y89.359 E13.17289
G1 X169.192 Y89.369 E13.19618
G1 X170.112 Y89.422 E13.22683
G1 X171.023 Y89.555 E13.25745
G1 X171.919 Y89.766 E13.28807
G1 X172.793 Y90.054 E13.31867
G1 X173.639 Y90.417 E13.34929
G1 X174.451 Y90.852 E13.37993
G1 X175.221 Y91.356 E13.41054
G1 X176.142 Y92.098 E13.44988
G1 X176.799 Y92.743 E13.4805
G1 X177.397 Y93.443 E13.51112
G1 X177.933 Y94.192 E13.54175
G1 X178.401 Y94.984 E13.57235
G1 X178.799 Y95.814 E13.60297
G1 X179.146 Y96.745 E13.63601
G1 X179.248 Y97.065 E13.64718
G1 X180.084 Y99.555 E13.73454
G1 X180.945 Y101.902 E13.81769
G1 X182.23 Y105.072 E13.93146
G1 X182.377 Y105.418 E13.94396
G1 X182.605 Y105.942 E13.96297
G1 X182.912 Y106.733 E13.99119
G1 X182.996 Y106.978 E13.9998
G1 X183.31 Y108.085 E14.03808
G1 X183.365 Y108.329 E14.0464
G1 X183.57 Y109.587 E14.08879
G1 X183.587 Y109.754 E14.09437
G1 X183.639 Y110.638 E14.12382
G1 X183.659 Y111.836 E14.16368
G1 X183.658 Y134.043 E14.90228
G1 X183.651 Y134.555 E14.91931
G1 X183.642 Y134.862 E14.92953
G1 X183.625 Y135.26 E14.94278
G1 X183.609 Y135.548 E14.95237
G1 X183.53 Y136.654 E14.98925
G1 X183.462 Y137.453 E15.01592
G1 X183.317 Y139.993 E15.10054
G1 X183.244 Y142.537 E15.18519
G1 X183.244 Y145.049 E15.26874
G1 X183.315 Y147.595 E15.35345
G1 X183.456 Y150.102 E15.43697
G1 X183.669 Y152.614 E15.52082
G1 X183.954 Y155.133 E15.60513
G1 X184.313 Y157.658 E15.68996
G1 X184.738 Y160.139 E15.77368
G1 X185.23 Y162.592 E15.85689
G1 X185.795 Y165.058 E15.94104
G1 X186.44 Y167.538 E16.02627
G1 X187.14 Y169.947 E16.1097
G1 X187.915 Y172.359 E16.19397
G1 X188.754 Y174.736 E16.27781
G1 X189.67 Y177.119 E16.36272
G1 X190.458 Y179.021 E16.43119
G1 X190.618 Y179.395 E16.44472
G1 X190.943 Y180.256 E16.47533
G1 X191.192 Y181.143 E16.50598
G1 X191.363 Y182.047 E16.53658
G1 X191.461 Y183.085 E16.57125
G1 X191.468 Y183.24 E16.57641
G1 X191.478 Y183.588 E16.58799
G1 X191.484 Y184.127 E16.60592
G1 X191.483 Y187.968 E16.73367
G1 X191.473 Y188.705 E16.75819
G1 X191.421 Y189.624 E16.7888
G1 X191.289 Y190.535 E16.81942
G1 X191.078 Y191.431 E16.85004
G1 X190.79 Y192.306 E16.88068
G1 X190.428 Y193.152 E16.91128
G1 X189.994 Y193.964 E16.9419
G1 X189.49 Y194.735 E16.97254
G1 X188.922 Y195.459 E17.00315
G1 X188.293 Y196.132 E17.03379
G1 X187.608 Y196.747 E17.0644
G1 X186.873 Y197.3 E17.095
G1 X186.092 Y197.788 E17.12563
G1 X185.271 Y198.206 E17.15627
G1 X184.418 Y198.551 E17.18687
G1 X183.538 Y198.821 E17.21749
G1 X182.637 Y199.013 E17.24813
G1 X181.496 Y199.143 E17.28632
G1 X181.343 Y199.152 E17.29142
G1 X180.851 Y199.169 E17.30779
G1 X180.312 Y199.175 E17.32572
G1 X119.681 Y199.174 E19.34232
G1 X118.979 Y199.164 E19.36567
G1 X118.06 Y199.111 E19.39629
G1 X117.149 Y198.978 E19.42691
G1 X116.253 Y198.767 E19.45752
G1 X115.378 Y198.479 E19.48816
G1 X114.532 Y198.116 E19.51878
G1 X113.721 Y197.681 E19.54939
G1 X112.95 Y197.177 E19.58003
G1 X112.226 Y196.609 E19.61063
G1 X111.554 Y195.979 E19.64127
G1 X110.94 Y195.294 E19.67187
G1 X110.387 Y194.558 E19.70249
G1 X109.9 Y193.776 E19.73313
G1 X109.482 Y192.956 E19.76374
G1 X109.138 Y192.102 E19.79436
G1 X108.868 Y191.222 E19.82498
G1 X108.677 Y190.321 E19.85561
G1 X108.55 Y189.215 E19.89264
G1 X108.539 Y189.036 E19.8986
G1 X108.519 Y188.486 E19.91691
G1 X108.515 Y187.959 E19.93444
G1 X108.517 Y184.044 E20.06465
G1 X108.528 Y183.388 E20.08647
G1 X108.584 Y182.469 E20.11709
G1 X108.719 Y181.559 E20.14769
G1 X108.932 Y180.663 E20.17832
G1 X109.223 Y179.789 E20.20896
G1 X109.404 Y179.344 E20.22494
G1 X109.731 Y178.59 E20.25227
G1 X110.743 Y176.172 E20.33946
G1 X111.656 Y173.803 E20.4239
G1 X112.494 Y171.435 E20.50745
G1 X113.268 Y169.027 E20.59157
G1 X113.972 Y166.607 E20.6754
G1 X114.617 Y164.13 E20.76053
G1 X115.185 Y161.672 E20.84444
G1 X115.677 Y159.21 E20.92794
G1 X116.106 Y156.714 E21.01218
G1 X116.463 Y154.21 E21.0963
G1 X116.748 Y151.707 E21.18009
G1 X116.964 Y149.175 E21.26461
G1 X117.107 Y146.66 E21.3484
G1 X117.18 Y144.116 E21.43305
G1 X117.18 Y141.604 E21.5166
G1 X117.109 Y139.076 E21.60071
G1 X116.92 Y135.898 E21.7066
G1 X116.891 Y135.521 E21.71917
G1 X116.861 Y134.884 E21.74038
G1 X116.842 Y133.705 E21.7796
G1 X116.843 Y111.496 E22.51828
G1 X116.85 Y110.978 E22.53551
G1 X116.86 Y110.646 E22.54655
G1 X116.877 Y110.267 E22.55917
G1 X116.99 Y109.127 E22.59728
G1 X117.035 Y108.835 E22.6071
G1 X117.214 Y107.933 E22.63769
G1 X117.399 Y107.272 E22.66052
G1 X117.465 Y107.062 E22.66784
G1 X117.835 Y106.062 E22.7033
G1 X118.159 Y105.307 E22.73063
G1 X119.169 Y102.862 E22.81861
G1 X120.064 Y100.512 E22.90225
G1 X120.894 Y98.12 E22.98646
G1 X121.167 Y97.267 E23.01625
G1 X121.408 Y96.551 E23.04138
G1 X121.74 Y95.692 E23.07201
G1 X122.145 Y94.866 E23.10261
G1 X122.621 Y94.077 E23.13326
G1 X123.163 Y93.333 E23.16387
G0 F6000 X123.519 Y93.529
G1 F1200 X124.117 Y92.852 E23.19391
G1 X124.773 Y92.231 E23.22396
G1 X125.481 Y91.671 E23.25398
G1 X126.236 Y91.175 E23.28403
G1 X127.031 Y90.748 E23.31404
G1 X127.862 Y90.393 E23.3441
G1 X128.72 Y90.113 E23.37412
G1 X129.6 Y89.91 E23.40415
G1 X130.364 Y89.799 E23.42983
G1 X130.42 Y89.793 E23.43171
G1 X131.372 Y89.736 E23.46343
G1 X132.113 Y89.727 E23.48807
G1 X140.453 Y89.727 E23.76546
G1 X141.115 Y89.735 E23.78748
G1 X141.432 Y89.744 E23.79803
G1 X141.814 Y89.761 E23.81075
G1 X142.075 Y89.776 E23.81944
G1 X143.19 Y89.855 E23.85662
G1 X144.198 Y89.94 E23.89027
G1 X146.707 Y90.08 E23.97385
G1 X149.243 Y90.149 E24.05823
G1 X151.776 Y90.147 E24.14247
G1 X154.302 Y90.073 E24.22652
G1 X158.252 Y89.819 E24.35817
G1 X158.464 Y89.802 E24.36525
G1 X159.117 Y89.771 E24.38699
G1 X160.076 Y89.758 E24.41889
G1 X168.487 Y89.759 E24.69864
G1 X169.187 Y89.769 E24.72192
G1 X170.088 Y89.822 E24.75194
G1 X170.982 Y89.954 E24.782
G1 X171.86 Y90.165 E24.81203
G1 X172.716 Y90.453 E24.84207
G1 X173.543 Y90.815 E24.8721
G1 X174.335 Y91.249 E24.90214
G1 X175.085 Y91.752 E24.93217
G1 X175.874 Y92.395 E24.96603
G1 X176.518 Y93.029 E24.99608
G1 X177.104 Y93.716 E25.02612
G1 X177.626 Y94.453 E25.05616
G1 X178.081 Y95.233 E25.08619
G1 X178.465 Y96.051 E25.11624
G1 X178.765 Y96.867 E25.14516
G1 X178.851 Y97.137 E25.15459
G1 X179.713 Y99.704 E25.24465
G1 X180.575 Y102.056 E25.32797
G1 X181.85 Y105.202 E25.44087
G1 X182.01 Y105.577 E25.45443
G1 X182.238 Y106.101 E25.47344
G1 X182.534 Y106.863 E25.50063
G1 X182.618 Y107.108 E25.50924
G1 X182.919 Y108.173 E25.54605
G1 X182.974 Y108.417 E25.55437
G1 X183.172 Y109.627 E25.59515
G1 X183.189 Y109.794 E25.60073
G1 X183.239 Y110.645 E25.62908
G1 X183.259 Y111.836 E25.6687
G1 X183.258 Y134.037 E26.40711
G1 X183.251 Y134.549 E26.42414
G1 X183.243 Y134.845 E26.43399
G1 X183.226 Y135.243 E26.44724
G1 X183.21 Y135.52 E26.45647
G1 X183.132 Y136.62 E26.49315
G1 X183.06 Y137.465 E26.52135
G1 X182.917 Y139.961 E26.60451
G1 X182.844 Y142.525 E26.68982
G1 X182.844 Y145.06 E26.77414
G1 X182.915 Y147.592 E26.85838
G1 X183.057 Y150.125 E26.94276
G1 X183.275 Y152.691 E27.02842
G1 X183.555 Y155.163 E27.11116
G1 X183.917 Y157.71 E27.19673
G1 X184.345 Y160.213 E27.28118
G1 X184.841 Y162.688 E27.36514
G1 X185.406 Y165.151 E27.44919
G1 X186.055 Y167.646 E27.53493
G1 X186.761 Y170.076 E27.6191
G1 X187.529 Y172.467 E27.70262
G1 X188.386 Y174.896 E27.78829
G1 X189.298 Y177.267 E27.87279
G1 X190.079 Y179.153 E27.94068
G1 X190.25 Y179.552 E27.95512
G1 X190.568 Y180.398 E27.98518
G1 X190.81 Y181.268 E28.01521
G1 X190.974 Y182.156 E28.04525
G1 X191.062 Y183.103 E28.07688
G1 X191.069 Y183.258 E28.08204
G1 X191.078 Y183.593 E28.09319
G1 X191.084 Y184.127 E28.11095
G1 X191.083 Y187.962 E28.2385
G1 X191.073 Y188.699 E28.26302
G1 X191.021 Y189.601 E28.29307
G1 X190.889 Y190.494 E28.32309
G1 X190.679 Y191.373 E28.35315
G1 X190.392 Y192.229 E28.38318
G1 X190.03 Y193.056 E28.4132
G1 X189.596 Y193.849 E28.44327
G1 X189.095 Y194.599 E28.47327
G1 X188.528 Y195.303 E28.50334
G1 X187.902 Y195.954 E28.53337
G1 X187.22 Y196.546 E28.56341
G1 X186.489 Y197.076 E28.59344
G1 X185.714 Y197.54 E28.62349
G1 X184.901 Y197.932 E28.65351
G1 X184.056 Y198.252 E28.68356
G1 X183.186 Y198.495 E28.7136
G1 X182.299 Y198.661 E28.74362
G1 X181.473 Y198.743 E28.77122
G1 X181.32 Y198.752 E28.77632
G1 X180.846 Y198.769 E28.7921
G1 X180.312 Y198.775 E28.80986
G1 X119.687 Y198.774 E30.82625
G1 X118.985 Y198.764 E30.84961
G1 X118.083 Y198.711 E30.87966
G1 X117.19 Y198.579 E30.90968
G1 X116.312 Y198.368 E30.93972
G1 X115.456 Y198.08 E30.96975
G1 X114.628 Y197.718 E30.99981
G1 X113.836 Y197.284 E31.02985
G1 X113.086 Y196.781 E31.05988
G1 X112.383 Y196.215 E31.0899
G1 X111.733 Y195.588 E31.11994
G1 X111.141 Y194.906 E31.14998
G1 X110.611 Y194.174 E31.18004
G1 X110.148 Y193.399 E31.21006
G1 X109.756 Y192.585 E31.24011
G1 X109.437 Y191.741 E31.27012
G1 X109.194 Y190.871 E31.30017
G1 X109.029 Y189.983 E31.33021
G1 X108.949 Y189.191 E31.35668
G1 X108.938 Y189.012 E31.36265
G1 X108.919 Y188.482 E31.38029
