;FLAVOR:Marlin
;TIME:7187
;Filament used: 5.43675m
;Layer height: 0.2
;MINX:127.767
;MINY:108.968
;MINZ:0.24
;MAXX:221.422
;MAXY:188.143
;MAXZ:15.53
;Generated with Cura_SteamEngine 4.12.0
M140 S60
M105
M190 S60
M104 S200
M105
M109 S200
M82 ;absolute extrusion mode
M201 X500.00 Y500.00 Z100.00 E5000.00 ;Setup machine max acceleration
M203 X500.00 Y500.00 Z10.00 E50.00 ;Setup machine max feedrate
M204 P500.00 R1000.00 T500.00 ;Setup Print/Retract/Travel acceleration
M205 X8.00 Y8.00 Z0.40 E5.00 ;Setup Jerk
M220 S100 ;Reset Feedrate
M221 S100 ;Reset Flowrate

G28 ;Home

G92 E0 ;Reset Extruder
G1 Z2.0 F3000 ;Move Z Axis up
G1 X10.1 Y20 Z0.28 F5000.0 ;Move to start position
G1 X10.1 Y200.0 Z0.28 F1500.0 E15 ;Draw the first line
G1 X10.4 Y200.0 Z0.28 F5000.0 ;Move to side a little
G1 X10.4 Y20 Z0.28 F1500.0 E30 ;Draw the second line
G92 E0 ;Reset Extruder
G1 Z2.0 F3000 ;Move Z Axis up

G92 E0
G92 E0
G1 F2700 E-7
;LAYER_COUNT:72
;LAYER:-6
M107
G0 F9000 X130.129 Y114.556 Z0.24
;TYPE:SUPPORT-INTERFACE
G1 F2700 E0
G1 F1350 X130.34 Y114.341 E0.02405
G1 X130.635 Y114.082 E0.05538
G1 X130.85 Y113.915 E0.07711
G1 X131.081 Y113.759 E0.09936
G1 X131.349 Y113.601 E0.1242
G1 X131.606 Y113.471 E0.14719
G1 X131.876 Y113.355 E0.17065
G1 X132.132 Y113.263 E0.19236
G1 X132.424 Y113.179 E0.21661
G1 X132.685 Y113.123 E0.23792
G1 X133.005 Y113.075 E0.26375
G1 X133.473 Y113.039 E0.30122
G1 X133.665 Y113.032 E0.31656
G1 X144.55 Y113.032 E1.18544
G1 X144.676 Y113.036 E1.19551
G1 X145.053 Y113.06 E1.22566
G1 X145.351 Y113.097 E1.24963
G1 X145.635 Y113.152 E1.27272
G1 X145.926 Y113.228 E1.29673
G1 X146.184 Y113.312 E1.31839
G1 X146.463 Y113.423 E1.34236
G1 X146.721 Y113.545 E1.36514
G1 X146.98 Y113.689 E1.3888
G1 X147.199 Y113.828 E1.4095
G1 X147.465 Y114.026 E1.43597
G1 X147.819 Y114.33 E1.47322
G1 X148.035 Y114.542 E1.49738
G1 X148.678 Y115.274 E1.57515
G1 X148.691 Y115.28 E1.57629
G1 X149.204 Y115.732 E1.63087
G1 X149.769 Y116.115 E1.68536
G1 X150.378 Y116.423 E1.73983
G1 X151.015 Y116.65 E1.79381
G1 X151.405 Y116.747 E1.82589
G1 X151.565 Y116.781 E1.83895
G1 X151.87 Y116.865 E1.8642
G1 X152.116 Y116.948 E1.88493
G1 X152.392 Y117.06 E1.90871
G1 X152.575 Y117.14 E1.92465
G1 X153.148 Y117.4 E1.97488
G1 X153.168 Y117.372 E1.97762
G1 X153.829 Y117.541 E2.03208
G1 X154.508 Y117.623 E2.08668
G1 X155.188 Y117.62 E2.14096
G1 X155.749 Y117.552 E2.18607
G1 X161.161 Y116.6 E2.62471
G1 X161.437 Y116.562 E2.64695
G1 X161.899 Y116.535 E2.68389
G1 X162.02 Y116.532 E2.69355
G1 X166.376 Y116.532 E3.04127
G1 X166.502 Y116.536 E3.05133
G1 X166.879 Y116.56 E3.08149
G1 X167.177 Y116.597 E3.10546
G1 X167.461 Y116.652 E3.12855
G1 X167.752 Y116.728 E3.15256
G1 X168.01 Y116.812 E3.17421
G1 X168.289 Y116.923 E3.19818
G1 X168.547 Y117.045 E3.22096
G1 X168.806 Y117.189 E3.24462
G1 X169.025 Y117.328 E3.26532
G1 X169.291 Y117.526 E3.29179
G1 X169.645 Y117.83 E3.32904
G1 X169.86 Y118.041 E3.35309
G1 X170.119 Y118.336 E3.38442
G1 X170.286 Y118.551 E3.40616
G1 X170.442 Y118.782 E3.42841
G1 X170.6 Y119.05 E3.45324
G1 X170.976 Y119.79 E3.5195
G1 X170.99 Y119.799 E3.52083
G1 X171.375 Y120.363 E3.57534
G1 X171.827 Y120.874 E3.62979
G1 X172.341 Y121.325 E3.68438
G1 X172.908 Y121.706 E3.73891
G1 X173.518 Y122.013 E3.79342
G1 X174.162 Y122.24 E3.84793
G1 X174.829 Y122.384 E3.9024
G1 X175.51 Y122.444 E3.95697
G1 X176.191 Y122.416 E4.01137
G1 X176.582 Y122.35 E4.04303
G1 X176.582 Y122.381 E4.0455
G1 X177.169 Y122.222 E4.09405
G1 X177.327 Y122.185 E4.107
G1 X177.969 Y121.991 E4.16054
G1 X178.592 Y121.713 E4.21499
G1 X179.176 Y121.357 E4.26959
G1 X179.709 Y120.932 E4.32401
G1 X180.185 Y120.443 E4.37848
G1 X180.596 Y119.897 E4.43303
G1 X180.934 Y119.304 E4.48752
G1 X181.184 Y118.702 E4.53955
G1 X181.271 Y118.453 E4.5606
G1 X181.38 Y118.201 E4.58252
G1 X181.514 Y117.918 E4.60752
G1 X181.704 Y117.557 E4.64008
G1 X184.175 Y113.28 E5.03437
G1 X184.327 Y113.038 E5.05718
G1 X184.523 Y112.754 E5.08473
G1 X184.677 Y112.551 E5.10507
G1 X184.937 Y112.241 E5.13736
G1 X185.16 Y112.001 E5.16352
G1 X185.419 Y111.745 E5.19258
G1 X185.727 Y111.486 E5.22471
G1 X185.977 Y111.294 E5.24987
G1 X186.21 Y111.127 E5.27275
G1 X186.564 Y110.912 E5.30581
G1 X186.787 Y110.789 E5.32614
G1 X187.079 Y110.639 E5.35235
G1 X187.485 Y110.471 E5.38742
G1 X187.761 Y110.37 E5.41088
G1 X188.097 Y110.265 E5.43898
G1 X188.203 Y110.236 E5.44775
G1 X188.466 Y110.177 E5.46927
G1 X188.775 Y110.116 E5.49441
G1 X189.06 Y110.073 E5.51742
G1 X189.127 Y110.065 E5.52281
G1 X189.512 Y110.036 E5.55362
G1 X189.773 Y110.027 E5.57447
G1 X189.891 Y110.026 E5.58389
G1 X190.19 Y110.032 E5.60776
G1 X190.515 Y110.057 E5.63378
G1 X190.884 Y110.103 E5.66347
G1 X191.159 Y110.15 E5.68574
G1 X191.225 Y110.164 E5.69112
G1 X191.545 Y110.243 E5.71743
G1 X191.929 Y110.358 E5.74943
G1 X192.288 Y110.484 E5.7798
G1 X192.623 Y110.63 E5.80897
G1 X192.887 Y110.758 E5.83239
G1 X193.177 Y110.91 E5.85853
G1 X215.805 Y123.976 E7.94429
G1 X216.109 Y124.164 E7.97282
G1 X216.544 Y124.452 E8.01447
G1 X216.598 Y124.49 E8.01974
G1 X216.84 Y124.674 E8.044
G1 X216.932 Y124.747 E8.05338
G1 X217.342 Y125.09 E8.09605
G1 X217.595 Y125.33 E8.12389
G1 X217.876 Y125.616 E8.15589
G1 X218 Y125.752 E8.17058
G1 X218.318 Y126.118 E8.20929
G1 X218.405 Y126.224 E8.22023
G1 X218.556 Y126.424 E8.24024
G1 X218.685 Y126.603 E8.25785
G1 X218.909 Y126.93 E8.28949
G1 X218.995 Y127.066 E8.30233
G1 X219.154 Y127.33 E8.32693
G1 X219.203 Y127.417 E8.3349
G1 X219.404 Y127.797 E8.36922
G1 X219.468 Y127.926 E8.38071
G1 X219.647 Y128.319 E8.41519
G1 X219.813 Y128.736 E8.45101
G1 X219.982 Y129.243 E8.49367
G1 X220.07 Y129.549 E8.51909
G1 X220.132 Y129.81 E8.5405
G1 X220.239 Y130.334 E8.58319
G1 X220.295 Y130.728 E8.61496
G1 X220.306 Y130.818 E8.6222
G1 X220.341 Y131.197 E8.65258
G1 X220.351 Y131.335 E8.66363
G1 X220.369 Y131.757 E8.69734
G1 X220.358 Y132.304 E8.74102
G1 X220.343 Y132.558 E8.76133
G1 X220.319 Y132.804 E8.78106
G1 X220.268 Y133.196 E8.81261
G1 X220.243 Y133.35 E8.82506
G1 X220.124 Y133.944 E8.87342
G1 X220.056 Y134.215 E8.89573
G1 X220.013 Y134.371 E8.90864
G1 X219.874 Y134.823 E8.94639
G1 X219.743 Y135.176 E8.97645
G1 X219.691 Y135.305 E8.98755
G1 X219.495 Y135.752 E9.02651
G1 X219.326 Y136.087 E9.05646
G1 X219.169 Y136.385 E9.08335
G1 X219.12 Y136.474 E9.09146
G1 X208.009 Y155.718 E10.86526
G1 X207.711 Y156.318 E10.91873
G1 X207.489 Y156.96 E10.97296
G1 X207.389 Y157.388 E11.00804
G1 X204.68 Y171.602 E12.16309
G1 X204.566 Y172.184 E12.21043
G1 X204.42 Y172.833 E12.26353
G1 X204.348 Y173.111 E12.28645
G1 X204.284 Y173.372 E12.30791
G1 X204.055 Y174.152 E12.3728
G1 X203.953 Y174.459 E12.39862
G1 X203.66 Y175.256 E12.4664
G1 X203.485 Y175.689 E12.50368
G1 X203.14 Y176.464 E12.5714
G1 X203.03 Y176.692 E12.59161
G1 X202.653 Y177.415 E12.65669
G1 X202.393 Y177.873 E12.69873
G1 X202.029 Y178.469 E12.75448
G1 X201.811 Y178.808 E12.78665
G1 X201.41 Y179.38 E12.84242
G1 X201.168 Y179.712 E12.87521
G1 X201.07 Y179.84 E12.88808
G1 X200.571 Y180.459 E12.95155
G1 X200.375 Y180.691 E12.97579
G1 X199.863 Y181.251 E13.03636
G1 X199.63 Y181.49 E13.063
G1 X199.453 Y181.674 E13.08338
G1 X198.956 Y182.152 E13.13843
G1 X198.851 Y182.248 E13.14978
G1 X198.578 Y182.489 E13.17885
G1 X197.869 Y183.081 E13.25258
G1 X197.732 Y183.188 E13.26646
G1 X197.014 Y183.719 E13.33774
G1 X196.749 Y183.901 E13.3634
G1 X196.101 Y184.315 E13.42479
G1 X195.74 Y184.534 E13.45849
G1 X195.615 Y184.606 E13.47001
G1 X194.905 Y184.998 E13.53475
G1 X194.61 Y185.147 E13.56113
G1 X193.951 Y185.456 E13.61923
G1 X193.493 Y185.656 E13.65912
G1 X192.89 Y185.893 E13.71084
G1 X192.856 Y185.903 E13.71367
G1 X192.314 Y186.1 E13.7597
G1 X191.676 Y186.302 E13.81312
G1 X191.137 Y186.455 E13.85785
G1 X190.387 Y186.642 E13.91955
G1 X190.03 Y186.716 E13.94865
G1 X189.141 Y186.876 E14.02075
G1 X188.897 Y186.911 E14.04043
G1 X188.176 Y186.993 E14.09836
G1 X187.896 Y187.016 E14.12078
G1 X187.618 Y187.041 E14.14306
G1 X186.725 Y187.083 E14.21442
G1 X186.463 Y187.087 E14.23534
G1 X185.674 Y187.074 E14.29833
G1 X185.323 Y187.06 E14.32637
G1 X184.439 Y186.99 E14.39716
G1 X184.114 Y186.954 E14.42326
G1 X183.169 Y186.815 E14.4995
G1 X182.857 Y186.758 E14.52482
G1 X181.965 Y186.566 E14.59766
G1 X181.661 Y186.489 E14.62269
G1 X181.127 Y186.337 E14.66701
G1 X180.412 Y186.116 E14.72675
G1 X179.796 Y185.897 E14.77893
G1 X179.447 Y185.763 E14.80877
G1 X179.349 Y185.723 E14.81722
G1 X178.716 Y185.449 E14.87228
G1 X178.183 Y185.201 E14.91921
G1 X177.528 Y184.866 E14.97794
G1 X177.195 Y184.683 E15.00827
G1 X176.665 Y184.368 E15.05748
G1 X176.069 Y184.064 E15.11089
G1 X175.427 Y183.832 E15.16538
G1 X174.76 Y183.684 E15.21992
G1 X174.08 Y183.62 E15.27444
G1 X173.397 Y183.643 E15.32899
G1 X172.723 Y183.752 E15.38349
G1 X172.068 Y183.946 E15.43802
G1 X171.443 Y184.22 E15.49249
G1 X170.858 Y184.571 E15.54695
G1 X170.32 Y184.993 E15.60153
G1 X170.19 Y185.099 E15.61492
G1 X169.754 Y185.572 E15.66627
G1 X169.66 Y185.659 E15.6765
G1 X169.367 Y185.916 E15.70761
G1 X169.15 Y186.085 E15.72956
G1 X168.919 Y186.241 E15.75181
G1 X168.651 Y186.399 E15.77665
G1 X168.394 Y186.529 E15.79964
G1 X168.126 Y186.644 E15.82292
G1 X167.86 Y186.739 E15.84546
G1 X167.586 Y186.819 E15.86825
G1 X167.315 Y186.877 E15.89037
G1 X166.995 Y186.925 E15.9162
G1 X166.527 Y186.961 E15.95367
G1 X166.335 Y186.968 E15.969
G1 X154.379 Y186.968 E16.92338
G1 X154.253 Y186.964 E16.93345
G1 X153.876 Y186.94 E16.9636
G1 X153.578 Y186.903 E16.98757
G1 X153.294 Y186.848 E17.01066
G1 X153.003 Y186.772 E17.03467
G1 X152.729 Y186.683 E17.05767
G1 X152.49 Y186.587 E17.07823
G1 X152.107 Y186.406 E17.11204
G1 X151.485 Y186.158 E17.16549
G1 X150.824 Y185.987 E17.21999
G1 X150.146 Y185.901 E17.27455
G1 X149.463 Y185.901 E17.32907
G1 X148.785 Y185.987 E17.38362
G1 X148.122 Y186.159 E17.4383
G1 X147.366 Y186.472 E17.50361
G1 X147.244 Y186.534 E17.51454
G1 X146.985 Y186.645 E17.53703
G1 X146.722 Y186.739 E17.55933
G1 X146.448 Y186.819 E17.58211
G1 X146.177 Y186.877 E17.60423
G1 X145.857 Y186.925 E17.63006
G1 X145.389 Y186.961 E17.66753
G1 X145.197 Y186.968 E17.68287
G1 X133.624 Y186.968 E18.60667
G1 X133.498 Y186.964 E18.61674
G1 X133.121 Y186.94 E18.64689
G1 X132.823 Y186.903 E18.67086
G1 X132.539 Y186.848 E18.69395
G1 X132.248 Y186.772 E18.71796
G1 X131.988 Y186.687 E18.7398
G1 X131.711 Y186.577 E18.76359
G1 X131.452 Y186.454 E18.78648
G1 X131.194 Y186.311 E18.81002
G1 X130.975 Y186.172 E18.83073
G1 X130.701 Y185.968 E18.858
G1 X130.354 Y185.67 E18.89451
G1 X130.14 Y185.459 E18.9185
G1 X129.881 Y185.164 E18.94983
G1 X129.714 Y184.949 E18.97156
G1 X129.547 Y184.702 E18.99536
G1 X129.404 Y184.458 E19.01794
G1 X129.27 Y184.193 E19.04164
G1 X129.154 Y183.923 E19.0651
G1 X129.062 Y183.667 E19.08682
G1 X128.978 Y183.375 E19.11107
G1 X128.922 Y183.114 E19.13238
G1 X128.874 Y182.794 E19.15821
G1 X128.837 Y182.316 E19.19648
G1 X128.831 Y182.148 E19.2099
G1 X128.832 Y125.628 E23.72157
G1 X128.849 Y125.195 E23.75616
G1 X128.864 Y125.009 E23.77105
G1 X128.877 Y124.345 E23.82407
G1 X128.848 Y123.961 E23.85481
G1 X128.834 Y123.666 E23.87838
G1 X128.831 Y123.559 E23.88693
G1 X128.831 Y117.825 E24.34464
G1 X128.836 Y117.676 E24.35654
G1 X128.858 Y117.331 E24.38413
G1 X128.896 Y117.024 E24.40883
G1 X128.953 Y116.73 E24.43273
G1 X129.027 Y116.449 E24.45593
G1 X129.111 Y116.191 E24.47759
G1 X129.222 Y115.912 E24.50156
G1 X129.344 Y115.654 E24.52434
G1 X129.49 Y115.391 E24.54835
G1 X129.627 Y115.176 E24.5687
G1 X129.825 Y114.91 E24.59517
G1 X130.129 Y114.556 E24.63242
G0 F9000 X129.6 Y115.218
G1 F1350 X129.6 Y184.78 E30.18516
G0 F9000 X131.2 Y186.314
G1 F1350 X131.2 Y113.688 E35.98248
G0 F9000 X132.8 Y113.105
G1 F1350 X132.8 Y186.898 E41.87295
G0 F9000 X134.4 Y186.968
G1 F1350 X134.4 Y113.032 E47.77485
G0 F9000 X136 Y113.032
G1 F1350 X136 Y186.968 E53.67674
G0 F9000 X137.6 Y186.968
G1 F1350 X137.6 Y113.032 E59.57863
G0 F9000 X139.2 Y113.032
G1 F1350 X139.2 Y186.968 E65.48052
G0 F9000 X140.8 Y186.968
G1 F1350 X140.8 Y113.032 E71.38241
G0 F9000 X142.4 Y113.032
G1 F1350 X142.4 Y186.968 E77.2843
G0 F9000 X144 Y186.968
G1 F1350 X144 Y113.032 E83.18619
G0 F9000 X145.6 Y113.146
G1 F1350 X145.6 Y186.945 E89.07715
G0 F9000 X147.2 Y186.553
G1 F1350 X147.2 Y113.829 E94.88229
G0 F9000 X148.8 Y115.377
G1 F1350 X148.8 Y185.986 E100.51861
G0 F9000 X150.4 Y185.933
G1 F1350 X150.4 Y116.431 E106.06656
G0 F9000 X152 Y116.909
G1 F1350 X152 Y186.363 E111.61068
G0 F9000 X153.6 Y186.905
G1 F1350 X153.6 Y117.483 E117.15224
G0 F9000 X155.2 Y117.618
G1 F1350 X155.2 Y186.968 E122.68806
G0 F9000 X156.8 Y186.968
G1 F1350 X156.8 Y117.367 E128.24391
G0 F9000 X158.4 Y117.085
G1 F1350 X158.4 Y186.968 E133.82227
G0 F9000 X160 Y186.968
G1 F1350 X160 Y116.804 E139.42307
G0 F9000 X161.6 Y116.552
G1 F1350 X161.6 Y186.968 E145.04398
G0 F9000 X163.2 Y186.968
G1 F1350 X163.2 Y116.532 E150.66648
G0 F9000 X164.8 Y116.532
G1 F1350 X164.8 Y186.968 E156.28899
G0 F9000 X166.4 Y186.966
G1 F1350 X166.4 Y116.533 E161.91126
G0 F9000 X168 Y116.809
G1 F1350 X168 Y186.689 E167.48938
G0 F9000 X169.6 Y185.712
G1 F1350 X169.6 Y117.792 E172.91105
G0 F9000 X171.2 Y120.107
G1 F1350 X171.2 Y184.366 E178.04048
G0 F9000 X172.8 Y183.74
G1 F1350 X172.8 Y121.634 E182.99805
G0 F9000 X174.4 Y122.292
G1 F1350 X174.4 Y183.65 E187.89591
G0 F9000 X176 Y184.039
G1 F1350 X176 Y122.423 E192.81436
G0 F9000 X177.6 Y122.102
G1 F1350 X177.6 Y184.902 E197.82733
G0 F9000 X179.2 Y185.658
G1 F1350 X179.2 Y121.337 E202.96171
G0 F9000 X180.8 Y119.539
G1 F1350 X180.8 Y186.235 E208.28568
G0 F9000 X182.4 Y186.659
G1 F1350 X182.4 Y116.352 E213.89788
G0 F9000 X184 Y113.582
G1 F1350 X184 Y186.937 E219.7534
G0 F9000 X185.6 Y187.071
G1 F1350 X185.6 Y111.592 E225.77846
G0 F9000 X187.2 Y110.588
G1 F1350 X187.2 Y187.061 E231.88286
G0 F9000 X188.8 Y186.923
G1 F1350 X188.8 Y110.112 E238.01425
G0 F9000 X190.4 Y110.049
G1 F1350 X190.4 Y186.639 E244.12799
G0 F9000 X192 Y186.2
G1 F1350 X192 Y110.383 E250.18004
G0 F9000 X193.6 Y111.155
G1 F1350 X193.6 Y185.61 E256.12336
G0 F9000 X195.2 Y184.836
G1 F1350 X195.2 Y112.079 E261.93113
G0 F9000 X196.8 Y113.003
G1 F1350 X196.8 Y183.866 E267.58773
G0 F9000 X198.4 Y182.638
G1 F1350 X198.4 Y113.926 E273.07261
G0 F9000 X200 Y114.85
G1 F1350 X200 Y181.102 E278.36114
G0 F9000 X201.6 Y179.109
G1 F1350 X201.6 Y115.774 E283.41681
G0 F9000 X203.2 Y116.698
G1 F1350 X203.2 Y176.33 E288.17689
G1 F2700 E281.17689
G0 F9000 X204.462 Y176.11
G0 X205.079 Y174.445
G0 X205.397 Y173.256
G0 X205.784 Y171.419
G0 X204.8 Y170.973
G1 F2700 E288.17689
G1 F1350 X204.8 Y117.622 E292.4356
G0 F9000 X206.4 Y118.546
G1 F1350 X206.4 Y162.578 E295.95043
G1 F2700 E288.95043
G0 F9000 X207.446 Y162.776
G0 X208.695 Y156.73
G0 X208 Y155.737
G1 F2700 E295.95043
G1 F1350 X208 Y119.47 E298.84541
G0 F9000 X209.6 Y120.394
G1 F1350 X209.6 Y152.963 E301.44521
G0 F9000 X211.2 Y150.192
G1 F1350 X211.2 Y121.317 E303.75014
G0 F9000 X212.8 Y122.241
G1 F1350 X212.8 Y147.421 E305.76012
G0 F9000 X214.4 Y144.649
G1 F1350 X214.4 Y123.165 E307.47506
G0 F9000 X216 Y124.097
G1 F1350 X216 Y141.878 E308.89442
G0 F9000 X217.6 Y139.107
G1 F1350 X217.6 Y125.336 E309.99368
G0 F9000 X219.2 Y127.412
G1 F1350 X219.2 Y136.327 E310.70531
G1 F2700 E303.70531
G0 F300 X219.2 Y136.327 Z0.54
G0 F9000 X220.451 Y136.221
G0 X221.034 Y134.673
G0 X221.381 Y132.881
G0 X221.414 Y131.278
G0 X221.174 Y129.59
G0 X220.729 Y128.217
G0 X220.141 Y126.912
G0 X219.001 Y127.077
;TIME_ELAPSED:186.958371
;LAYER:-5
;TYPE:SUPPORT
G1 F2700 E310.70531
G1 F1350 X216.052 Y124.129 E311.12138
G1 X216.415 Y124.365 E311.16458
G1 X216.597 Y124.489 E311.18655
G1 X216.839 Y124.673 E311.21689
G1 X216.931 Y124.747 E311.22867
G1 X217.341 Y125.089 E311.28194
G1 X217.594 Y125.329 E311.31674
G1 X217.741 Y125.476 E311.33748
G1 X217.875 Y125.616 E311.35682
G1 X217.927 Y125.678 E311.36489
G1 X217.999 Y125.751 E311.37512
G1 X218.317 Y126.118 E311.42358
G1 X218.404 Y126.224 E311.43726
G1 X218.555 Y126.423 E311.46219
G1 X218.611 Y126.509 E311.47243
G1 X218.684 Y126.603 E311.4843
G1 X218.908 Y126.93 E311.52385
G1 X218.994 Y127.066 E311.53991
G1 F2700 E304.53991
G0 F9000 X219.802 Y126.351
G0 X218.792 Y125.041
G0 X217.833 Y124.137
G0 X217.114 Y123.572
G0 X216.052 Y124.129
G1 F2700 E311.53991
