;FLAVOR:Marlin
;TIME:4219
;Filament used: 2.92075m
;Layer height: 0.2
;MINX:127.767
;MINY:111.968
;MINZ:0.24
;MAXX:172.082
;MAXY:188.032
;MAXZ:15.53
;Generated with Cura_SteamEngine 4.12.0
M140 S60
M105
M190 S60
M104 S200
M105
M109 S200
M82 ;absolute extrusion mode
M201 X500.00 Y500.00 Z100.00 E5000.00 ;Setup machine max acceleration
M203 X500.00 Y500.00 Z10.00 E50.00 ;Setup machine max feedrate
M204 P500.00 R1000.00 T500.00 ;Setup Print/Retract/Travel acceleration
M205 X8.00 Y8.00 Z0.40 E5.00 ;Setup Jerk
M220 S100 ;Reset Feedrate
M221 S100 ;Reset Flowrate

G28 ;Home

G92 E0 ;Reset Extruder
G1 Z2.0 F3000 ;Move Z Axis up
G1 X10.1 Y20 Z0.28 F5000.0 ;Move to start position
G1 X10.1 Y200.0 Z0.28 F1500.0 E15 ;Draw the first line
G1 X10.4 Y200.0 Z0.28 F5000.0 ;Move to side a little
G1 X10.4 Y20 Z0.28 F1500.0 E30 ;Draw the second line
G92 E0 ;Reset Extruder
G1 Z2.0 F3000 ;Move Z Axis up

G92 E0
G92 E0
G1 F2700 E-7
;LAYER_COUNT:72
;LAYER:-6
M107
G0 F9000 X130.129 Y114.556 Z0.24
;TYPE:SUPPORT-INTERFACE
G1 F2700 E0
G1 F1350 X130.34 Y114.341 E0.02405
G1 X130.635 Y114.082 E0.05538
G1 X130.85 Y113.915 E0.07711
G1 X131.081 Y113.759 E0.09936
G1 X131.349 Y113.601 E0.1242
G1 X131.606 Y113.471 E0.14719
G1 X131.876 Y113.355 E0.17065
G1 X132.132 Y113.263 E0.19236
G1 X132.424 Y113.179 E0.21661
G1 X132.685 Y113.123 E0.23792
G1 X133.005 Y113.075 E0.26375
G1 X133.473 Y113.039 E0.30122
G1 X133.665 Y113.032 E0.31656
G1 X144.551 Y113.032 E1.18552
G1 X144.677 Y113.036 E1.19559
G1 X145.054 Y113.06 E1.22574
G1 X145.352 Y113.097 E1.24971
G1 X145.636 Y113.152 E1.2728
G1 X145.927 Y113.228 E1.29681
G1 X146.185 Y113.312 E1.31847
G1 X146.464 Y113.423 E1.34244
G1 X146.722 Y113.545 E1.36522
G1 X146.981 Y113.689 E1.38888
G1 X147.2 Y113.828 E1.40958
G1 X147.466 Y114.026 E1.43605
G1 X147.82 Y114.33 E1.4733
G1 X148.035 Y114.541 E1.49734
G1 X148.649 Y115.239 E1.57155
G1 X149.161 Y115.689 E1.62596
G1 X149.725 Y116.075 E1.68052
G1 X150.335 Y116.388 E1.73525
G1 X151.151 Y116.668 E1.80411
G1 X151.62 Y116.787 E1.84274
G1 X151.914 Y116.878 E1.8673
G1 X152.256 Y117.001 E1.89631
G1 X152.593 Y117.154 E1.92586
G1 X153.219 Y117.393 E1.97935
G1 X153.883 Y117.553 E2.03387
G1 X154.562 Y117.627 E2.08839
G1 X155.242 Y117.617 E2.14267
G1 X155.743 Y117.553 E2.18299
G1 X161.065 Y116.615 E2.61436
G1 X161.382 Y116.567 E2.63996
G1 X161.437 Y116.562 E2.64437
G1 X161.899 Y116.535 E2.68131
G1 X162.02 Y116.532 E2.69097
G1 X166.376 Y116.532 E3.03868
G1 X166.502 Y116.536 E3.04875
G1 X166.879 Y116.56 E3.0789
G1 X167.177 Y116.597 E3.10287
G1 X167.461 Y116.652 E3.12596
G1 X167.752 Y116.728 E3.14997
G1 X168.01 Y116.812 E3.17163
G1 X168.289 Y116.923 E3.1956
G1 X168.547 Y117.045 E3.21838
G1 X168.806 Y117.189 E3.24203
G1 X169.025 Y117.328 E3.26274
G1 X169.291 Y117.526 E3.28921
G1 X169.645 Y117.83 E3.32646
G1 X169.86 Y118.041 E3.3505
G1 X170.119 Y118.336 E3.38184
G1 X170.286 Y118.551 E3.40357
G1 X170.442 Y118.782 E3.42582
G1 X170.6 Y119.05 E3.45066
G1 X170.732 Y119.309 E3.47386
G1 X170.835 Y119.548 E3.49463
G1 X170.942 Y119.846 E3.51991
G1 X171.022 Y120.125 E3.54308
G1 X171.078 Y120.386 E3.56439
G1 X171.126 Y120.706 E3.59022
G1 X171.162 Y121.167 E3.62713
G1 X171.169 Y121.352 E3.6419
G1 X171.169 Y182.175 E8.49706
G1 X171.165 Y182.301 E8.50712
G1 X171.141 Y182.678 E8.53728
G1 X171.104 Y182.976 E8.56125
G1 X171.049 Y183.26 E8.58434
G1 X170.973 Y183.551 E8.60835
G1 X170.889 Y183.809 E8.63001
G1 X170.778 Y184.088 E8.65397
G1 X170.656 Y184.346 E8.67676
G1 X170.512 Y184.605 E8.70041
G1 X170.373 Y184.824 E8.72112
G1 X170.175 Y185.09 E8.74759
G1 X169.871 Y185.444 E8.78483
G1 X169.66 Y185.659 E8.80888
G1 X169.367 Y185.916 E8.83999
G1 X169.15 Y186.085 E8.86195
G1 X168.919 Y186.241 E8.8842
G1 X168.651 Y186.399 E8.90903
G1 X168.394 Y186.529 E8.93202
G1 X168.125 Y186.644 E8.95537
G1 X167.868 Y186.737 E8.97719
G1 X167.576 Y186.821 E9.00144
G1 X167.315 Y186.877 E9.02275
G1 X166.995 Y186.925 E9.04858
G1 X166.527 Y186.961 E9.08605
G1 X166.335 Y186.968 E9.10139
G1 X154.379 Y186.968 E10.05577
G1 X154.253 Y186.964 E10.06583
G1 X153.876 Y186.94 E10.09598
G1 X153.578 Y186.903 E10.11995
G1 X153.294 Y186.848 E10.14305
G1 X153.003 Y186.772 E10.16705
G1 X152.729 Y186.683 E10.19005
G1 X152.49 Y186.587 E10.21061
G1 X152.107 Y186.406 E10.24442
G1 X151.485 Y186.158 E10.29788
G1 X150.824 Y185.987 E10.35238
G1 X150.146 Y185.901 E10.40693
G1 X149.463 Y185.901 E10.46145
G1 X148.785 Y185.987 E10.51601
G1 X148.122 Y186.159 E10.57068
G1 X147.366 Y186.472 E10.636
G1 X147.244 Y186.534 E10.64692
G1 X146.985 Y186.645 E10.66941
G1 X146.73 Y186.737 E10.69105
G1 X146.438 Y186.821 E10.71531
G1 X146.177 Y186.877 E10.73662
G1 X145.857 Y186.925 E10.76244
G1 X145.389 Y186.961 E10.79991
G1 X145.197 Y186.968 E10.81525
G1 X133.624 Y186.968 E11.73906
G1 X133.498 Y186.964 E11.74912
G1 X133.121 Y186.94 E11.77927
G1 X132.823 Y186.903 E11.80324
G1 X132.539 Y186.848 E11.82634
G1 X132.248 Y186.772 E11.85034
G1 X131.988 Y186.687 E11.87218
G1 X131.711 Y186.577 E11.89597
G1 X131.452 Y186.454 E11.91886
G1 X131.194 Y186.311 E11.9424
G1 X130.975 Y186.172 E11.96311
G1 X130.709 Y185.974 E11.98958
G1 X130.355 Y185.67 E12.02683
G1 X130.14 Y185.459 E12.05087
G1 X129.881 Y185.164 E12.08221
G1 X129.714 Y184.949 E12.10394
G1 X129.555 Y184.713 E12.12666
G1 X129.4 Y184.45 E12.15102
G1 X129.27 Y184.193 E12.17401
G1 X129.154 Y183.923 E12.19747
G1 X129.062 Y183.667 E12.21919
G1 X128.978 Y183.375 E12.24344
G1 X128.922 Y183.114 E12.26475
G1 X128.874 Y182.794 E12.29058
G1 X128.837 Y182.316 E12.32885
G1 X128.831 Y182.148 E12.34227
G1 X128.831 Y125.638 E16.85314
G1 X128.846 Y125.237 E16.88517
G1 X128.864 Y124.987 E16.90518
G1 X128.858 Y124.544 E16.94054
G1 X128.879 Y124.544 E16.94222
G1 X128.852 Y124.051 E16.98163
G1 X128.834 Y123.69 E17.01049
G1 X128.831 Y123.559 E17.02095
G1 X128.831 Y117.825 E17.47866
G1 X128.835 Y117.699 E17.48872
G1 X128.859 Y117.322 E17.51888
G1 X128.896 Y117.024 E17.54285
G1 X128.953 Y116.73 E17.56675
G1 X129.027 Y116.449 E17.58995
G1 X129.111 Y116.191 E17.61161
G1 X129.222 Y115.912 E17.63557
G1 X129.344 Y115.654 E17.65836
G1 X129.49 Y115.391 E17.68237
G1 X129.627 Y115.176 E17.70272
G1 X129.825 Y114.91 E17.72919
G1 X130.129 Y114.556 E17.76644
G0 F9000 X129.6 Y115.218
G1 F1350 X129.6 Y184.779 E23.3191
G0 F9000 X131.2 Y186.314
G1 F1350 X131.2 Y113.688 E29.11642
G0 F9000 X132.8 Y113.105
G1 F1350 X132.8 Y186.898 E35.00689
G0 F9000 X134.4 Y186.968
G1 F1350 X134.4 Y113.032 E40.90878
G0 F9000 X136 Y113.032
G1 F1350 X136 Y186.968 E46.81068
G0 F9000 X137.6 Y186.968
G1 F1350 X137.6 Y113.032 E52.71257
G0 F9000 X139.2 Y113.032
G1 F1350 X139.2 Y186.968 E58.61446
G0 F9000 X140.8 Y186.968
G1 F1350 X140.8 Y113.032 E64.51635
G0 F9000 X142.4 Y113.032
G1 F1350 X142.4 Y186.968 E70.41824
G0 F9000 X144 Y186.968
G1 F1350 X144 Y113.032 E76.32013
G0 F9000 X145.6 Y113.146
G1 F1350 X145.6 Y186.945 E82.21109
G0 F9000 X147.2 Y186.553
G1 F1350 X147.2 Y113.828 E88.01631
G0 F9000 X148.8 Y115.372
G1 F1350 X148.8 Y185.986 E93.65303
G0 F9000 X150.4 Y185.933
G1 F1350 X150.4 Y116.411 E99.20257
G0 F9000 X152 Y116.909
G1 F1350 X152 Y186.363 E104.74669
G0 F9000 X153.6 Y186.905
G1 F1350 X153.6 Y117.485 E110.2881
G0 F9000 X155.2 Y117.617
G1 F1350 X155.2 Y186.968 E115.82399
G0 F9000 X156.8 Y186.968
G1 F1350 X156.8 Y117.366 E121.37992
G0 F9000 X158.4 Y117.084
G1 F1350 X158.4 Y186.968 E126.95837
G0 F9000 X160 Y186.968
G1 F1350 X160 Y116.802 E132.55932
G0 F9000 X161.6 Y116.552
G1 F1350 X161.6 Y186.968 E138.18023
G0 F9000 X163.2 Y186.968
G1 F1350 X163.2 Y116.532 E143.80274
G0 F9000 X164.8 Y116.532
G1 F1350 X164.8 Y186.968 E149.42524
G0 F9000 X166.4 Y186.966
G1 F1350 X166.4 Y116.533 E155.04751
G0 F9000 X168 Y116.809
G1 F1350 X168 Y186.69 E160.62571
G0 F9000 X169.6 Y185.712
G1 F1350 X169.6 Y117.792 E166.04738
G0 F300 X169.6 Y117.792 Z0.54
G0 F9000 X170.941 Y119.846
;TIME_ELAPSED:100.359499
;LAYER:-5
;TYPE:SUPPORT
G1 F1350 X170.834 Y119.547 E166.07907
G1 X170.73 Y119.308 E166.10508
G1 X170.599 Y119.049 E166.13404
G1 X170.441 Y118.781 E166.16508
G1 X170.285 Y118.55 E166.19289
G1 X170.118 Y118.335 E166.22006
G1 X169.859 Y118.04 E166.25923
G1 X169.772 Y117.946 E166.27201
G1 X169.644 Y117.83 E166.28924
G1 X169.29 Y117.526 E166.3358
G1 X169.024 Y117.328 E166.36889
G1 X168.805 Y117.189 E166.39477
G1 X168.546 Y117.045 E166.42434
G1 X168.288 Y116.922 E166.45286
G1 X168.009 Y116.811 E166.48282
G1 X167.751 Y116.727 E166.50989
G1 X167.6 Y116.688 E166.52546
G1 X171.015 Y120.104 E167.00742
G1 X171.021 Y120.125 E167.0096
G1 X171.077 Y120.386 E167.03623
G1 X171.125 Y120.705 E167.06842
G1 X171.16 Y121.166 E167.11455
G1 X171.167 Y121.352 E167.13313
G1 X171.168 Y121.671 E167.16496
G1 X166.03 Y116.532 E167.89005
G1 X164.615 Y116.532 E168.03124
G1 X171.168 Y123.085 E168.95594
G1 X171.168 Y124.499 E169.09703
G1 X163.201 Y116.532 E170.22126
G1 X162.019 Y116.532 E170.3392
G1 X161.898 Y116.534 E170.35128
G1 X161.795 Y116.541 E170.36158
G1 X171.168 Y125.913 E171.68414
G1 X171.168 Y127.328 E171.82533
G1 X160.547 Y116.706 E173.32414
G1 X159.345 Y116.918 E173.44592
G1 X171.168 Y128.742 E175.11435
G1 X171.168 Y130.156 E175.25544
G1 X158.143 Y117.13 E177.09348
G1 X156.94 Y117.342 E177.21536
G1 X171.168 Y131.57 E179.22309
G1 X171.168 Y132.984 E179.36417
G1 X155.737 Y117.553 E181.54166
G1 X155.241 Y117.617 E181.59156
G1 X154.56 Y117.627 E181.65951
G1 X154.376 Y117.607 E181.67798
G1 X171.168 Y134.399 E184.04751
G1 X171.168 Y135.813 E184.1886
G1 X152.439 Y117.084 E186.83147
G1 X152.255 Y117 E186.85165
G1 X152.146 Y116.956 E186.86338
G1 X151.913 Y116.877 E186.88793
G1 X151.619 Y116.787 E186.91861
G1 X151.15 Y116.667 E186.96691
G1 X150.334 Y116.387 E187.05299
G1 X150.323 Y116.381 E187.05424
G1 X171.168 Y137.227 E189.99577
G1 X171.168 Y138.641 E190.13686
G1 X145.695 Y113.168 E193.73137
G1 X145.635 Y113.151 E193.7376
G1 X145.351 Y113.097 E193.76644
G1 X145.053 Y113.06 E193.7964
G1 X144.676 Y113.035 E193.8341
G1 X144.55 Y113.031 E193.84668
G1 X144.145 Y113.032 E193.88709
G1 X171.168 Y140.055 E197.70033
G1 X171.168 Y141.47 E197.84152
G1 X142.73 Y113.032 E201.85443
G1 X141.316 Y113.032 E201.99552
G1 X171.168 Y142.884 E206.20796
G1 X171.168 Y144.298 E206.34905
G1 X139.902 Y113.032 E210.76102
G1 X138.488 Y113.032 E210.90211
G1 X171.168 Y145.712 E215.51361
G1 X171.168 Y147.127 E215.6548
G1 X137.074 Y113.032 E220.4659
G1 X135.659 Y113.032 E220.60709
G1 X171.168 Y148.541 E225.61779
G1 X171.168 Y149.955 E225.75888
G1 X134.245 Y113.032 E230.96912
G1 X133.664 Y113.032 E231.02709
G1 X133.472 Y113.038 E231.04626
G1 X133.003 Y113.074 E231.09319
G1 X132.891 Y113.092 E231.10451
G1 X171.168 Y151.369 E236.50581
G1 X171.168 Y152.783 E236.6469
G1 X131.78 Y113.395 E242.20497
G1 X131.605 Y113.47 E242.22397
G1 X131.347 Y113.6 E242.25279
G1 X131.08 Y113.759 E242.2838
G1 X130.871 Y113.9 E242.30896
G1 X171.168 Y154.198 E247.99537
G1 X171.168 Y155.612 E248.13646
G1 X130.12 Y114.564 E253.92878
G1 X129.824 Y114.909 E253.97413
G1 X129.626 Y115.175 E254.00722
G1 X129.506 Y115.364 E254.02956
G1 X171.168 Y157.026 E259.90852
G1 X171.168 Y158.44 E260.04961
G1 X129.062 Y116.334 E265.99122
G1 X129.025 Y116.449 E266.00327
G1 X128.952 Y116.73 E266.03224
G1 X128.894 Y117.024 E266.06214
G1 X128.858 Y117.322 E266.09209
G1 X128.844 Y117.531 E266.11299
G1 X171.168 Y159.854 E272.0853
G1 X171.168 Y161.269 E272.22649
G1 X128.829 Y118.93 E278.20098
G1 X128.829 Y120.344 E278.34207
G1 X171.168 Y162.683 E284.31656
G1 X171.168 Y164.097 E284.45765
G1 X128.829 Y121.758 E290.43214
G1 X128.829 Y123.173 E290.57333
G1 X171.168 Y165.511 E296.54775
G1 X171.168 Y166.925 E296.68884
G1 X128.858 Y124.615 E302.65923
G1 X128.863 Y124.986 E302.69625
G1 X128.844 Y125.237 E302.72137
G1 X128.829 Y125.638 E302.76141
G1 X128.829 Y126.001 E302.79763
G1 X171.168 Y168.34 E308.77212
G1 X171.168 Y169.754 E308.91321
G1 X128.829 Y127.415 E314.8877
G1 X128.829 Y128.829 E315.02879
G1 X171.168 Y171.168 E321.00328
G1 X171.168 Y172.582 E321.14437
G1 X128.829 Y130.244 E327.11879
G1 X128.829 Y131.658 E327.25988
G1 X171.168 Y173.997 E333.23437
G1 X171.168 Y175.411 E333.37546
G1 X128.829 Y133.072 E339.34995
G1 X128.829 Y134.486 E339.49104
G1 X171.168 Y176.825 E345.46553
G1 X171.168 Y178.239 E345.60662
G1 X128.829 Y135.9 E351.58111
G1 X128.829 Y137.315 E351.7223
G1 X171.168 Y179.653 E357.69672
G1 X171.168 Y181.068 E357.83791
G1 X128.829 Y138.729 E363.8124
G1 X128.829 Y140.143 E363.95349
G1 X171.154 Y182.468 E369.926
G1 X171.141 Y182.676 E369.9468
G1 X171.104 Y182.975 E369.97686
G1 X171.049 Y183.259 E370.00572
G1 X170.973 Y183.55 E370.03573
G1 X170.936 Y183.664 E370.04769
G1 X128.829 Y141.557 E375.98944
G1 X128.829 Y142.972 E376.13063
G1 X170.492 Y184.634 E382.00966
G1 X170.373 Y184.823 E382.03195
G1 X170.175 Y185.089 E382.06504
G1 X169.878 Y185.435 E382.11053
G1 X128.829 Y144.386 E387.90299
G1 X128.829 Y145.8 E388.04408
G1 X169.127 Y186.098 E393.73056
G1 X168.919 Y186.24 E393.75569
G1 X168.651 Y186.398 E393.78674
G1 X168.393 Y186.528 E393.81556
G1 X168.217 Y186.602 E393.83461
G1 X128.829 Y147.214 E399.39269
G1 X128.829 Y148.628 E399.53378
G1 X167.107 Y186.906 E404.93521
G1 X166.995 Y186.924 E404.94653
G1 X166.526 Y186.96 E404.99347
G1 X166.334 Y186.966 E405.01264
G1 X165.753 Y186.966 E405.07061
G1 X128.829 Y150.043 E410.28091
G1 X128.829 Y151.457 E410.422
G1 X164.339 Y186.966 E415.43278
G1 X162.925 Y186.966 E415.57387
G1 X128.829 Y152.871 E420.38511
G1 X128.83 Y154.286 E420.5263
G1 X161.51 Y186.966 E425.1378
G1 X160.096 Y186.966 E425.27889
G1 X128.83 Y155.7 E429.69086
G1 X128.83 Y157.114 E429.83195
G1 X158.682 Y186.966 E434.04439
G1 X157.268 Y186.966 E434.18548
G1 X128.83 Y158.529 E438.19832
G1 X128.83 Y159.943 E438.33941
G1 X155.854 Y186.966 E442.15271
G1 X154.439 Y186.966 E442.2939
G1 X128.83 Y161.357 E445.90761
G1 X128.83 Y162.771 E446.0487
G1 X152.747 Y186.688 E449.42365
G1 X152.728 Y186.682 E449.42563
G1 X152.489 Y186.586 E449.45133
G1 X152.106 Y186.405 E449.4936
G1 X151.484 Y186.157 E449.56042
G1 X150.824 Y185.986 E449.62845
G1 X150.602 Y185.957 E449.65079
G1 X128.83 Y164.185 E452.72305
G1 X128.83 Y165.6 E452.86424
G1 X149.167 Y185.937 E455.73401
G1 X148.785 Y185.986 E455.77244
G1 X148.121 Y186.158 E455.84088
G1 X148.017 Y186.201 E455.85211
G1 X128.83 Y167.014 E458.5596
G1 X128.83 Y168.428 E458.70069
G1 X147.028 Y186.625 E461.26855
G1 X146.985 Y186.644 E461.27324
G1 X146.729 Y186.736 E461.30039
G1 X146.437 Y186.82 E461.33071
G1 X146.176 Y186.876 E461.35734
G1 X145.904 Y186.916 E461.38477
G1 X128.83 Y169.842 E463.7941
G1 X128.83 Y171.257 E463.93529
G1 X144.54 Y186.966 E466.15207
G1 X143.126 Y186.966 E466.29316
G1 X128.83 Y172.671 E468.31041
G1 X128.83 Y174.085 E468.4515
G1 X141.711 Y186.966 E470.26915
G1 X140.297 Y186.966 E470.41023
G1 X128.83 Y175.499 E472.02835
G1 X128.83 Y176.913 E472.16944
G1 X138.883 Y186.966 E473.58803
G1 X137.469 Y186.966 E473.72912
G1 X128.83 Y178.328 E474.9481
G1 X128.83 Y179.742 E475.08919
G1 X136.055 Y186.966 E476.10865
G1 X134.64 Y186.966 E476.24984
G1 X128.83 Y181.156 E477.06969
G1 X128.831 Y182.147 E477.16857
G1 X128.836 Y182.315 E477.18534
G1 X128.858 Y182.598 E477.21367
G1 X133.204 Y186.944 E477.82693
G1 X133.121 Y186.939 E477.83523
G1 X132.822 Y186.902 E477.86529
G1 X132.538 Y186.847 E477.89416
G1 X132.248 Y186.771 E477.92407
G1 X131.987 Y186.686 E477.95146
G1 X131.71 Y186.576 E477.9812
G1 X131.451 Y186.453 E478.00981
G1 X131.193 Y186.309 E478.03929
G1 X131.089 Y186.244 E478.05153
G1 X129.551 Y184.705 E478.26863
G0 F9000 X129.555 Y184.712
G1 F1350 X129.713 Y184.948 E478.29696
G1 X129.881 Y185.162 E478.32411
G1 X130.14 Y185.458 E478.36336
G1 X130.227 Y185.552 E478.37614
G1 X130.355 Y185.669 E478.39344
G1 X130.708 Y185.973 E478.43992
G1 X130.974 Y186.171 E478.47301
G1 X131.089 Y186.244 E478.4866
G0 F300 X131.089 Y186.244 Z0.74
G0 F9000 X131.728 Y186.8
;TIME_ELAPSED:242.311176
;LAYER:-4
;TYPE:SUPPORT-INTERFACE
G1 F1800 X147.132 Y186.8 E478.99894
G1 X147.065 Y186.829 E479.00137
G1 X146.776 Y186.933 E479.01159
G1 X146.491 Y187.014 E479.02144
G1 X146.217 Y187.074 E479.03077
G1 X145.875 Y187.125 E479.04227
G1 X145.403 Y187.161 E479.05801
G1 X145.204 Y187.168 E479.06464
G1 X133.617 Y187.168 E479.45002
G1 X133.498 Y187.164 E479.45398
G1 X133.094 Y187.139 E479.46745
