;FLAVOR:Marlin
;TIME:7801
;Filament used: 2.65936m
;Layer height: 0.12
;MINX:129.185
;MINY:112.971
;MINZ:0.144
;MAXX:171.23
;MAXY:187.033
;MAXZ:15.114
;Generated with Cura_SteamEngine 4.12.0
M140 S55
M105
M190 S55
M104 S205
M105
M109 S205
M82 ;absolute extrusion mode
M201 X500.00 Y500.00 Z100.00 E5000.00 ;Setup machine max acceleration
M203 X500.00 Y500.00 Z10.00 E50.00 ;Setup machine max feedrate
M204 P500.00 R1000.00 T500.00 ;Setup Print/Retract/Travel acceleration
M205 X8.00 Y8.00 Z0.40 E5.00 ;Setup Jerk
M220 S100 ;Reset Feedrate
M221 S100 ;Reset Flowrate

G28 ;Home

G92 E0 ;Reset Extruder
G1 Z2.0 F3000 ;Move Z Axis up
G1 X10.1 Y20 Z0.28 F5000.0 ;Move to start position
G1 X10.1 Y200.0 Z0.28 F1500.0 E15 ;Draw the first line
G1 X10.4 Y200.0 Z0.28 F5000.0 ;Move to side a little
G1 X10.4 Y20 Z0.28 F1500.0 E30 ;Draw the second line
G92 E0 ;Reset Extruder
G1 Z2.0 F3000 ;Move Z Axis up

G92 E0
G92 E0
G1 F2700 E-5
;LAYER_COUNT:120
;LAYER:-6
M107
G0 F9000 X131.25 Y115.909 Z0.144
;TYPE:SUPPORT-INTERFACE
G1 F2700 E0
G1 F1125 X131.572 Y115.588 E0.02178
G1 X131.91 Y115.29 E0.04336
G1 X132.243 Y115.031 E0.06356
G1 X132.659 Y114.777 E0.08691
G1 X133.042 Y114.578 E0.10758
G1 X133.55 Y114.359 E0.13407
G1 X133.912 Y114.253 E0.15214
G1 X134.326 Y114.152 E0.17255
G1 X134.574 Y114.1 E0.18469
G1 X134.996 Y114.053 E0.20502
G1 X135.191 Y114.04 E0.21438
G1 X135.476 Y114.032 E0.22804
G1 X166.416 Y114.032 E1.7099
G1 X166.93 Y114.067 E1.73457
G1 X166.983 Y114.074 E1.73713
G1 X167.438 Y114.172 E1.75942
G1 X167.478 Y114.184 E1.76142
G1 X167.905 Y114.341 E1.78321
G1 X167.958 Y114.365 E1.786
G1 X168.359 Y114.582 E1.80784
G1 X168.403 Y114.61 E1.81034
G1 X168.775 Y114.884 E1.83246
G1 X168.802 Y114.906 E1.83413
G1 X169.011 Y115.101 E1.84782
G1 X169.108 Y115.198 E1.85439
G1 X169.435 Y115.574 E1.87826
G1 X169.456 Y115.602 E1.87993
G1 X169.716 Y116.005 E1.9029
G1 X169.729 Y116.028 E1.90417
G1 X169.925 Y116.452 E1.92654
G1 X169.942 Y116.499 E1.92894
G1 X170.083 Y116.974 E1.95267
G1 X170.154 Y117.446 E1.97553
G1 X170.169 Y117.775 E1.9913
G1 X170.169 Y126.643 E2.41603
G1 X170.134 Y127.157 E2.44071
G1 X170.127 Y127.21 E2.44327
G1 X170.029 Y127.665 E2.46556
G1 X170.017 Y127.705 E2.46756
G1 X169.862 Y128.127 E2.48909
G1 X169.836 Y128.185 E2.49213
G1 X169.619 Y128.586 E2.51397
G1 X169.591 Y128.63 E2.51647
G1 X169.315 Y129.004 E2.53873
G1 X169.12 Y129.218 E2.5526
G1 X169.003 Y129.335 E2.56052
G1 X168.627 Y129.662 E2.58439
G1 X168.599 Y129.683 E2.58606
G1 X168.366 Y129.834 E2.59936
G1 X168.089 Y130.074 E2.61692
G1 X167.874 Y130.407 E2.6359
G1 X167.765 Y130.775 E2.65428
G1 X167.75 Y130.979 E2.66408
G1 X167.749 Y135.028 E2.858
G1 X167.737 Y135.331 E2.87253
G1 X167.723 Y135.474 E2.87941
G1 X167.667 Y135.93 E2.90141
G1 X167.584 Y136.379 E2.92328
G1 X167.451 Y136.805 E2.94466
G1 X167.296 Y137.213 E2.96556
G1 X167.086 Y137.672 E2.98974
G1 X166.909 Y137.962 E3.00601
G1 X166.86 Y138.038 E3.01034
G1 X166.616 Y138.39 E3.03085
G1 X166.328 Y138.755 E3.05312
G1 X165.994 Y139.085 E3.07561
G1 X165.676 Y139.366 E3.09593
G1 X165.352 Y139.622 E3.11571
G1 X164.95 Y139.867 E3.13826
G1 X164.9 Y139.895 E3.141
G1 X164.532 Y140.087 E3.16088
G1 X164.044 Y140.296 E3.18631
G1 X164.009 Y140.308 E3.18808
G1 X163.677 Y140.405 E3.20465
G1 X163.258 Y140.507 E3.2253
G1 X163.023 Y140.556 E3.2368
G1 X162.636 Y140.604 E3.25547
G1 X162.356 Y140.621 E3.26891
G1 X162.106 Y140.629 E3.28089
G1 X154.951 Y140.628 E3.62358
G1 X154.639 Y140.615 E3.63853
G1 X154.488 Y140.6 E3.6458
G1 X154.055 Y140.548 E3.66669
G1 X153.59 Y140.461 E3.68934
G1 X153.157 Y140.324 E3.7111
G1 X152.768 Y140.177 E3.73101
G1 X152.293 Y139.958 E3.75606
G1 X151.941 Y139.739 E3.77592
G1 X151.588 Y139.494 E3.7965
G1 X151.241 Y139.222 E3.81762
G1 X151.221 Y139.204 E3.8189
G1 X150.902 Y138.883 E3.84058
G1 X150.601 Y138.54 E3.86244
G1 X150.35 Y138.22 E3.88191
G1 X150.109 Y137.823 E3.90416
G1 X150.077 Y137.766 E3.90729
G1 X149.883 Y137.391 E3.92751
G1 X149.724 Y137.037 E3.9461
G1 X149.575 Y136.562 E3.96994
G1 X149.474 Y136.147 E3.9904
G1 X149.422 Y135.896 E4.00267
G1 X149.376 Y135.518 E4.02091
G1 X149.358 Y135.237 E4.0344
G1 X149.35 Y134.997 E4.0459
G1 X149.35 Y131.767 E4.2006
G1 X149.298 Y131.404 E4.21816
G1 X149.135 Y131.044 E4.23709
G1 X148.878 Y130.742 E4.25608
G1 X148.546 Y130.525 E4.27508
G1 X148.18 Y130.413 E4.29341
G1 X147.965 Y130.396 E4.30374
G1 X145.002 Y130.396 E4.44565
G1 X144.639 Y130.448 E4.46321
G1 X144.279 Y130.611 E4.48214
G1 X143.977 Y130.868 E4.50113
G1 X143.76 Y131.2 E4.52013
G1 X143.648 Y131.566 E4.53846
G1 X143.631 Y131.781 E4.54879
G1 X143.631 Y168.233 E6.29464
G1 X143.683 Y168.596 E6.31221
G1 X143.846 Y168.956 E6.33113
G1 X144.103 Y169.258 E6.35013
G1 X144.435 Y169.475 E6.36912
G1 X144.801 Y169.587 E6.38745
G1 X145.016 Y169.604 E6.39778
G1 X147.979 Y169.604 E6.5397
G1 X148.342 Y169.552 E6.55726
G1 X148.702 Y169.389 E6.57619
G1 X149.004 Y169.132 E6.59518
G1 X149.221 Y168.8 E6.61418
G1 X149.333 Y168.434 E6.63251
G1 X149.35 Y168.219 E6.64284
G1 X149.351 Y159.43 E7.06378
G1 X149.362 Y159.155 E7.07696
G1 X149.378 Y158.986 E7.08509
G1 X149.433 Y158.53 E7.10709
G1 X149.532 Y158.02 E7.13197
G1 X149.662 Y157.616 E7.1523
G1 X149.823 Y157.201 E7.17362
G1 X149.996 Y156.819 E7.1937
G1 X150.242 Y156.414 E7.2164
G1 X150.498 Y156.048 E7.23779
G1 X150.767 Y155.708 E7.25856
G1 X151.096 Y155.381 E7.28077
G1 X151.433 Y155.085 E7.30226
G1 X151.759 Y154.829 E7.32211
G1 X152.156 Y154.588 E7.34435
G1 X152.202 Y154.562 E7.34688
G1 X152.532 Y154.39 E7.36471
G1 X153.038 Y154.169 E7.39115
G1 X153.074 Y154.155 E7.393
G1 X153.412 Y154.055 E7.40988
G1 X153.821 Y153.954 E7.43006
G1 X154.1 Y153.896 E7.44371
G1 X154.526 Y153.848 E7.46424
G1 X154.964 Y153.829 E7.48524
G1 X162.109 Y153.829 E7.82744
G1 X162.421 Y153.839 E7.8424
G1 X162.627 Y153.852 E7.85228
G1 X162.988 Y153.894 E7.86969
G1 X163.021 Y153.899 E7.87129
G1 X163.291 Y153.957 E7.88451
G1 X163.735 Y154.069 E7.90644
G1 X164.091 Y154.179 E7.92429
G1 X164.58 Y154.396 E7.94991
G1 X164.955 Y154.595 E7.97025
G1 X165.354 Y154.837 E7.9926
G1 X165.716 Y155.125 E8.01475
G1 X166.032 Y155.407 E8.03504
G1 X166.329 Y155.704 E8.05515
G1 X166.611 Y156.061 E8.07694
G1 X166.646 Y156.108 E8.07975
G1 X166.867 Y156.429 E8.09841
G1 X167.11 Y156.831 E8.12091
G1 X167.303 Y157.262 E8.14353
G1 X167.46 Y157.681 E8.16496
G1 X167.575 Y158.049 E8.18343
G1 X167.672 Y158.56 E8.20834
G1 X167.737 Y159.128 E8.23572
G1 X167.75 Y159.46 E8.25163
G1 X167.75 Y169.026 E8.70979
G1 X167.802 Y169.389 E8.72736
G1 X167.965 Y169.749 E8.74628
G1 X168.213 Y170.041 E8.76463
G1 X168.802 Y170.478 E8.79976
G1 X169.011 Y170.673 E8.81345
G1 X169.108 Y170.77 E8.82002
G1 X169.435 Y171.146 E8.84388
G1 X169.456 Y171.174 E8.84556
G1 X169.717 Y171.578 E8.8686
G1 X169.732 Y171.606 E8.87012
G1 X169.925 Y172.027 E8.8923
G1 X169.941 Y172.069 E8.89445
G1 X170.083 Y172.546 E8.91829
G1 X170.155 Y173.027 E8.94158
G1 X170.169 Y173.347 E8.95692
G1 X170.169 Y182.215 E9.38165
G1 X170.134 Y182.73 E9.40638
G1 X170.127 Y182.78 E9.40879
G1 X170.029 Y183.238 E9.43123
G1 X170.02 Y183.268 E9.43273
G1 X169.862 Y183.699 E9.45471
G1 X169.84 Y183.749 E9.45733
G1 X169.619 Y184.158 E9.47959
G1 X169.591 Y184.202 E9.48209
G1 X169.315 Y184.576 E9.50435
G1 X169.12 Y184.79 E9.51822
G1 X169.003 Y184.907 E9.52614
G1 X168.627 Y185.234 E9.55001
G1 X168.599 Y185.255 E9.55169
G1 X168.196 Y185.515 E9.57466
G1 X168.167 Y185.531 E9.57624
G1 X167.746 Y185.724 E9.59842
G1 X167.704 Y185.74 E9.60058
G1 X167.227 Y185.882 E9.62441
G1 X166.746 Y185.954 E9.64771
G1 X166.415 Y185.968 E9.66357
G1 X135.432 Y185.967 E11.14749
G1 X135.124 Y185.955 E11.16226
G1 X134.979 Y185.94 E11.16924
G1 X134.52 Y185.883 E11.19139
G1 X134.036 Y185.789 E11.215
G1 X133.648 Y185.667 E11.23448
G1 X133.263 Y185.522 E11.25419
G1 X132.776 Y185.299 E11.27984
G1 X132.42 Y185.078 E11.29991
G1 X132.072 Y184.837 E11.32018
G1 X131.621 Y184.47 E11.34803
G1 X131.384 Y184.224 E11.36439
G1 X131.082 Y183.88 E11.38632
G1 X130.839 Y183.57 E11.40518
G1 X130.59 Y183.162 E11.42808
G1 X130.558 Y183.105 E11.43121
G1 X130.379 Y182.761 E11.44978
G1 X130.175 Y182.295 E11.47414
G1 X130.071 Y181.956 E11.49113
G1 X130.032 Y181.81 E11.49836
G1 X129.952 Y181.482 E11.51453
G1 X129.898 Y181.224 E11.52716
G1 X129.852 Y180.812 E11.54701
G1 X129.831 Y180.364 E11.56849
G1 X129.832 Y119.632 E14.47723
G1 X129.845 Y119.316 E14.49238
G1 X129.858 Y119.186 E14.49863
G1 X129.915 Y118.722 E14.52102
G1 X129.996 Y118.287 E14.54222
G1 X130.008 Y118.243 E14.5444
G1 X130.13 Y117.856 E14.56383
G1 X130.286 Y117.446 E14.58484
G1 X130.488 Y117.004 E14.60812
G1 X130.51 Y116.961 E14.61043
G1 X130.711 Y116.636 E14.62874
G1 X130.978 Y116.253 E14.6511
G1 X131.25 Y115.909 E14.6721
G0 F9000 X131.2 Y115.972
G1 F1125 X131.2 Y184.014 E17.93094
G0 F9000 X132.8 Y185.309
G1 F1125 X132.8 Y114.703 E21.31259
G0 F9000 X134.4 Y114.136
G1 F1125 X134.4 Y185.859 E24.74773
G0 F9000 X136 Y185.967
G1 F1125 X136 Y114.032 E28.19303
G0 F9000 X137.6 Y114.032
G1 F1125 X137.6 Y185.967 E31.63833
G0 F9000 X139.2 Y185.967
G1 F1125 X139.2 Y114.032 E35.08363
G0 F9000 X140.8 Y114.032
G1 F1125 X140.8 Y185.967 E38.52892
G0 F9000 X142.4 Y185.967
G1 F1125 X142.4 Y114.032 E41.97422
G0 F9000 X144 Y114.032
G1 F1125 X144 Y130.849 E42.77967
G0 F9000 X145.6 Y130.396
G1 F1125 X145.6 Y114.032 E43.56341
G0 F9000 X147.2 Y114.032
G1 F1125 X147.2 Y130.396 E44.34716
G0 F9000 X148.8 Y130.691
G1 F1125 X148.8 Y114.032 E45.14504
G0 F9000 X150.4 Y114.032
G1 F1125 X150.4 Y138.283 E46.30653
G0 F9000 X152 Y139.775
G1 F1125 X152 Y114.032 E47.53948
G0 F9000 X153.6 Y114.032
G1 F1125 X153.6 Y140.462 E48.80533
G0 F9000 X155.2 Y140.628
G1 F1125 X155.2 Y114.032 E50.07914
G0 F9000 X156.8 Y114.032
G1 F1125 X156.8 Y140.628 E51.35294
G0 F9000 X158.4 Y140.628
G1 F1125 X158.4 Y114.032 E52.62675
G0 F9000 X160 Y114.032
G1 F1125 X160 Y140.628 E53.90055
G0 F9000 X161.6 Y140.628
G1 F1125 X161.6 Y114.032 E55.17436
G0 F9000 X163.2 Y114.032
G1 F1125 X163.2 Y140.52 E56.44299
G0 F9000 X164.8 Y139.948
G1 F1125 X164.8 Y114.032 E57.68422
G0 F9000 X166.4 Y114.032
G1 F1125 X166.4 Y138.664 E58.86396
G1 F2700 E53.86396
G0 F9000 X167.553 Y138.898
G0 X168.051 Y138.123
G0 X168.617 Y136.634
G0 X168.777 Y135.32
G0 X168.818 Y130.966
G0 X168 Y130.212
G1 F2700 E58.86396
G1 F1125 X168 Y114.388 E59.62185
G0 F9000 X169.6 Y115.826
G1 F1125 X169.6 Y128.616 E60.23442
G1 F2700 E55.23442
G0 F9000 X170.153 Y129.66
G0 X168.47 Y137.114
G0 X163.42 Y152.895
G0 X163.2 Y153.938
G1 F2700 E60.23442
G1 F1125 X163.2 Y185.967 E61.76844
G0 F9000 X161.6 Y185.967
G1 F1125 X161.6 Y153.829 E63.30767
G0 F9000 X160 Y153.829
G1 F1125 X160 Y185.967 E64.84691
G0 F9000 X158.4 Y185.967
G1 F1125 X158.4 Y153.829 E66.38614
G0 F9000 X156.8 Y153.829
G1 F1125 X156.8 Y185.967 E67.92538
G0 F9000 X155.2 Y185.967
G1 F1125 X155.2 Y153.829 E69.46462
G0 F9000 X153.6 Y154.008
G1 F1125 X153.6 Y185.967 E70.99528
G0 F9000 X152 Y185.967
G1 F1125 X152 Y154.682 E72.49366
G0 F9000 X150.4 Y156.188
G1 F1125 X150.4 Y185.967 E73.91992
G0 F9000 X148.8 Y185.967
G1 F1125 X148.8 Y169.305 E74.71794
G0 F9000 X147.2 Y169.604
G1 F1125 X147.2 Y185.967 E75.50164
G0 F9000 X145.6 Y185.967
G1 F1125 X145.6 Y169.604 E76.28533
G0 F9000 X144 Y169.137
G1 F1125 X144 Y185.967 E77.0914
G1 F2700 E72.0914
G0 F9000 X144 Y187.033
G0 X164.8 Y187.033
G0 X164.8 Y185.967
G1 F2700 E77.0914
G1 F1125 X164.8 Y154.513 E78.59788
G0 F9000 X166.4 Y155.794
G1 F1125 X166.4 Y185.967 E80.043
G0 F9000 X168 Y185.608
G1 F1125 X168 Y169.791 E80.80055
G0 F9000 X169.6 Y171.397
G1 F1125 X169.6 Y184.188 E81.41317
G1 F2700 E76.41317
G0 F300 X169.6 Y184.188 Z0.324
G0 F9000 X170.792 Y184.226
G0 X171.063 Y183.493
G0 X171.23 Y182.316
G0 X171.221 Y173.002
G0 X168.588 Y157.717
G0 X167.387 Y157.487
;TIME_ELAPSED:103.035053
;LAYER:-5
;TYPE:SUPPORT
G1 F2700 E81.41317
G1 F1125 X164.073 Y154.174 E81.69371
G1 X164.089 Y154.178 E81.6947
G1 X164.579 Y154.396 E81.72681
G1 X164.953 Y154.594 E81.75214
G1 X165.353 Y154.837 E81.78016
G1 X165.714 Y155.125 E81.80781
G1 X166.031 Y155.406 E81.83317
G1 X166.328 Y155.703 E81.85832
G1 X166.609 Y156.061 E81.88556
G1 X166.645 Y156.107 E81.88906
G1 X166.865 Y156.428 E81.91236
G1 X167.109 Y156.83 E81.94051
G1 X167.302 Y157.261 E81.96878
G1 F2700 E76.96878
G0 F9000 X168.081 Y156.397
G0 X167.46 Y155.418
G0 X166.734 Y154.607
G0 X166.077 Y154.065
G0 X164.996 Y153.415
G0 X164.073 Y154.174
G1 F2700 E81.96878
G1 F1125 X163.734 Y154.069 E81.99003
G1 X163.29 Y153.956 E82.01746
G1 X163.02 Y153.898 E82.03399
G1 X162.987 Y153.894 E82.03598
G1 X162.626 Y153.852 E82.05774
G1 X162.42 Y153.838 E82.0701
G1 X162.321 Y153.836 E82.07603
G1 X167.741 Y159.256 E82.53492
G1 X167.749 Y159.46 E82.54714
G1 X167.749 Y160.678 E82.62006
G1 X160.9 Y153.828 E83.19999
G1 X159.485 Y153.828 E83.2847
G1 X167.749 Y162.092 E83.98438
G1 X167.749 Y163.507 E84.0691
G1 X158.071 Y153.828 E84.88854
G1 X156.657 Y153.828 E84.9732
G1 X167.749 Y164.921 E85.91236
G1 X167.749 Y166.335 E85.99701
G1 X155.243 Y153.828 E87.05589
G1 X154.963 Y153.828 E87.07266
G1 X154.722 Y153.836 E87.08709
G1 X154.525 Y153.848 E87.09891
G1 X154.099 Y153.896 E87.12458
G1 X153.931 Y153.931 E87.13485
G1 X167.749 Y167.749 E88.30477
G1 X167.749 Y169.025 E88.38116
G1 X167.773 Y169.187 E88.39097
G1 X152.841 Y154.255 E89.65521
G1 X152.532 Y154.388 E89.67535
G1 X152.201 Y154.56 E89.69768
G1 X152.155 Y154.586 E89.70084
G1 X151.909 Y154.737 E89.71812
G1 X170.148 Y172.976 E91.26236
G1 X170.155 Y173.026 E91.26538
G1 X170.158 Y173.057 E91.26724
G1 X170.168 Y173.346 E91.28455
G1 X170.169 Y174.412 E91.34837
G1 X151.117 Y155.36 E92.96144
G1 X151.095 Y155.379 E92.96318
G1 X150.767 Y155.707 E92.99095
G1 X150.497 Y156.047 E93.01694
G1 X150.453 Y156.11 E93.02154
G1 X170.169 Y175.826 E94.69083
G1 X170.169 Y177.24 E94.77548
G1 X149.917 Y156.989 E96.49011
G1 X149.822 Y157.2 E96.50396
G1 X149.661 Y157.615 E96.53061
G1 X149.532 Y158.017 E96.55588
G1 X170.169 Y178.654 E98.30315
G1 X170.169 Y180.068 E98.3878
G1 X149.357 Y159.257 E100.14984
G1 X149.351 Y159.429 E100.16014
G1 X149.35 Y160.664 E100.23408
G1 X170.169 Y181.483 E101.99675
G1 X170.169 Y182.214 E102.04051
G1 X170.134 Y182.729 E102.07142
G1 X170.126 Y182.779 E102.07445
G1 X170.113 Y182.841 E102.07824
G1 X149.35 Y162.078 E103.83617
G1 X149.35 Y163.492 E103.92082
G1 X169.758 Y183.9 E105.6487
G1 X169.619 Y184.157 E105.66619
G1 X169.591 Y184.201 E105.66931
G1 X169.314 Y184.575 E105.69718
G1 X169.289 Y184.605 E105.69951
G1 X169.174 Y184.73 E105.70968
G1 X149.35 Y164.906 E107.38811
G1 X149.35 Y166.32 E107.47276
G1 X168.406 Y185.377 E109.08621
G1 X168.195 Y185.514 E109.10127
G1 X168.166 Y185.53 E109.10326
G1 X167.746 Y185.723 E109.13093
G1 X167.703 Y185.739 E109.13367
G1 X167.434 Y185.819 E109.15048
G1 X149.35 Y167.734 E110.68163
G1 X149.35 Y168.218 E110.7106
G1 X149.333 Y168.433 E110.72351
G1 X149.22 Y168.799 E110.74645
G1 X149.133 Y168.932 E110.75596
G1 X166.167 Y185.966 E112.19817
G1 X164.753 Y185.966 E112.28282
G1 X148.338 Y169.552 E113.67258
G1 X147.979 Y169.603 E113.69429
G1 X146.976 Y169.603 E113.75434
G1 X163.339 Y185.966 E115.13974
G1 X161.925 Y185.966 E115.22439
G1 X145.562 Y169.603 E116.60979
G0 F9000 X145.015 Y169.603
G1 F1125 X144.8 Y169.586 E116.6227
G1 X144.435 Y169.473 E116.64557
G1 X144.102 Y169.257 E116.66934
G1 X143.846 Y168.955 E116.69304
G1 X143.682 Y168.595 E116.71672
G1 X143.631 Y168.232 E116.73867
G1 X143.631 Y167.672 E116.7722
G1 X129.83 Y153.872 E117.94064
G1 X129.83 Y155.286 E118.02529
G1 X160.511 Y185.966 E120.6229
G1 X159.096 Y185.966 E120.70761
G1 X129.83 Y156.7 E123.18546
G1 X129.83 Y158.114 E123.27012
G1 X157.682 Y185.966 E125.62825
G1 X156.268 Y185.966 E125.7129
G1 X129.83 Y159.528 E127.95131
G1 X129.83 Y160.943 E128.03603
G1 X154.854 Y185.966 E130.15468
G1 X153.44 Y185.966 E130.23933
G1 X129.83 Y162.357 E132.23826
G1 X129.83 Y163.771 E132.32292
G1 X152.025 Y185.966 E134.20209
G1 X150.61 Y185.966 E134.2868
G1 X129.83 Y165.185 E136.04622
G1 X129.83 Y166.6 E136.13093
G1 X149.196 Y185.966 E137.77058
G1 X147.782 Y185.966 E137.85523
G1 X129.83 Y168.014 E139.37517
G1 X129.83 Y169.428 E139.45982
G1 X146.368 Y185.966 E140.86004
G1 X144.954 Y185.966 E140.94469
G1 X129.83 Y170.842 E142.22518
G1 X129.83 Y172.256 E142.30984
