;FLAVOR:Marlin
;TIME:5583
;Filament used: 3.80668m
;Layer height: 0.2
;MINX:102.12
;MINY:111.968
;MINZ:0.24
;MAXX:172.233
;MAXY:188.033
;MAXZ:15.53
;Generated with Cura_SteamEngine 4.12.0
M140 S60
M105
M190 S60
M104 S200
M105
M109 S200
M82 ;absolute extrusion mode
M201 X500.00 Y500.00 Z100.00 E5000.00 ;Setup machine max acceleration
M203 X500.00 Y500.00 Z10.00 E50.00 ;Setup machine max feedrate
M204 P500.00 R1000.00 T500.00 ;Setup Print/Retract/Travel acceleration
M205 X8.00 Y8.00 Z0.40 E5.00 ;Setup Jerk
M220 S100 ;Reset Feedrate
M221 S100 ;Reset Flowrate

G28 ;Home

G92 E0 ;Reset Extruder
G1 Z2.0 F3000 ;Move Z Axis up
G1 X10.1 Y20 Z0.28 F5000.0 ;Move to start position
G1 X10.1 Y200.0 Z0.28 F1500.0 E15 ;Draw the first line
G1 X10.4 Y200.0 Z0.28 F5000.0 ;Move to side a little
G1 X10.4 Y20 Z0.28 F1500.0 E30 ;Draw the second line
G92 E0 ;Reset Extruder
G1 Z2.0 F3000 ;Move Z Axis up

G92 E0
G92 E0
G1 F2700 E-7
;LAYER_COUNT:72
;LAYER:-6
M107
G0 F9000 X106.84 Y128.98 Z0.24
;TYPE:SUPPORT-INTERFACE
G1 F2700 E0
G1 F1350 X107.042 Y128.823 E0.02042
G1 X107.297 Y128.651 E0.04497
G1 X107.56 Y128.497 E0.0693
G1 X107.939 Y128.309 E0.10307
G1 X108.142 Y128.224 E0.12064
G1 X108.491 Y128.106 E0.15005
G1 X108.772 Y128.03 E0.17329
G1 X109.051 Y127.974 E0.196
G1 X109.342 Y127.935 E0.21944
G1 X109.75 Y127.906 E0.25209
G1 X109.927 Y127.9 E0.26623
G1 X114.591 Y127.9 E0.63853
G1 X114.717 Y127.904 E0.64859
G1 X115.092 Y127.928 E0.67858
G1 X115.397 Y127.966 E0.70312
G1 X115.543 Y127.994 E0.71499
G1 X116.208 Y128.08 E0.76851
G1 X116.892 Y128.08 E0.82311
G1 X117.616 Y127.985 E0.8814
G1 X117.666 Y127.975 E0.88547
G1 X117.974 Y127.934 E0.91027
G1 X118.366 Y127.906 E0.94164
G1 X118.543 Y127.9 E0.95578
G1 X123.189 Y127.9 E1.32664
G1 X123.261 Y127.902 E1.33239
G1 X123.931 Y127.883 E1.3859
G1 X124.606 Y127.776 E1.44045
G1 X125.262 Y127.586 E1.49497
G1 X125.888 Y127.315 E1.54942
G1 X126.475 Y126.966 E1.60393
G1 X127.014 Y126.546 E1.65848
G1 X127.495 Y126.062 E1.71295
G1 X127.911 Y125.521 E1.76742
G1 X128.256 Y124.931 E1.82198
G1 X128.524 Y124.304 E1.87641
G1 X128.71 Y123.647 E1.93092
G1 X128.811 Y122.976 E1.98508
G1 X128.831 Y122.514 E2.02199
G1 X128.831 Y117.825 E2.39629
G1 X128.835 Y117.699 E2.40635
G1 X128.859 Y117.322 E2.43651
G1 X128.896 Y117.024 E2.46048
G1 X128.953 Y116.73 E2.48438
G1 X129.027 Y116.449 E2.50758
G1 X129.111 Y116.191 E2.52924
G1 X129.222 Y115.912 E2.55321
G1 X129.344 Y115.654 E2.57599
G1 X129.49 Y115.391 E2.6
G1 X129.627 Y115.176 E2.62035
G1 X129.825 Y114.91 E2.64682
G1 X130.129 Y114.556 E2.68407
G1 X130.34 Y114.341 E2.70811
G1 X130.635 Y114.082 E2.73945
G1 X130.85 Y113.915 E2.76118
G1 X131.081 Y113.759 E2.78343
G1 X131.349 Y113.601 E2.80827
G1 X131.606 Y113.471 E2.83126
G1 X131.876 Y113.355 E2.85471
G1 X132.132 Y113.263 E2.87643
G1 X132.424 Y113.179 E2.90068
G1 X132.685 Y113.123 E2.92199
G1 X133.005 Y113.075 E2.94782
G1 X133.473 Y113.039 E2.98529
G1 X133.665 Y113.032 E3.00062
G1 X144.551 Y113.032 E3.86959
G1 X144.677 Y113.036 E3.87966
G1 X145.054 Y113.06 E3.90981
G1 X145.352 Y113.097 E3.93378
G1 X145.636 Y113.152 E3.95687
G1 X145.927 Y113.228 E3.98088
G1 X146.185 Y113.312 E4.00254
G1 X146.464 Y113.423 E4.02651
G1 X146.722 Y113.545 E4.04929
G1 X146.981 Y113.689 E4.07294
G1 X147.2 Y113.828 E4.09365
G1 X147.466 Y114.026 E4.12012
G1 X147.82 Y114.33 E4.15737
G1 X148.035 Y114.541 E4.18141
G1 X148.649 Y115.239 E4.25562
G1 X149.161 Y115.689 E4.31003
G1 X149.725 Y116.075 E4.36459
G1 X150.335 Y116.388 E4.41932
G1 X151.151 Y116.668 E4.48818
G1 X151.62 Y116.787 E4.5268
G1 X151.914 Y116.878 E4.55137
G1 X152.256 Y117.001 E4.58038
G1 X152.593 Y117.154 E4.60993
G1 X153.219 Y117.393 E4.66341
G1 X153.883 Y117.553 E4.71793
G1 X154.562 Y117.627 E4.77246
G1 X155.242 Y117.617 E4.82674
G1 X155.743 Y117.553 E4.86706
G1 X161.065 Y116.615 E5.29843
G1 X161.382 Y116.567 E5.32403
G1 X161.437 Y116.562 E5.32843
G1 X161.899 Y116.535 E5.36538
G1 X162.02 Y116.532 E5.37504
G1 X166.376 Y116.532 E5.72275
G1 X166.502 Y116.536 E5.73281
G1 X166.879 Y116.56 E5.76297
G1 X167.177 Y116.597 E5.78694
G1 X167.461 Y116.652 E5.81003
G1 X167.752 Y116.728 E5.83404
G1 X168.01 Y116.812 E5.8557
G1 X168.289 Y116.923 E5.87967
G1 X168.547 Y117.045 E5.90245
G1 X168.806 Y117.189 E5.9261
G1 X169.025 Y117.328 E5.94681
G1 X169.291 Y117.526 E5.97328
G1 X169.645 Y117.83 E6.01053
G1 X169.86 Y118.041 E6.03457
G1 X170.119 Y118.336 E6.06591
G1 X170.286 Y118.551 E6.08764
G1 X170.442 Y118.782 E6.10989
G1 X170.6 Y119.05 E6.13472
G1 X170.732 Y119.309 E6.15793
G1 X170.835 Y119.548 E6.1787
G1 X170.942 Y119.846 E6.20398
G1 X171.022 Y120.125 E6.22715
G1 X171.078 Y120.386 E6.24845
G1 X171.126 Y120.706 E6.27428
G1 X171.162 Y121.167 E6.31119
G1 X171.169 Y121.352 E6.32597
G1 X171.169 Y182.175 E11.18113
G1 X171.165 Y182.301 E11.19119
G1 X171.141 Y182.678 E11.22135
G1 X171.104 Y182.976 E11.24532
G1 X171.049 Y183.26 E11.26841
G1 X170.973 Y183.551 E11.29241
G1 X170.889 Y183.809 E11.31407
G1 X170.778 Y184.088 E11.33804
G1 X170.656 Y184.346 E11.36082
G1 X170.512 Y184.605 E11.38448
G1 X170.373 Y184.824 E11.40518
G1 X170.175 Y185.09 E11.43165
G1 X169.871 Y185.444 E11.4689
G1 X169.66 Y185.659 E11.49295
G1 X169.367 Y185.916 E11.52406
G1 X169.15 Y186.085 E11.54601
G1 X168.919 Y186.241 E11.56826
G1 X168.651 Y186.399 E11.5931
G1 X168.394 Y186.529 E11.61609
G1 X168.125 Y186.644 E11.63944
G1 X167.868 Y186.737 E11.66126
G1 X167.576 Y186.821 E11.68551
G1 X167.315 Y186.877 E11.70682
G1 X166.995 Y186.925 E11.73265
G1 X166.527 Y186.961 E11.77012
G1 X166.335 Y186.968 E11.78545
G1 X154.379 Y186.968 E12.73983
G1 X154.253 Y186.964 E12.7499
G1 X153.876 Y186.94 E12.78005
G1 X153.578 Y186.903 E12.80402
G1 X153.294 Y186.848 E12.82711
G1 X153.003 Y186.772 E12.85112
G1 X152.729 Y186.683 E12.87412
G1 X152.49 Y186.587 E12.89468
G1 X152.107 Y186.406 E12.92849
G1 X151.485 Y186.158 E12.98194
G1 X150.824 Y185.987 E13.03644
G1 X150.146 Y185.901 E13.091
G1 X149.463 Y185.901 E13.14552
G1 X148.785 Y185.987 E13.20007
G1 X148.122 Y186.159 E13.25475
G1 X147.366 Y186.472 E13.32006
G1 X147.244 Y186.534 E13.33099
G1 X146.985 Y186.645 E13.35348
G1 X146.73 Y186.737 E13.37512
G1 X146.438 Y186.821 E13.39937
G1 X146.177 Y186.877 E13.42068
G1 X145.857 Y186.925 E13.44651
G1 X145.389 Y186.961 E13.48398
G1 X145.197 Y186.968 E13.49932
G1 X133.624 Y186.968 E14.42312
G1 X133.498 Y186.964 E14.43319
G1 X133.121 Y186.94 E14.46334
G1 X132.823 Y186.903 E14.48731
G1 X132.539 Y186.848 E14.5104
G1 X132.248 Y186.772 E14.53441
G1 X131.988 Y186.687 E14.55625
G1 X131.711 Y186.577 E14.58004
G1 X131.452 Y186.454 E14.60293
G1 X131.194 Y186.311 E14.62647
G1 X130.975 Y186.172 E14.64718
G1 X130.709 Y185.974 E14.67365
G1 X130.355 Y185.67 E14.71089
G1 X130.14 Y185.459 E14.73494
G1 X129.881 Y185.164 E14.76628
G1 X129.714 Y184.949 E14.78801
G1 X129.555 Y184.713 E14.81072
G1 X129.4 Y184.45 E14.83509
G1 X129.27 Y184.193 E14.85808
G1 X129.154 Y183.923 E14.88154
G1 X129.062 Y183.667 E14.90325
G1 X128.978 Y183.375 E14.92751
G1 X128.922 Y183.114 E14.94882
G1 X128.874 Y182.794 E14.97465
G1 X128.837 Y182.316 E15.01292
G1 X128.831 Y182.148 E15.02634
G1 X128.831 Y177.482 E15.3988
G1 X128.789 Y176.814 E15.45222
G1 X128.66 Y176.143 E15.50677
G1 X128.447 Y175.494 E15.56129
G1 X128.155 Y174.877 E15.61578
G1 X127.787 Y174.302 E15.67027
G1 X127.349 Y173.778 E15.72479
G1 X126.849 Y173.314 E15.77924
G1 X126.293 Y172.915 E15.83387
G1 X125.693 Y172.591 E15.8883
G1 X125.057 Y172.345 E15.94273
G1 X124.393 Y172.181 E15.99733
G1 X123.719 Y172.102 E16.0515
G1 X123.257 Y172.098 E16.08838
G1 X123.189 Y172.1 E16.09381
G1 X118.518 Y172.1 E16.46667
G1 X118.392 Y172.096 E16.47673
G1 X118.015 Y172.072 E16.50689
G1 X117.719 Y172.035 E16.5307
G1 X117.566 Y172.006 E16.54313
G1 X116.901 Y171.922 E16.59663
G1 X116.215 Y171.922 E16.65139
G1 X116.126 Y171.922 E16.6585
G1 X115.21 Y172.057 E16.73241
G1 X114.742 Y172.093 E16.76988
G1 X114.55 Y172.1 E16.78521
G1 X109.902 Y172.1 E17.15624
G1 X109.776 Y172.096 E17.1663
G1 X109.399 Y172.072 E17.19645
G1 X109.104 Y172.035 E17.22019
G1 X108.816 Y171.98 E17.24359
G1 X108.524 Y171.903 E17.2677
G1 X108.141 Y171.775 E17.29993
G1 X107.974 Y171.709 E17.31426
G1 X107.611 Y171.532 E17.3465
G1 X107.358 Y171.389 E17.3697
G1 X107.126 Y171.237 E17.39184
G1 X106.876 Y171.048 E17.41686
G1 X106.553 Y170.768 E17.45098
G1 X106.437 Y170.66 E17.46363
G1 X104.623 Y168.846 E17.66841
G1 X104.515 Y168.73 E17.68106
G1 X104.264 Y168.444 E17.71144
G1 X104.105 Y168.239 E17.73215
G1 X103.935 Y167.987 E17.75641
G1 X103.781 Y167.724 E17.78074
G1 X103.593 Y167.345 E17.81451
G1 X103.5 Y167.121 E17.83387
G1 X103.39 Y166.793 E17.86149
G1 X103.314 Y166.512 E17.88472
G1 X103.258 Y166.233 E17.90744
G1 X103.219 Y165.942 E17.93088
G1 X103.189 Y165.52 E17.96465
G1 X103.184 Y165.37 E17.97663
G1 X103.184 Y159.193 E18.4697
G1 X103.188 Y159.067 E18.47976
G1 X103.212 Y158.69 E18.50992
G1 X103.249 Y158.392 E18.53389
G1 X103.304 Y158.108 E18.55698
G1 X103.38 Y157.817 E18.58099
G1 X103.464 Y157.559 E18.60265
G1 X103.575 Y157.28 E18.62662
G1 X103.697 Y157.022 E18.6494
G1 X103.843 Y156.759 E18.67341
G1 X103.986 Y156.536 E18.69456
G1 X104.126 Y156.348 E18.71327
G1 X104.49 Y155.786 E18.76672
G1 X104.787 Y155.171 E18.82123
G1 X105.003 Y154.523 E18.87576
G1 X105.137 Y153.853 E18.9303
G1 X105.184 Y153.15 E18.98654
G1 X105.184 Y146.855 E19.48903
G1 X105.142 Y146.187 E19.54246
G1 X105.013 Y145.516 E19.597
G1 X104.8 Y144.867 E19.65153
G1 X104.506 Y144.247 E19.7063
G1 X104.388 Y144.053 E19.72443
G1 X103.909 Y143.347 E19.79253
G1 X103.753 Y143.082 E19.81708
G1 X103.623 Y142.825 E19.84007
G1 X103.507 Y142.555 E19.86353
G1 X103.415 Y142.299 E19.88524
G1 X103.331 Y142.007 E19.90949
G1 X103.275 Y141.746 E19.9308
G1 X103.227 Y141.426 E19.95663
G1 X103.19 Y140.948 E19.9949
G1 X103.184 Y140.78 E20.00832
G1 X103.184 Y134.618 E20.5002
G1 X103.188 Y134.492 E20.51026
G1 X103.212 Y134.115 E20.54042
G1 X103.249 Y133.82 E20.56415
G1 X103.304 Y133.532 E20.58755
G1 X103.375 Y133.26 E20.60999
G1 X103.512 Y132.845 E20.64488
G1 X103.575 Y132.69 E20.65823
G1 X103.752 Y132.327 E20.69047
G1 X103.895 Y132.074 E20.71367
G1 X104.047 Y131.842 E20.73581
G1 X104.236 Y131.592 E20.76083
G1 X104.516 Y131.269 E20.79495
G1 X104.624 Y131.153 E20.8076
G1 X106.438 Y129.339 E21.01238
G1 X106.545 Y129.239 E21.02407
G1 X106.84 Y128.98 E21.05541
G0 F9000 X107.2 Y128.716
G1 F1350 X107.2 Y171.285 E24.45345
G0 F9000 X108.8 Y171.975
G1 F1350 X108.8 Y128.024 E27.96181
G0 F9000 X110.4 Y127.9
G1 F1350 X110.4 Y172.1 E31.49004
G0 F9000 X112 Y172.1
G1 F1350 X112 Y127.9 E35.01828
G0 F9000 X113.6 Y127.9
G1 F1350 X113.6 Y172.1 E38.54651
G0 F9000 X115.2 Y172.058
G1 F1350 X115.2 Y127.942 E42.06804
G0 F9000 X116.8 Y128.08
G1 F1350 X116.8 Y171.922 E45.5677
G0 F9000 X118.4 Y172.096
G1 F1350 X118.4 Y127.904 E49.0953
G0 F9000 X120 Y127.9
G1 F1350 X120 Y172.1 E52.62353
G0 F9000 X121.6 Y172.1
G1 F1350 X121.6 Y127.9 E56.15177
G0 F9000 X123.2 Y127.901
G1 F1350 X123.2 Y172.1 E59.67992
G0 F9000 X124.8 Y172.281
G1 F1350 X124.8 Y127.719 E63.23706
G0 F9000 X126.4 Y127.01
G1 F1350 X126.4 Y172.991 E66.90746
G0 F9000 X128 Y174.634
G1 F1350 X128 Y125.368 E70.84008
G1 F2700 E63.84008
G0 F9000 X127.304 Y124.452
G0 X127.844 Y116.856
G0 X128.062 Y116.015
G0 X128.403 Y115.156
G0 X129.6 Y115.218
G1 F2700 E70.84008
G1 F1350 X129.6 Y184.779 E76.39274
G0 F9000 X131.2 Y186.314
G1 F1350 X131.2 Y113.688 E82.19006
G0 F9000 X132.8 Y113.105
G1 F1350 X132.8 Y186.898 E88.08054
G0 F9000 X134.4 Y186.968
G1 F1350 X134.4 Y113.032 E93.98243
G0 F9000 X136 Y113.032
G1 F1350 X136 Y186.968 E99.88432
G0 F9000 X137.6 Y186.968
G1 F1350 X137.6 Y113.032 E105.78621
G0 F9000 X139.2 Y113.032
G1 F1350 X139.2 Y186.968 E111.68811
G0 F9000 X140.8 Y186.968
G1 F1350 X140.8 Y113.032 E117.59
G0 F9000 X142.4 Y113.032
G1 F1350 X142.4 Y186.968 E123.49189
G0 F9000 X144 Y186.968
G1 F1350 X144 Y113.032 E129.39378
G0 F9000 X145.6 Y113.146
G1 F1350 X145.6 Y186.945 E135.28473
G0 F9000 X147.2 Y186.553
G1 F1350 X147.2 Y113.828 E141.08996
G0 F9000 X148.8 Y115.372
G1 F1350 X148.8 Y185.986 E146.72667
G0 F9000 X150.4 Y185.933
G1 F1350 X150.4 Y116.411 E152.27622
G0 F9000 X152 Y116.909
G1 F1350 X152 Y186.363 E157.82034
G0 F9000 X153.6 Y186.905
G1 F1350 X153.6 Y117.485 E163.36174
G0 F9000 X155.2 Y117.617
G1 F1350 X155.2 Y186.968 E168.89764
G0 F9000 X156.8 Y186.968
G1 F1350 X156.8 Y117.366 E174.45357
G0 F9000 X158.4 Y117.084
G1 F1350 X158.4 Y186.968 E180.03202
G0 F9000 X160 Y186.968
G1 F1350 X160 Y116.802 E185.63297
G0 F9000 X161.6 Y116.552
G1 F1350 X161.6 Y186.968 E191.25388
G0 F9000 X163.2 Y186.968
G1 F1350 X163.2 Y116.532 E196.87638
G0 F9000 X164.8 Y116.532
G1 F1350 X164.8 Y186.968 E202.49889
G0 F9000 X166.4 Y186.966
G1 F1350 X166.4 Y116.533 E208.12116
G0 F9000 X168 Y116.809
G1 F1350 X168 Y186.69 E213.69936
G0 F9000 X169.6 Y185.712
G1 F1350 X169.6 Y117.792 E219.12103
G1 F2700 E212.12103
G0 F9000 X169.961 Y116.698
G0 X169.045 Y116.104
G0 X168.048 Y115.705
G0 X166.981 Y115.5
G0 X145.156 Y112
G0 X133.415 Y111.976
G0 X132.16 Y112.148
G0 X131.153 Y112.506
G0 X130.223 Y113.055
G0 X106.428 Y127.953
G0 X106.224 Y128.126
G0 X104.847 Y129.424
G0 X105.6 Y130.177
G1 F2700 E219.12103
G1 F1350 X105.6 Y169.823 E222.28574
G0 F9000 X104 Y168.083
G1 F1350 X104 Y156.517 E223.20899
G1 F2700 E216.20899
G0 F9000 X103.245 Y155.75
G0 X103.112 Y144.069
G0 X104 Y143.481
G1 F2700 E223.20899
G1 F1350 X104 Y131.913 E224.1324
G1 F2700 E217.1324
G0 F300 X104 Y131.913 Z0.54
G0 F9000 X102.81 Y131.83
G0 X102.357 Y132.945
G0 X102.152 Y134.013
G0 X102.127 Y165.582
G0 X102.211 Y166.245
G0 X102.372 Y167.106
G0 X103.511 Y167.15
;TIME_ELAPSED:138.430839
;LAYER:-5
;TYPE:SUPPORT
G1 F2700 E224.1324
G1 F1350 X108.131 Y171.771 E224.7844
G1 X108.028 Y171.732 E224.79539
G1 X107.611 Y171.53 E224.84163
G1 X107.357 Y171.387 E224.87071
G1 X107.125 Y171.236 E224.89833
G1 X106.875 Y171.047 E224.9296
G1 X106.553 Y170.766 E224.97224
G1 X106.437 Y170.659 E224.98799
G1 X104.622 Y168.845 E225.24404
G1 X104.515 Y168.729 E225.25978
G1 X104.263 Y168.443 E225.29782
G1 X104.105 Y168.238 E225.32364
G1 X103.934 Y167.985 E225.35411
G1 X103.781 Y167.723 E225.38439
G1 X103.593 Y167.344 E225.4266
G1 X103.54 Y167.231 E225.43905
G1 F2700 E218.43905
G0 F9000 X102.629 Y167.798
G0 X103.237 Y168.856
G0 X103.852 Y169.58
G0 X106.206 Y171.876
G0 X106.72 Y172.214
G0 X107.516 Y172.67
G0 X108.131 Y171.771
G1 F2700 E225.43905
G1 F1350 X108.14 Y171.774 E225.44
G1 X108.523 Y171.901 E225.48026
G1 X108.815 Y171.978 E225.5104
G1 X109.104 Y172.034 E225.53977
G1 X109.399 Y172.071 E225.56943
G1 X109.776 Y172.094 E225.60712
G1 X109.872 Y172.097 E225.6167
G1 X103.184 Y165.409 E226.56045
G1 X103.183 Y165.369 E226.56445
G1 X103.183 Y163.995 E226.70154
G1 X111.288 Y172.099 E227.84518
G1 X112.702 Y172.099 E227.98627
G1 X103.183 Y162.58 E229.3295
G1 X103.183 Y161.166 E229.47059
G1 X114.116 Y172.099 E231.01335
G1 X114.55 Y172.099 E231.05666
G1 X114.741 Y172.092 E231.07573
G1 X115.21 Y172.056 E231.12266
G1 X115.451 Y172.019 E231.14699
G1 X103.183 Y159.752 E232.87807
G1 X103.183 Y159.192 E232.93395
G1 X103.188 Y159.066 E232.94653
G1 X103.212 Y158.688 E232.98432
G1 X103.247 Y158.401 E233.01317
G1 X116.766 Y171.92 E234.92085
G1 X116.901 Y171.92 E234.93432
G1 X117.566 Y172.005 E235.00121
G1 X117.719 Y172.034 E235.01675
G1 X118.014 Y172.071 E235.04642
G1 X118.352 Y172.092 E235.08021
G1 X103.564 Y157.304 E237.16695
G1 X103.574 Y157.279 E237.16964
G1 X103.697 Y157.021 E237.19816
G1 X103.842 Y156.758 E237.22813
G1 X103.985 Y156.535 E237.25456
G1 X104.08 Y156.406 E237.27054
G1 X119.773 Y172.099 E239.485
G1 X121.187 Y172.099 E239.62609
G1 X104.614 Y155.526 E241.96472
G1 X104.787 Y155.17 E242.00421
G1 X105.003 Y154.521 E242.07246
G1 X105.006 Y154.503 E242.07428
G1 X122.601 Y172.099 E244.55719
G1 X123.188 Y172.099 E244.61577
G1 X123.257 Y172.097 E244.62265
G1 X123.719 Y172.101 E244.66875
G1 X124.057 Y172.14 E244.7027
G1 X105.175 Y153.259 E247.36709
G1 X105.183 Y153.149 E247.37809
G1 X105.183 Y151.852 E247.50751
G1 X126.188 Y172.857 E250.47154
G0 F9000 X126.293 Y172.914
G1 F1350 X126.849 Y173.313 E250.53982
G1 X127.348 Y173.777 E250.60781
G1 X127.786 Y174.301 E250.67596
G1 X128.061 Y174.73 E250.7268
G1 X140.297 Y186.966 E252.45344
