;FLAVOR:Marlin
;TIME:12192
;Filament used: 7.21359m
;Layer height: 0.2
;MINX:120.419
;MINY:95.553
;MINZ:0.24
;MAXX:179.582
;MAXY:204.451
;MAXZ:35.49
;Generated with Cura_SteamEngine 4.12.0
M140 S55
M105
M190 S55
M104 S210
M105
M109 S210
M82 ;absolute extrusion mode
M201 X500.00 Y500.00 Z100.00 E5000.00 ;Setup machine max acceleration
M203 X500.00 Y500.00 Z10.00 E50.00 ;Setup machine max feedrate
M204 P500.00 R1000.00 T500.00 ;Setup Print/Retract/Travel acceleration
M205 X8.00 Y8.00 Z0.40 E5.00 ;Setup Jerk
M220 S100 ;Reset Feedrate
M221 S100 ;Reset Flowrate

G28 ;Home

G92 E0 ;Reset Extruder
G1 Z2.0 F3000 ;Move Z Axis up
G1 X10.1 Y20 Z0.28 F5000.0 ;Move to start position
G1 X10.1 Y200.0 Z0.28 F1500.0 E15 ;Draw the first line
G1 X10.4 Y200.0 Z0.28 F5000.0 ;Move to side a little
G1 X10.4 Y20 Z0.28 F1500.0 E30 ;Draw the second line
G92 E0 ;Reset Extruder
G1 Z2.0 F3000 ;Move Z Axis up

G92 E0
G92 E0
G1 F2700 E-7
;LAYER_COUNT:172
;LAYER:-6
M107
G0 F9000 X142.073 Y98.407 Z0.24
;TYPE:SUPPORT-INTERFACE
G1 F2700 E0
G1 F1125 X142.528 Y97.833 E0.05847
G1 X142.671 Y97.687 E0.07478
G1 X143.012 Y97.384 E0.11119
G1 X143.066 Y97.342 E0.11666
G1 X143.436 Y97.097 E0.15208
G1 X143.496 Y97.063 E0.15758
G1 X143.897 Y96.873 E0.193
G1 X143.946 Y96.854 E0.1972
G1 X144.391 Y96.716 E0.23439
G1 X144.425 Y96.708 E0.23718
G1 X144.886 Y96.634 E0.27445
G1 X144.942 Y96.627 E0.27895
G1 X145.281 Y96.614 E0.30603
G1 X147.098 Y96.623 E0.45108
G1 X153.499 Y96.624 E0.96203
G1 X153.879 Y96.614 E0.99238
G1 X154.747 Y96.614 E1.06166
G1 X155.261 Y96.649 E1.10279
G1 X155.314 Y96.656 E1.10706
G1 X155.769 Y96.754 E1.14421
G1 X155.809 Y96.766 E1.14754
G1 X156.236 Y96.923 E1.18386
G1 X156.289 Y96.947 E1.1885
G1 X156.69 Y97.164 E1.2249
G1 X156.734 Y97.192 E1.22906
G1 X157.106 Y97.466 E1.26594
G1 X157.133 Y97.488 E1.26872
G1 X157.342 Y97.683 E1.29154
G1 X157.439 Y97.78 E1.30249
G1 X157.766 Y98.156 E1.34227
G1 X157.787 Y98.184 E1.34506
G1 X158.048 Y98.588 E1.38345
G1 X158.063 Y98.616 E1.38599
G1 X158.256 Y99.037 E1.42296
G1 X158.272 Y99.079 E1.42655
G1 X158.414 Y99.556 E1.46627
G1 X158.486 Y100.037 E1.5051
G1 X158.5 Y100.357 E1.53066
G1 X158.499 Y122.387 E3.28919
G1 X158.465 Y122.868 E3.32769
G1 X158.458 Y122.921 E3.33195
G1 X158.36 Y123.376 E3.36911
G1 X158.348 Y123.416 E3.37244
G1 X158.193 Y123.838 E3.40833
G1 X158.167 Y123.896 E3.4134
G1 X157.949 Y124.3 E3.45004
G1 X157.856 Y124.431 E3.46287
G1 X157.678 Y124.761 E3.4928
G1 X157.6 Y125.203 E3.52863
G1 X157.6 Y189.815 E8.68623
G1 X157.652 Y190.178 E8.71551
G1 X157.815 Y190.538 E8.74705
G1 X158.072 Y190.84 E8.77871
G1 X158.404 Y191.057 E8.81037
G1 X158.77 Y191.169 E8.84092
G1 X158.985 Y191.186 E8.85814
G1 X170.867 Y191.187 E9.80661
G1 X171.263 Y191.215 E9.8383
G1 X171.441 Y191.214 E9.85251
G1 X171.811 Y191.186 E9.88213
G1 X174.694 Y191.186 E10.11226
G1 X174.954 Y191.195 E10.13303
G1 X175.426 Y191.249 E10.17095
G1 X175.482 Y191.259 E10.17549
G1 X175.951 Y191.383 E10.21421
G1 X176.398 Y191.571 E10.25292
G1 X176.446 Y191.595 E10.25721
G1 X176.833 Y191.828 E10.29327
G1 X176.873 Y191.856 E10.29716
G1 X177.354 Y192.262 E10.34741
G1 X177.456 Y192.364 E10.35892
G1 X177.783 Y192.74 E10.3987
G1 X177.804 Y192.768 E10.40149
G1 X178.065 Y193.172 E10.43989
G1 X178.08 Y193.2 E10.44242
G1 X178.273 Y193.621 E10.47939
G1 X178.289 Y193.663 E10.48298
G1 X178.431 Y194.14 E10.52271
G1 X178.506 Y194.651 E10.56393
G1 X178.517 Y194.94 E10.58702
G1 X178.518 Y199.63 E10.9614
G1 X178.483 Y200.144 E11.00252
G1 X178.476 Y200.197 E11.00679
G1 X178.378 Y200.652 E11.04394
G1 X178.368 Y200.686 E11.04677
G1 X178.206 Y201.127 E11.08427
G1 X178.187 Y201.17 E11.08802
G1 X177.967 Y201.576 E11.12489
G1 X177.946 Y201.609 E11.12801
G1 X177.665 Y201.99 E11.1658
G1 X177.477 Y202.199 E11.18824
G1 X177.383 Y202.292 E11.19879
G1 X177.022 Y202.608 E11.23709
G1 X176.974 Y202.645 E11.24193
G1 X176.589 Y202.896 E11.27861
G1 X176.559 Y202.913 E11.28137
G1 X176.041 Y203.148 E11.32677
G1 X175.978 Y203.172 E11.33215
G1 X175.497 Y203.306 E11.37201
G1 X175.465 Y203.312 E11.37461
G1 X174.724 Y203.386 E11.43405
G1 X171.81 Y203.386 E11.66666
G1 X171.634 Y203.373 E11.68075
G1 X171.634 Y203.323 E11.68474
G1 X171.192 Y203.369 E11.72021
G1 X170.918 Y203.384 E11.74212
G1 X170.828 Y203.386 E11.7493
G1 X129.133 Y203.385 E15.07758
G1 X128.737 Y203.357 E15.10927
G1 X128.559 Y203.358 E15.12348
G1 X128.189 Y203.386 E15.1531
G1 X125.407 Y203.386 E15.37517
G1 X125.246 Y203.392 E15.38803
G1 X124.793 Y203.369 E15.42424
G1 X124.744 Y203.363 E15.42818
G1 X124.292 Y203.273 E15.46497
G1 X124.255 Y203.263 E15.46803
G1 X123.808 Y203.107 E15.50582
G1 X123.772 Y203.092 E15.50893
G1 X123.352 Y202.876 E15.54663
G1 X123.321 Y202.857 E15.54953
G1 X122.913 Y202.565 E15.58958
G1 X122.631 Y202.306 E15.62015
G1 X122.513 Y202.184 E15.6337
G1 X122.199 Y201.816 E15.67231
G1 X122.178 Y201.789 E15.67504
G1 X121.919 Y201.379 E15.71375
G1 X121.906 Y201.354 E15.716
G1 X121.719 Y200.941 E15.75219
G1 X121.697 Y200.88 E15.75737
G1 X121.575 Y200.459 E15.79236
G1 X121.563 Y200.4 E15.79716
G1 X121.483 Y199.63 E15.85896
G1 X121.484 Y194.905 E16.23613
G1 X121.518 Y194.428 E16.2743
G1 X121.525 Y194.375 E16.27857
G1 X121.623 Y193.92 E16.31572
G1 X121.637 Y193.873 E16.31964
G1 X121.79 Y193.458 E16.35494
G1 X121.816 Y193.401 E16.35994
G1 X122.026 Y193.011 E16.3953
G1 X122.061 Y192.958 E16.40037
G1 X122.517 Y192.385 E16.45883
G1 X122.634 Y192.262 E16.47238
G1 X123.012 Y191.929 E16.51259
G1 X123.048 Y191.902 E16.51618
G1 X123.435 Y191.648 E16.55313
G1 X123.458 Y191.635 E16.55524
G1 X123.903 Y191.425 E16.59452
G1 X123.931 Y191.414 E16.59692
G1 X124.373 Y191.278 E16.63384
G1 X124.423 Y191.266 E16.63794
G1 X124.883 Y191.194 E16.67511
G1 X125.39 Y191.183 E16.71559
G1 X125.461 Y191.186 E16.72126
G1 X128.19 Y191.186 E16.9391
G1 X128.366 Y191.199 E16.95319
G1 X128.366 Y191.249 E16.95718
G1 X128.808 Y191.203 E16.99265
G1 X129.082 Y191.188 E17.01456
G1 X129.172 Y191.186 E17.02174
G1 X141.029 Y191.186 E17.96822
G1 X141.392 Y191.134 E17.99749
G1 X141.752 Y190.971 E18.02904
G1 X142.054 Y190.714 E18.06069
G1 X142.271 Y190.382 E18.09235
G1 X142.383 Y190.016 E18.12291
G1 X142.4 Y189.801 E18.14012
G1 X142.4 Y125.212 E23.29589
G1 X142.348 Y124.848 E23.32525
G1 X142.192 Y124.506 E23.35525
G1 X141.959 Y124.145 E23.38955
G1 X141.932 Y124.096 E23.39401
G1 X141.744 Y123.685 E23.43009
G1 X141.728 Y123.643 E23.43368
G1 X141.586 Y123.166 E23.47341
G1 X141.514 Y122.685 E23.51223
G1 X141.501 Y122.403 E23.53476
G1 X141.5 Y100.357 E25.29457
G1 X141.535 Y99.871 E25.33347
G1 X141.542 Y99.818 E25.33773
G1 X141.64 Y99.363 E25.37489
G1 X141.654 Y99.316 E25.3788
G1 X141.807 Y98.901 E25.41411
G1 X141.833 Y98.843 E25.41918
G1 X142.046 Y98.449 E25.45493
G1 X142.073 Y98.407 E25.45892
G0 F9000 X142.4 Y97.994
G1 F1125 X142.4 Y125.212 E27.63158
G1 F2700 E20.63158
G0 F9000 X141.336 Y125.29
G0 X140.719 Y123.982
G0 X140.537 Y123.354
G0 X140.448 Y122.71
G0 X140.439 Y100.279
G0 X140.608 Y99.098
G0 X140.877 Y98.374
G0 X141.211 Y97.782
G0 X141.941 Y96.911
G0 X142.888 Y96.183
G0 X143.591 Y95.85
G0 X144.749 Y95.577
G0 X154.848 Y95.553
G0 X156.034 Y95.722
G0 X156.758 Y95.991
G0 X157.763 Y96.629
G0 X158.66 Y97.575
G0 X159.014 Y98.139
G0 X159.438 Y99.259
G0 X159.552 Y100.012
G0 X159.562 Y122.435
G0 X159.392 Y123.641
G0 X158.4 Y123.191
G1 F2700 E27.63158
G1 F1125 X158.4 Y99.509 E29.52198
G0 F9000 X156.8 Y97.241
G1 F1125 X156.8 Y203.385 E37.99485
G0 F9000 X155.2 Y203.385
G1 F1125 X155.2 Y96.645 E46.5153
G0 F9000 X153.6 Y96.621
G1 F1125 X153.6 Y203.385 E55.03766
G0 F9000 X152 Y203.385
G1 F1125 X152 Y96.624 E63.55979
G0 F9000 X150.4 Y96.624
G1 F1125 X150.4 Y203.385 E72.08191
G0 F9000 X148.8 Y203.385
G1 F1125 X148.8 Y96.624 E80.60404
G0 F9000 X147.2 Y96.624
G1 F1125 X147.2 Y203.385 E89.12616
G0 F9000 X145.6 Y203.385
G1 F1125 X145.6 Y96.616 E97.64893
G0 F9000 X144 Y96.837
G1 F1125 X144 Y203.385 E106.15405
G0 F9000 X142.4 Y203.385
G1 F1125 X142.4 Y189.801 E107.23838
G0 F9000 X140.8 Y191.186
G1 F1125 X140.8 Y203.385 E108.21216
G0 F9000 X139.2 Y203.385
G1 F1125 X139.2 Y191.186 E109.18594
G0 F9000 X137.6 Y191.186
G1 F1125 X137.6 Y203.385 E110.15971
G0 F9000 X136 Y203.385
G1 F1125 X136 Y191.186 E111.13349
G0 F9000 X134.4 Y191.186
G1 F1125 X134.4 Y203.385 E112.10727
G0 F9000 X132.8 Y203.385
G1 F1125 X132.8 Y191.186 E113.08104
G0 F9000 X131.2 Y191.186
G1 F1125 X131.2 Y203.385 E114.05482
G0 F9000 X129.6 Y203.385
G1 F1125 X129.6 Y191.186 E115.0286
G0 F9000 X128 Y191.186
G1 F1125 X128 Y203.386 E116.00245
G0 F9000 X126.4 Y203.386
G1 F1125 X126.4 Y191.186 E116.97631
G0 F9000 X124.8 Y191.206
G1 F1125 X124.8 Y203.369 E117.94721
G0 F9000 X123.2 Y202.77
G1 F1125 X123.2 Y191.802 E118.82273
G0 F9000 X121.6 Y194.026
G1 F1125 X121.6 Y200.545 E119.3431
G1 F2700 E112.3431
G0 F9000 X120.578 Y200.844
G0 X120.954 Y201.83
G0 X121.364 Y202.478
G0 X122.287 Y203.428
G0 X122.825 Y203.802
G0 X123.937 Y204.28
G0 X124.691 Y204.429
G0 X158.4 Y204.451
G0 X158.4 Y203.385
G1 F2700 E119.3431
G1 F1125 X158.4 Y191.055 E120.32734
G0 F9000 X160 Y191.187
G1 F1125 X160 Y203.385 E121.30103
G0 F9000 X161.6 Y203.385
G1 F1125 X161.6 Y191.187 E122.27473
G0 F9000 X163.2 Y191.187
G1 F1125 X163.2 Y203.385 E123.24843
G0 F9000 X164.8 Y203.385
G1 F1125 X164.8 Y191.187 E124.22212
G0 F9000 X166.4 Y191.187
G1 F1125 X166.4 Y203.385 E125.19582
G0 F9000 X168 Y203.385
G1 F1125 X168 Y191.187 E126.16952
G0 F9000 X169.6 Y191.187
G1 F1125 X169.6 Y203.385 E127.14322
G0 F9000 X171.2 Y203.369
G1 F1125 X171.2 Y191.211 E128.11372
G0 F9000 X172.8 Y191.186
G1 F1125 X172.8 Y203.386 E129.08758
G0 F9000 X174.4 Y203.386
G1 F1125 X174.4 Y191.186 E130.06143
G0 F9000 X176 Y191.404
G1 F1125 X176 Y203.164 E131.00017
G0 F9000 X177.6 Y202.063
G1 F1125 X177.6 Y192.53 E131.76113
G1 F2700 E124.76113
G0 F300 X177.6 Y192.53 Z0.54
G0 F9000 X178.288 Y193.662
;TIME_ELAPSED:100.082414
;LAYER:-5
;TYPE:SUPPORT
G1 F2700 E131.76113
G1 F1125 X178.272 Y193.619 E131.76571
G1 X178.079 Y193.199 E131.81183
G1 X178.065 Y193.171 E131.81495
G1 X177.803 Y192.767 E131.863
G1 X177.782 Y192.739 E131.86649
G1 X177.456 Y192.363 E131.91615
G1 X177.353 Y192.26 E131.93068
G1 X176.872 Y191.855 E131.99342
G1 X176.832 Y191.827 E131.9983
G1 X176.446 Y191.594 E132.04328
G1 X176.398 Y191.57 E132.04864
G1 X175.95 Y191.382 E132.09712
G1 X175.781 Y191.338 E132.11454
G1 X178.366 Y193.923 E132.47931
G1 F2700 E125.47931
G0 F9000 X179.256 Y193.212
G0 X178.978 Y192.624
G0 X178.614 Y192.073
G0 X178.044 Y191.451
G0 X177.409 Y190.932
G0 X176.338 Y190.391
G0 X175.781 Y191.338
G1 F2700 E132.47931
G1 F1125 X175.481 Y191.258 E132.51029
G1 X175.426 Y191.248 E132.51587
G1 X174.929 Y191.191 E132.56579
G1 X174.694 Y191.185 E132.58924
G1 X174.214 Y191.185 E132.63714
G1 X178.517 Y195.488 E133.24434
G1 X178.517 Y196.902 E133.38543
G1 X172.8 Y191.185 E134.19216
G1 X171.81 Y191.185 E134.29094
G1 X171.44 Y191.212 E134.32796
G1 X171.414 Y191.213 E134.33055
G1 X178.518 Y198.317 E135.333
G1 X178.518 Y199.629 E135.46392
G1 X178.511 Y199.725 E135.47352
G1 X169.972 Y191.186 E136.67847
G1 X168.558 Y191.186 E136.81956
G1 X178.284 Y200.912 E138.192
G1 X178.205 Y201.125 E138.21467
G1 X178.186 Y201.169 E138.21945
G1 X177.966 Y201.575 E138.26553
G1 X177.945 Y201.608 E138.26943
G1 X177.785 Y201.826 E138.29641
G1 X167.144 Y191.186 E139.7979
G1 X165.73 Y191.186 E139.93899
G1 X177.09 Y202.546 E141.54201
G1 X177.021 Y202.607 E141.5512
G1 X176.973 Y202.644 E141.55725
G1 X176.589 Y202.895 E141.60302
G1 X176.558 Y202.912 E141.60655
G1 X176.203 Y203.073 E141.64544
G1 X164.316 Y191.186 E143.32283
G1 X162.901 Y191.186 E143.46402
G1 X175.066 Y203.35 E145.18056
G1 X174.723 Y203.385 E145.21496
G1 X173.686 Y203.385 E145.31843
G1 X161.487 Y191.186 E147.03984
G1 X160.073 Y191.186 E147.18093
G1 X172.272 Y203.385 E148.90234
G1 X171.809 Y203.385 E148.94854
G1 X171.633 Y203.371 E148.96616
G1 X171.633 Y203.322 E148.97105
G1 X171.191 Y203.368 E149.01539
G1 X171.117 Y203.373 E149.02279
G1 X170.918 Y203.383 E149.04267
G1 X170.857 Y203.384 E149.04876
G1 X158.585 Y191.112 E150.78047
G0 F9000 X158.403 Y191.056
G1 F1125 X158.072 Y190.839 E150.81996
G1 X157.814 Y190.536 E150.85967
G1 X157.652 Y190.179 E150.89879
G1 X142.399 Y174.926 E153.05115
G1 X142.399 Y176.34 E153.19224
G1 X169.443 Y203.384 E157.00844
G1 X168.029 Y203.384 E157.14953
G1 X142.399 Y177.754 E160.7662
G1 X142.399 Y179.168 E160.90729
G1 X166.614 Y203.384 E164.32436
G1 X165.2 Y203.384 E164.46545
G1 X142.399 Y180.583 E167.68292
G1 X142.399 Y181.997 E167.82401
G1 X163.786 Y203.384 E170.84194
G1 X162.372 Y203.384 E170.98303
G1 X142.399 Y183.411 E173.80144
G1 X142.399 Y184.825 E173.94253
G1 X160.958 Y203.384 E176.5614
G1 X159.543 Y203.384 E176.70259
G1 X142.399 Y186.239 E179.12187
G1 X142.399 Y187.654 E179.26306
G1 X158.129 Y203.384 E181.48273
G1 X156.715 Y203.384 E181.62382
G1 X142.399 Y189.068 E183.64396
G1 X142.399 Y189.8 E183.717
G1 X142.383 Y190.015 E183.73851
G1 X142.276 Y190.36 E183.77455
G1 X155.301 Y203.384 E185.61245
G1 X153.886 Y203.384 E185.75364
G1 X141.559 Y191.057 E187.49311
G1 X141.392 Y191.133 E187.51142
G1 X141.028 Y191.185 E187.54811
G1 X140.273 Y191.185 E187.62344
G1 X152.472 Y203.384 E189.34485
G1 X151.058 Y203.384 E189.48594
G1 X138.859 Y191.185 E191.20735
G1 X137.445 Y191.185 E191.34844
G1 X149.644 Y203.384 E193.06986
G1 X148.23 Y203.384 E193.21094
G1 X136.031 Y191.185 E194.93236
G1 X134.616 Y191.185 E195.07354
G1 X146.815 Y203.384 E196.79496
G1 X145.401 Y203.384 E196.93604
G1 X133.202 Y191.185 E198.65746
G1 X131.788 Y191.185 E198.79854
G1 X143.987 Y203.384 E200.51996
G1 X142.573 Y203.384 E200.66105
G1 X130.374 Y191.185 E202.38246
G1 X129.172 Y191.185 E202.50239
G1 X129.082 Y191.187 E202.51137
G1 X128.967 Y191.192 E202.52286
G1 X141.159 Y203.384 E204.24328
G1 X139.744 Y203.384 E204.38447
G1 X127.545 Y191.185 E206.10588
G1 X126.131 Y191.185 E206.24697
G1 X138.33 Y203.384 E207.96838
G1 X136.916 Y203.384 E208.10947
G1 X124.747 Y191.215 E209.82665
G1 X124.422 Y191.265 E209.85946
G1 X124.373 Y191.276 E209.86447
G1 X123.931 Y191.413 E209.91064
G1 X123.902 Y191.424 E209.91374
G1 X123.658 Y191.54 E209.9407
G1 X135.502 Y203.384 E211.61201
G1 X134.087 Y203.384 E211.7532
G1 X122.81 Y192.106 E213.34458
G1 X122.634 Y192.261 E213.36798
G1 X122.547 Y192.35 E213.3804
G1 X122.516 Y192.384 E213.38499
G1 X122.143 Y192.854 E213.44486
G1 X132.673 Y203.384 E214.93076
G1 X131.259 Y203.384 E215.07185
G1 X121.666 Y193.791 E216.42552
G1 X121.637 Y193.872 E216.43411
G1 X121.623 Y193.919 E216.439
G1 X121.525 Y194.374 E216.48544
G1 X121.517 Y194.427 E216.49079
G1 X121.483 Y194.904 E216.53851
G1 X121.483 Y195.022 E216.55028
G1 X129.845 Y203.384 E217.73025
G1 X129.132 Y203.384 E217.80139
G1 X128.736 Y203.356 E217.841
G1 X128.559 Y203.356 E217.85866
G1 X128.414 Y203.367 E217.87317
G1 X121.483 Y196.436 E218.85121
G1 X121.483 Y197.85 E218.9923
G1 X127.017 Y203.385 E219.77328
G1 X125.603 Y203.385 E219.91437
G1 X121.483 Y199.264 E220.49582
G1 X121.483 Y199.629 E220.53224
G1 X121.562 Y200.399 E220.60947
G1 X121.574 Y200.458 E220.61548
G1 X121.697 Y200.879 E220.65924
G1 X121.705 Y200.901 E220.66158
G1 X123.964 Y203.16 E220.98035
G1 X123.808 Y203.105 E220.99685
G1 X123.771 Y203.09 E221.00084
G1 X123.352 Y202.875 E221.04783
G1 X123.32 Y202.856 E221.05154
G1 X122.912 Y202.564 E221.1016
G1 X122.631 Y202.305 E221.13973
G1 X122.538 Y202.212 E221.15286
G1 X122.199 Y201.815 E221.20495
G1 X122.178 Y201.788 E221.20836
G1 X121.919 Y201.378 E221.25675
G1 X121.905 Y201.353 E221.25961
G1 X121.719 Y200.94 E221.3048
G1 F2700 E214.3048
G0 F9000 X120.75 Y201.38
G0 X121.301 Y202.393
G0 X122.207 Y203.363
G0 X122.825 Y203.802
G0 X123.937 Y204.28
G0 X124.691 Y204.429
G0 X174.834 Y204.445
G0 X175.748 Y204.34
G0 X176.447 Y204.132
G0 X177.137 Y203.81
G0 X178.093 Y203.085
G0 X178.823 Y202.214
G0 X179.193 Y201.531
G0 X179.525 Y200.381
G0 X179.582 Y199.662
G0 X179.561 Y194.498
G0 X179.455 Y193.843
G0 X179.031 Y192.723
G0 X178.614 Y192.073
G0 X178.044 Y191.451
G0 X177.409 Y190.932
G0 X176.338 Y190.391
G0 X175.592 Y190.197
G0 X175.093 Y190.155
G0 X158.685 Y189.878
G0 X157.651 Y190.177
G1 F2700 E221.3048
G1 F1125 X157.599 Y189.814 E221.34139
G1 X157.599 Y188.712 E221.45135
G1 X142.399 Y173.511 E223.59631
