;FLAVOR:Marlin
;TIME:7475
;Filament used: 4.82849m
;Layer height: 0.2
;MINX:101.775
;MINY:117.85
;MINZ:0.2
;MAXX:147.625
;MAXY:182.15
;MAXZ:30
;Generated with Cura_SteamEngine 4.12.0
M140 S60
M105
M190 S60
M104 S200
M105
M109 S200
M82 ;absolute extrusion mode
M201 X500.00 Y500.00 Z100.00 E5000.00 ;Setup machine max acceleration
M203 X500.00 Y500.00 Z10.00 E50.00 ;Setup machine max feedrate
M204 P500.00 R1000.00 T500.00 ;Setup Print/Retract/Travel acceleration
M205 X8.00 Y8.00 Z0.40 E5.00 ;Setup Jerk
M220 S100 ;Reset Feedrate
M221 S100 ;Reset Flowrate

G28 ;Home

G92 E0 ;Reset Extruder
G1 Z2.0 F3000 ;Move Z Axis up
G1 X10.1 Y20 Z0.28 F5000.0 ;Move to start position
G1 X10.1 Y200.0 Z0.28 F1500.0 E15 ;Draw the first line
G1 X10.4 Y200.0 Z0.28 F5000.0 ;Move to side a little
G1 X10.4 Y20 Z0.28 F1500.0 E30 ;Draw the second line
G92 E0 ;Reset Extruder
G1 Z2.0 F3000 ;Move Z Axis up

G92 E0
G92 E0
G1 F2400 E-7.5
;LAYER_COUNT:150
;LAYER:0
M107
G0 F6000 X106.525 Y120.85 Z0.2
;TYPE:SKIRT
G1 F2400 E0
G1 F1200 X106.687 Y120.717 E0.00697
G1 X107.437 Y120.154 E0.03816
G1 X107.844 Y119.886 E0.05437
G1 X108.07 Y119.745 E0.06323
G1 X108.887 Y119.283 E0.09445
G1 X109.407 Y119.035 E0.11361
G1 X109.604 Y118.947 E0.12079
G1 X110.475 Y118.601 E0.15196
G1 X110.965 Y118.443 E0.16908
G1 X111.262 Y118.355 E0.17938
G1 X112.172 Y118.127 E0.21059
G1 X112.813 Y118.015 E0.23223
G1 X113.062 Y117.979 E0.2406
G1 X114.183 Y117.875 E0.27804
G1 X114.377 Y117.867 E0.2845
G1 X114.692 Y117.859 E0.29498
G1 X115.468 Y117.85 E0.32079
G1 X133.913 Y117.85 E0.93427
G1 X134.822 Y117.862 E0.96451
G1 X135.549 Y117.897 E0.98872
G1 X135.771 Y117.915 E0.99613
G1 X136.702 Y118.031 E1.02733
G1 X137.314 Y118.151 E1.04807
G1 X137.658 Y118.229 E1.05981
G1 X138.563 Y118.476 E1.09101
G1 X139.395 Y118.778 E1.12045
G1 X139.605 Y118.864 E1.12799
G1 X140.747 Y119.41 E1.1701
G1 X140.932 Y119.512 E1.17712
G1 X141.874 Y120.095 E1.21397
G1 X142.039 Y120.209 E1.22064
G1 X142.787 Y120.774 E1.25182
G1 X143.293 Y121.219 E1.27423
G1 X143.534 Y121.444 E1.28519
G1 X144.191 Y122.112 E1.31636
G1 X144.571 Y122.555 E1.33577
G1 X144.704 Y122.719 E1.34279
G1 X145.472 Y123.793 E1.38671
G1 X145.599 Y123.995 E1.39464
G1 X146.242 Y125.171 E1.43922
G1 X146.336 Y125.371 E1.44657
G1 X146.699 Y126.236 E1.47777
G1 X146.885 Y126.785 E1.49705
G1 X146.968 Y127.052 E1.50635
G1 X147.208 Y127.958 E1.53752
G1 X147.307 Y128.464 E1.55467
G1 X147.347 Y128.698 E1.56257
G1 X147.457 Y129.537 E1.59071
G1 X147.502 Y130.204 E1.61295
G1 X147.512 Y130.478 E1.62207
G1 X147.518 Y130.734 E1.63058
G1 X147.525 Y131.335 E1.65058
G1 X147.525 Y135.747 E1.79732
G1 X147.564 Y138.402 E1.88563
G1 X147.62 Y140.285 E1.94829
G1 X147.625 Y140.608 E1.95904
G1 X147.624 Y159.148 E2.57568
G1 X147.611 Y160.032 E2.60508
G1 X147.534 Y162.748 E2.69545
G1 X147.525 Y164.041 E2.73846
G1 X147.524 Y168.663 E2.89219
G1 X147.513 Y169.448 E2.9183
G1 X147.437 Y170.592 E2.95643
G1 X147.394 Y170.954 E2.96856
G1 X147.244 Y171.879 E2.99973
G1 X147.039 Y172.708 E3.02813
G1 X146.972 Y172.94 E3.03616
G1 X146.674 Y173.829 E3.06735
G1 X146.409 Y174.461 E3.09014
G1 X146.276 Y174.752 E3.10078
G1 X145.85 Y175.587 E3.13196
G1 X145.492 Y176.177 E3.15491
G1 X145.371 Y176.363 E3.16229
G1 X144.547 Y177.47 E3.20819
G1 X144.382 Y177.665 E3.21669
G1 X143.746 Y178.355 E3.2479
G1 X143.224 Y178.842 E3.27164
G1 X142.97 Y179.064 E3.28286
G1 X142.238 Y179.651 E3.31407
G1 X141.682 Y180.033 E3.33651
G1 X141.511 Y180.143 E3.34327
G1 X140.701 Y180.617 E3.37449
G1 X140.255 Y180.84 E3.39107
G1 X140.005 Y180.958 E3.40027
G1 X139.141 Y181.321 E3.43144
G1 X138.435 Y181.557 E3.45619
G1 X138.138 Y181.645 E3.4665
G1 X137.228 Y181.873 E3.4977
G1 X136.587 Y181.985 E3.51934
G1 X136.338 Y182.021 E3.52771
G1 X135.217 Y182.125 E3.56515
G1 X135.023 Y182.133 E3.57161
G1 X134.708 Y182.141 E3.58209
G1 X133.932 Y182.15 E3.6079
G1 X115.325 Y182.149 E4.22678
G1 X114.578 Y182.138 E4.25162
G1 X113.851 Y182.103 E4.27583
G1 X113.629 Y182.085 E4.28324
G1 X112.698 Y181.969 E4.31444
G1 X112.086 Y181.849 E4.33519
G1 X111.742 Y181.771 E4.34692
G1 X110.837 Y181.524 E4.37812
G1 X110.005 Y181.222 E4.40756
G1 X109.795 Y181.136 E4.41511
G1 X108.667 Y180.598 E4.45667
G1 X108.485 Y180.498 E4.46358
G1 X107.683 Y180.011 E4.49479
G1 X107.203 Y179.673 E4.51431
G1 X106.931 Y179.47 E4.5256
G1 X106.204 Y178.877 E4.55681
G1 X105.6 Y178.298 E4.58463
G1 X105.427 Y178.119 E4.59291
G1 X104.586 Y177.14 E4.63584
G1 X104.455 Y176.968 E4.64303
G1 X103.919 Y176.198 E4.67424
G1 X103.585 Y175.636 E4.69598
G1 X103.427 Y175.351 E4.70682
G1 X103.008 Y174.513 E4.73798
G1 X102.689 Y173.718 E4.76647
G1 X102.599 Y173.466 E4.77537
G1 X102.321 Y172.57 E4.80657
G1 X102.157 Y171.847 E4.83123
G1 X102.094 Y171.52 E4.84231
G1 X101.942 Y170.453 E4.87815
G1 X101.937 Y170.399 E4.87996
G1 X101.895 Y169.73 E4.90225
G1 X101.881 Y169.284 E4.91709
G1 X101.876 Y168.941 E4.9285
G1 X101.875 Y164.255 E5.08436
G1 X101.836 Y161.598 E5.17274
G1 X101.78 Y159.715 E5.2354
G1 X101.775 Y159.392 E5.24614
G1 X101.776 Y140.829 E5.86355
G1 X101.789 Y139.968 E5.89219
G1 X101.866 Y137.252 E5.98256
G1 X101.875 Y135.959 E6.02557
G1 X101.876 Y131.303 E6.18043
G1 X101.887 Y130.541 E6.20578
G1 X101.966 Y129.378 E6.24455
G1 X102.008 Y129.031 E6.25617
G1 X102.16 Y128.106 E6.28735
G1 X102.303 Y127.505 E6.3079
G1 X102.355 Y127.311 E6.31458
G1 X102.708 Y126.225 E6.35256
G1 X102.78 Y126.037 E6.35925
G1 X103.152 Y125.176 E6.39045
G1 X103.378 Y124.735 E6.40693
G1 X103.496 Y124.517 E6.41518
G1 X103.977 Y123.712 E6.44637
G1 X104.349 Y123.181 E6.46793
G1 X104.536 Y122.93 E6.47834
G1 X105.128 Y122.203 E6.50952
G1 X105.527 Y121.776 E6.52896
G1 X105.675 Y121.626 E6.53597
G1 X106.525 Y120.85 E6.57425
G0 F6000 X106.779 Y121.159
G1 F1200 X106.941 Y121.026 E6.58122
G1 X108.056 Y120.226 E6.62686
G1 X108.282 Y120.085 E6.63572
G1 X109.084 Y119.632 E6.66636
G1 X109.57 Y119.4 E6.68427
G1 X109.767 Y119.312 E6.69145
G1 X110.623 Y118.973 E6.72207
G1 X111.079 Y118.827 E6.73799
G1 X111.376 Y118.739 E6.7483
G1 X112.269 Y118.516 E6.77891
G1 X112.87 Y118.411 E6.7992
G1 X113.119 Y118.375 E6.80757
G1 X114.199 Y118.275 E6.84365
G1 X114.393 Y118.267 E6.8501
G1 X114.697 Y118.259 E6.86022
G1 X115.468 Y118.25 E6.88586
G1 X133.913 Y118.25 E7.49935
G1 X134.816 Y118.262 E7.52938
G1 X135.517 Y118.296 E7.55273
G1 X135.739 Y118.314 E7.56013
G1 X136.652 Y118.428 E7.59074
G1 X137.226 Y118.541 E7.61019
G1 X137.57 Y118.619 E7.62193
G1 X138.458 Y118.862 E7.65255
G1 X139.243 Y119.148 E7.68033
G1 X139.453 Y119.234 E7.68788
G1 X140.554 Y119.76 E7.72847
G1 X140.739 Y119.862 E7.73549
G1 X141.646 Y120.424 E7.77098
G1 X141.811 Y120.538 E7.77765
G1 X142.545 Y121.094 E7.80828
G1 X143.02 Y121.511 E7.8293
G1 X143.261 Y121.736 E7.84027
G1 X143.906 Y122.393 E7.87089
G1 X144.26 Y122.807 E7.88901
G1 X144.393 Y122.971 E7.89603
G1 X145.134 Y124.006 E7.93837
G1 X145.261 Y124.208 E7.9463
G1 X145.88 Y125.341 E7.98924
G1 X145.974 Y125.541 E7.99659
G1 X146.329 Y126.391 E8.02723
G1 X146.503 Y126.903 E8.04522
G1 X146.586 Y127.17 E8.05452
G1 X146.821 Y128.061 E8.08516
G1 X146.912 Y128.531 E8.10109
G1 X146.952 Y128.765 E8.10898
G1 X147.059 Y129.574 E8.13612
G1 X147.102 Y130.218 E8.15759
G1 X147.112 Y130.492 E8.16671
G1 X147.118 Y130.74 E8.17496
G1 X147.125 Y131.335 E8.19475
G1 X147.125 Y135.753 E8.3417
G1 X147.164 Y138.419 E8.43038
G1 X147.22 Y140.297 E8.49287
G1 X147.225 Y140.608 E8.50321
G1 X147.224 Y159.142 E9.11966
G1 X147.211 Y160.021 E9.1489
G1 X147.134 Y162.734 E9.23917
G1 X147.125 Y164.038 E9.28254
G1 X147.124 Y168.658 E9.4362
G1 X147.113 Y169.443 E9.46231
G1 X147.04 Y170.544 E9.49901
G1 X146.997 Y170.906 E9.51114
G1 X146.849 Y171.815 E9.54177
G1 X146.655 Y172.597 E9.56857
G1 X146.588 Y172.829 E9.5766
G1 X146.294 Y173.702 E9.60724
G1 X146.045 Y174.294 E9.6286
G1 X145.912 Y174.585 E9.63924
G1 X145.493 Y175.405 E9.66987
G1 X145.156 Y175.959 E9.69143
G1 X145.035 Y176.145 E9.69881
G1 X144.242 Y177.212 E9.74303
G1 X144.077 Y177.407 E9.75153
G1 X143.452 Y178.083 E9.78215
G1 X142.961 Y178.541 E9.80448
G1 X142.707 Y178.763 E9.8157
G1 X141.988 Y179.338 E9.84632
G1 X141.466 Y179.697 E9.86739
G1 X141.295 Y179.807 E9.87416
G1 X140.499 Y180.271 E9.9048
G1 X140.085 Y180.478 E9.92019
G1 X139.835 Y180.596 E9.92939
G1 X138.986 Y180.952 E9.96001
G1 X138.321 Y181.173 E9.98332
G1 X138.024 Y181.261 E9.99362
G1 X137.131 Y181.484 E10.02423
G1 X136.53 Y181.589 E10.04453
G1 X136.281 Y181.625 E10.05289
G1 X135.201 Y181.725 E10.08897
G1 X135.007 Y181.733 E10.09543
G1 X134.703 Y181.741 E10.10554
G1 X133.932 Y181.75 E10.13119
G1 X115.331 Y181.749 E10.74986
G1 X114.584 Y181.738 E10.77471
G1 X113.883 Y181.704 E10.79805
G1 X113.661 Y181.686 E10.80546
G1 X112.748 Y181.572 E10.83606
G1 X112.174 Y181.459 E10.85552
G1 X111.83 Y181.381 E10.86725
G1 X110.942 Y181.138 E10.89787
G1 X110.157 Y180.852 E10.92566
G1 X109.947 Y180.766 E10.9332
G1 X108.86 Y180.247 E10.97327
G1 X108.678 Y180.147 E10.98017
G1 X107.891 Y179.669 E11.0108
G1 X107.442 Y179.352 E11.02908
G1 X107.17 Y179.149 E11.04037
G1 X106.457 Y178.567 E11.07098
G1 X105.888 Y178.021 E11.09721
G1 X105.715 Y177.842 E11.10549
G1 X104.904 Y176.898 E11.14688
G1 X104.773 Y176.726 E11.15407
G1 X104.248 Y175.97 E11.18469
G1 X103.935 Y175.443 E11.20507
G1 X103.777 Y175.158 E11.21591
G1 X103.366 Y174.334 E11.24654
G1 X103.066 Y173.583 E11.27344
G1 X102.976 Y173.331 E11.28234
G1 X102.704 Y172.452 E11.31294
G1 X102.549 Y171.771 E11.33617
G1 X102.486 Y171.444 E11.34725
G1 X102.34 Y170.416 E11.38178
G1 X102.335 Y170.362 E11.38358
G1 X102.295 Y169.718 E11.40504
G1 X102.281 Y169.272 E11.41989
G1 X102.276 Y168.941 E11.4309
G1 X102.275 Y164.248 E11.58699
G1 X102.236 Y161.581 E11.6757
G1 X102.18 Y159.703 E11.73819
G1 X102.175 Y159.392 E11.74854
G1 X102.176 Y140.835 E12.36574
G1 X102.189 Y139.979 E12.39422
G1 X102.266 Y137.266 E12.48449
G1 X102.275 Y135.962 E12.52786
G1 X102.276 Y131.309 E12.68262
G1 X102.287 Y130.547 E12.70797
G1 X102.363 Y129.426 E12.74534
G1 X102.405 Y129.079 E12.75696
G1 X102.555 Y128.171 E12.78757
G1 X102.689 Y127.609 E12.80679
G1 X102.741 Y127.415 E12.81347
G1 X103.081 Y126.368 E12.85008
G1 X103.153 Y126.18 E12.85678
G1 X103.519 Y125.335 E12.88741
G1 X103.73 Y124.925 E12.90274
G1 X103.848 Y124.707 E12.91099
G1 X104.321 Y123.917 E12.94161
G1 X104.67 Y123.42 E12.96181
G1 X104.857 Y123.169 E12.97222
G1 X105.438 Y122.455 E13.00284
G1 X105.812 Y122.057 E13.021
G1 X105.96 Y121.907 E13.02801
G1 X106.779 Y121.159 E13.0649
G0 F6000 X107.033 Y121.468
G1 F1200 X107.195 Y121.335 E13.07187
G1 X108.268 Y120.565 E13.1158
G1 X108.494 Y120.424 E13.12466
G1 X109.281 Y119.98 E13.15471
G1 X109.733 Y119.765 E13.17136
G1 X109.93 Y119.677 E13.17854
G1 X111.192 Y119.21 E13.22329
G1 X111.489 Y119.122 E13.2336
G1 X112.366 Y118.904 E13.26365
G1 X112.927 Y118.807 E13.28259
G1 X113.176 Y118.771 E13.29096
G1 X114.216 Y118.675 E13.3257
G1 X114.41 Y118.667 E13.33215
G1 X114.702 Y118.659 E13.34187
G1 X115.468 Y118.65 E13.36735
G1 X133.913 Y118.65 E13.98083
G1 X134.81 Y118.662 E14.01067
G1 X135.484 Y118.694 E14.03311
G1 X135.706 Y118.712 E14.04052
G1 X136.602 Y118.825 E14.07056
G1 X137.138 Y118.932 E14.08874
G1 X137.482 Y119.01 E14.10047
G1 X138.353 Y119.248 E14.1305
G1 X139.092 Y119.518 E14.15667
G1 X139.302 Y119.604 E14.16421
G1 X140.361 Y120.111 E14.20327
G1 X140.546 Y120.213 E14.21029
G1 X141.419 Y120.753 E14.24443
G1 X141.584 Y120.867 E14.2511
G1 X142.304 Y121.413 E14.28116
G1 X142.747 Y121.803 E14.30079
G1 X142.988 Y122.028 E14.31176
G1 X143.62 Y122.673 E14.34179
G1 X143.949 Y123.059 E14.35866
G1 X144.082 Y123.223 E14.36568
G1 X144.795 Y124.219 E14.40642
G1 X144.922 Y124.421 E14.41436
G1 X145.518 Y125.511 E14.45568
G1 X145.612 Y125.711 E14.46303
G1 X145.96 Y126.545 E14.49308
G1 X146.121 Y127.022 E14.50983
G1 X146.204 Y127.289 E14.51913
G1 X146.518 Y128.598 E14.5639
G1 X146.558 Y128.832 E14.5718
G1 X146.661 Y129.611 E14.59793
G1 X146.666 Y129.665 E14.59974
G1 X146.702 Y130.233 E14.61867
G1 X146.712 Y130.507 E14.62779
G1 X146.718 Y130.745 E14.6357
G1 X146.725 Y131.335 E14.65533
G1 X146.725 Y135.759 E14.80247
G1 X146.762 Y138.361 E14.88902
G1 X146.77 Y138.572 E14.89605
G1 X146.821 Y140.309 E14.95384
G1 X146.825 Y140.608 E14.96379
G1 X146.824 Y159.137 E15.58007
G1 X146.811 Y160.01 E15.60911
G1 X146.734 Y162.721 E15.69931
G1 X146.725 Y164.035 E15.74301
G1 X146.724 Y168.652 E15.89658
G1 X146.713 Y169.437 E15.92269
G1 X146.643 Y170.497 E15.95802
G1 X146.6 Y170.859 E15.97015
G1 X146.454 Y171.75 E16.00018
G1 X146.271 Y172.486 E16.0254
G1 X146.204 Y172.718 E16.03343
G1 X145.915 Y173.574 E16.06348
G1 X145.681 Y174.128 E16.08348
G1 X145.548 Y174.419 E16.09413
G1 X145.137 Y175.223 E16.12416
G1 X144.821 Y175.741 E16.14434
G1 X144.7 Y175.927 E16.15172
G1 X143.937 Y176.954 E16.19427
G1 X143.772 Y177.149 E16.20277
G1 X143.158 Y177.812 E16.23283
G1 X142.697 Y178.24 E16.25375
G1 X142.443 Y178.462 E16.26497
G1 X141.738 Y179.026 E16.295
G1 X141.249 Y179.36 E16.31469
G1 X141.078 Y179.47 E16.32145
G1 X139.914 Y180.116 E16.36573
G1 X139.664 Y180.234 E16.37493
G1 X138.831 Y180.583 E16.40497
G1 X138.208 Y180.79 E16.4268
G1 X137.911 Y180.878 E16.4371
G1 X137.034 Y181.096 E16.46716
G1 X136.473 Y181.193 E16.4861
G1 X136.224 Y181.229 E16.49446
G1 X135.184 Y181.325 E16.5292
G1 X134.99 Y181.333 E16.53566
G1 X134.698 Y181.341 E16.54538
G1 X133.932 Y181.35 E16.57085
G1 X115.337 Y181.349 E17.18933
G1 X114.59 Y181.338 E17.21417
G1 X113.916 Y181.306 E17.23662
G1 X113.694 Y181.288 E17.24403
G1 X112.798 Y181.175 E17.27406
G1 X112.262 Y181.068 E17.29224
G1 X111.918 Y180.99 E17.30397
G1 X111.047 Y180.752 E17.334
G1 X110.308 Y180.482 E17.36017
G1 X110.098 Y180.396 E17.36772
G1 X109.052 Y179.896 E17.40628
G1 X108.87 Y179.796 E17.41319
G1 X108.099 Y179.327 E17.4432
G1 X107.681 Y179.031 E17.46024
G1 X107.409 Y178.828 E17.47153
G1 X106.71 Y178.257 E17.50155
G1 X106.176 Y177.743 E17.5262
G1 X106.003 Y177.564 E17.53448
G1 X105.223 Y176.655 E17.57432
G1 X105.092 Y176.483 E17.58151
G1 X104.577 Y175.741 E17.61155
G1 X104.285 Y175.249 E17.63058
G1 X104.127 Y174.964 E17.64142
G1 X103.725 Y174.155 E17.67146
G1 X103.442 Y173.449 E17.69676
G1 X103.352 Y173.197 E17.70566
G1 X103.086 Y172.334 E17.7357
G1 X102.942 Y171.696 E17.75745
G1 X102.879 Y171.369 E17.76853
G1 X102.738 Y170.379 E17.80179
G1 X102.733 Y170.325 E17.80359
G1 X102.695 Y169.705 E17.82425
G1 X102.681 Y169.259 E17.83909
G1 X102.676 Y168.941 E17.84967
G1 X102.675 Y164.242 E18.00596
G1 X102.638 Y161.639 E18.09254
G1 X102.63 Y161.428 E18.09957
G1 X102.579 Y159.691 E18.15736
G1 X102.575 Y159.392 E18.16731
G1 X102.576 Y140.841 E18.78432
G1 X102.589 Y139.99 E18.81263
G1 X102.666 Y137.279 E18.90283
G1 X102.675 Y135.965 E18.94654
G1 X102.676 Y131.315 E19.1012
G1 X102.687 Y130.553 E19.12654
G1 X102.76 Y129.474 E19.16251
G1 X102.802 Y129.127 E19.17414
G1 X102.95 Y128.236 E19.20418
G1 X103.076 Y127.712 E19.2221
G1 X103.128 Y127.518 E19.22878
G1 X103.455 Y126.511 E19.264
G1 X103.527 Y126.323 E19.27069
G1 X104.082 Y125.116 E19.31488
G1 X104.2 Y124.898 E19.32312
G1 X104.664 Y124.123 E19.35317
G1 X104.99 Y123.659 E19.37203
G1 X105.177 Y123.408 E19.38244
G1 X105.749 Y122.708 E19.41251
G1 X106.096 Y122.338 E19.42938
G1 X106.244 Y122.188 E19.43639
G1 X107.033 Y121.468 E19.47191
G1 F2400 E11.97191
G0 F6000 X112.214 Y138.682
G0 X116.575 Y143.613
G0 X116.575 Y144.078
G1 F2400 E19.47191
G1 F1200 X132.825 Y144.078 E20.01239
G1 X132.825 Y155.922 E20.40632
G1 X116.575 Y155.922 E20.9468
G1 X116.575 Y144.078 E21.34073
G0 F6000 X116.175 Y143.678
G1 F1200 X133.225 Y143.678 E21.90782
G1 X133.225 Y156.322 E22.32836
G1 X116.175 Y156.322 E22.89544
G1 X116.175 Y143.678 E23.31599
G0 F6000 X115.775 Y143.278
G1 F1200 X133.625 Y143.278 E23.90968
G1 X133.625 Y156.722 E24.35683
G1 X115.775 Y156.722 E24.95052
G1 X115.775 Y143.278 E25.39767
G0 F6000 X115.375 Y142.878
G1 F1200 X134.025 Y142.878 E26.01797
G1 X134.025 Y157.122 E26.49173
G1 X115.375 Y157.122 E27.11203
G1 X115.375 Y142.878 E27.58579
G0 F6000 X114.975 Y142.478
G1 F1200 X134.425 Y142.478 E28.2327
G1 X134.425 Y157.522 E28.73306
G1 X114.975 Y157.522 E29.37997
G1 X114.975 Y142.478 E29.88034
G0 F6000 X114.575 Y142.078
G1 F1200 X134.825 Y142.078 E30.55386
G1 X134.825 Y157.922 E31.08083
