;FLAVOR:Marlin
;TIME:596
;Filament used: 0.437378m
;Layer height: 0.2
;MINX:126.836
;MINY:140.836
;MINZ:0.24
;MAXX:173.164
;MAXY:159.165
;MAXZ:3.93
;Generated with Cura_SteamEngine 4.12.0
M140 S60
M105
M190 S60
M104 S200
M105
M109 S200
M82 ;absolute extrusion mode
M201 X500.00 Y500.00 Z100.00 E5000.00 ;Setup machine max acceleration
M203 X500.00 Y500.00 Z10.00 E50.00 ;Setup machine max feedrate
M204 P500.00 R1000.00 T500.00 ;Setup Print/Retract/Travel acceleration
M205 X8.00 Y8.00 Z0.40 E5.00 ;Setup Jerk
M220 S100 ;Reset Feedrate
M221 S100 ;Reset Flowrate

G28 ;Home

G92 E0 ;Reset Extruder
G1 Z2.0 F3000 ;Move Z Axis up
G1 X10.1 Y20 Z0.28 F5000.0 ;Move to start position
G1 X10.1 Y200.0 Z0.28 F1500.0 E15 ;Draw the first line
G1 X10.4 Y200.0 Z0.28 F5000.0 ;Move to side a little
G1 X10.4 Y20 Z0.28 F1500.0 E30 ;Draw the second line
G92 E0 ;Reset Extruder
G1 Z2.0 F3000 ;Move Z Axis up

G92 E0
G92 E0
G1 F2700 E-7
;LAYER_COUNT:14
;LAYER:-6
M107
G0 F9000 X129.409 Y143.209 Z0.24
;TYPE:SUPPORT-INTERFACE
G1 F2700 E0
G1 F1350 X129.704 Y142.95 E0.03134
G1 X129.919 Y142.783 E0.05307
G1 X130.15 Y142.627 E0.07532
G1 X130.418 Y142.469 E0.10015
G1 X130.675 Y142.339 E0.12314
G1 X130.945 Y142.223 E0.1466
G1 X131.201 Y142.131 E0.16831
G1 X131.493 Y142.047 E0.19257
G1 X131.754 Y141.991 E0.21388
G1 X132.074 Y141.943 E0.23971
G1 X132.542 Y141.907 E0.27717
G1 X132.734 Y141.9 E0.29251
G1 X139.807 Y141.9 E0.85711
G1 X139.933 Y141.904 E0.86717
G1 X140.31 Y141.928 E0.89733
G1 X140.608 Y141.965 E0.9213
G1 X140.892 Y142.02 E0.94439
G1 X141.183 Y142.096 E0.9684
G1 X141.441 Y142.18 E0.99005
G1 X141.72 Y142.291 E1.01402
G1 X141.978 Y142.413 E1.0368
G1 X142.236 Y142.556 E1.06035
G1 X142.464 Y142.702 E1.08196
G1 X142.652 Y142.842 E1.10067
G1 X143.214 Y143.206 E1.15412
G1 X143.829 Y143.503 E1.20864
G1 X144.477 Y143.719 E1.26316
G1 X145.147 Y143.853 E1.3177
G1 X145.85 Y143.9 E1.37395
G1 X154.145 Y143.9 E2.03609
G1 X154.813 Y143.858 E2.08952
G1 X155.484 Y143.729 E2.14406
G1 X156.133 Y143.516 E2.19858
G1 X156.753 Y143.222 E2.25336
G1 X156.947 Y143.104 E2.27148
G1 X157.65 Y142.627 E2.3393
G1 X157.918 Y142.469 E2.36413
G1 X158.175 Y142.339 E2.38712
G1 X158.445 Y142.223 E2.41058
G1 X158.701 Y142.131 E2.43229
G1 X158.993 Y142.047 E2.45655
G1 X159.254 Y141.991 E2.47786
G1 X159.574 Y141.943 E2.50369
G1 X160.042 Y141.907 E2.54115
G1 X160.234 Y141.9 E2.55649
G1 X167.307 Y141.9 E3.12109
G1 X167.433 Y141.904 E3.13115
G1 X167.81 Y141.928 E3.16131
G1 X168.108 Y141.965 E3.18528
G1 X168.392 Y142.02 E3.20837
G1 X168.683 Y142.096 E3.23238
G1 X168.941 Y142.18 E3.25403
G1 X169.22 Y142.291 E3.278
G1 X169.478 Y142.413 E3.30078
G1 X169.737 Y142.557 E3.32444
G1 X169.956 Y142.696 E3.34514
G1 X170.222 Y142.894 E3.37161
G1 X170.576 Y143.198 E3.40886
G1 X170.79 Y143.408 E3.4328
G1 X171.05 Y143.704 E3.46424
G1 X171.217 Y143.919 E3.48598
G1 X171.373 Y144.15 E3.50823
G1 X171.531 Y144.418 E3.53306
G1 X171.663 Y144.677 E3.55626
G1 X171.766 Y144.916 E3.57704
G1 X171.871 Y145.208 E3.60181
G1 X171.952 Y145.49 E3.62523
G1 X172.008 Y145.744 E3.64599
G1 X172.057 Y146.074 E3.67262
G1 X172.093 Y146.535 E3.70953
G1 X172.1 Y146.72 E3.72431
G1 X172.1 Y153.307 E4.25011
G1 X172.096 Y153.433 E4.26018
G1 X172.072 Y153.81 E4.29033
G1 X172.035 Y154.108 E4.3143
G1 X171.98 Y154.392 E4.33739
G1 X171.904 Y154.683 E4.3614
G1 X171.82 Y154.941 E4.38306
G1 X171.709 Y155.22 E4.40703
G1 X171.587 Y155.478 E4.42981
G1 X171.443 Y155.737 E4.45347
G1 X171.304 Y155.956 E4.47417
G1 X171.106 Y156.222 E4.50064
G1 X170.802 Y156.576 E4.53789
G1 X170.591 Y156.791 E4.56193
G1 X170.298 Y157.048 E4.59305
G1 X170.081 Y157.217 E4.615
G1 X169.85 Y157.373 E4.63725
G1 X169.582 Y157.531 E4.66209
G1 X169.325 Y157.661 E4.68508
G1 X169.056 Y157.776 E4.70843
G1 X168.799 Y157.869 E4.73024
G1 X168.507 Y157.953 E4.7545
G1 X168.246 Y158.009 E4.77581
G1 X167.926 Y158.057 E4.80164
G1 X167.458 Y158.093 E4.8391
G1 X167.266 Y158.1 E4.85444
G1 X132.693 Y158.1 E7.61421
G1 X132.567 Y158.096 E7.62427
G1 X132.19 Y158.072 E7.65443
G1 X131.892 Y158.035 E7.6784
G1 X131.608 Y157.98 E7.70149
G1 X131.317 Y157.904 E7.72549
G1 X131.057 Y157.819 E7.74733
G1 X130.78 Y157.709 E7.77112
G1 X130.521 Y157.586 E7.79401
G1 X130.263 Y157.443 E7.81756
G1 X130.044 Y157.304 E7.83826
G1 X129.778 Y157.106 E7.86473
G1 X129.424 Y156.802 E7.90198
G1 X129.209 Y156.591 E7.92602
G1 X128.95 Y156.296 E7.95736
G1 X128.783 Y156.081 E7.97909
G1 X128.624 Y155.845 E8.00181
G1 X128.469 Y155.582 E8.02618
G1 X128.339 Y155.325 E8.04917
G1 X128.223 Y155.055 E8.07262
G1 X128.131 Y154.799 E8.09434
G1 X128.047 Y154.507 E8.11859
G1 X127.991 Y154.246 E8.1399
G1 X127.943 Y153.926 E8.16573
G1 X127.906 Y153.448 E8.204
G1 X127.9 Y153.28 E8.21742
G1 X127.9 Y146.693 E8.74322
G1 X127.904 Y146.567 E8.75328
G1 X127.928 Y146.19 E8.78344
G1 X127.965 Y145.892 E8.80741
G1 X128.02 Y145.608 E8.8305
G1 X128.096 Y145.317 E8.85451
G1 X128.18 Y145.059 E8.87617
G1 X128.291 Y144.78 E8.90014
G1 X128.413 Y144.522 E8.92292
G1 X128.552 Y144.272 E8.94575
G1 X128.704 Y144.034 E8.96829
G1 X128.894 Y143.778 E8.99374
G1 X129.198 Y143.424 E9.03099
G1 X129.409 Y143.209 E9.05503
G0 F9000 X129.6 Y143.041
G1 F1350 X129.6 Y156.953 E10.16555
G0 F9000 X131.2 Y157.865
G1 F1350 X131.2 Y142.131 E11.42151
G0 F9000 X132.8 Y141.9
G1 F1350 X132.8 Y158.1 E12.71466
G0 F9000 X134.4 Y158.1
G1 F1350 X134.4 Y141.9 E14.00781
G0 F9000 X136 Y141.9
G1 F1350 X136 Y158.1 E15.30097
G0 F9000 X137.6 Y158.1
G1 F1350 X137.6 Y141.9 E16.59412
G0 F9000 X139.2 Y141.9
G1 F1350 X139.2 Y158.1 E17.88728
G0 F9000 X140.8 Y158.1
G1 F1350 X140.8 Y142.003 E19.17221
G0 F9000 X142.4 Y142.662
G1 F1350 X142.4 Y158.1 E20.40454
G0 F9000 X144 Y158.1
G1 F1350 X144 Y143.56 E21.56518
G0 F9000 X145.6 Y143.884
G1 F1350 X145.6 Y158.1 E22.69997
G0 F9000 X147.2 Y158.1
G1 F1350 X147.2 Y143.9 E23.83347
G0 F9000 X148.8 Y143.9
G1 F1350 X148.8 Y158.1 E24.96698
G0 F9000 X150.4 Y158.1
G1 F1350 X150.4 Y143.9 E26.10048
G0 F9000 X152 Y143.9
G1 F1350 X152 Y158.1 E27.23399
G0 F9000 X153.6 Y158.1
G1 F1350 X153.6 Y143.9 E28.36749
G0 F9000 X155.2 Y143.783
G1 F1350 X155.2 Y158.1 E29.51034
G0 F9000 X156.8 Y158.1
G1 F1350 X156.8 Y143.193 E30.70028
G0 F9000 X158.4 Y142.242
G1 F1350 X158.4 Y158.1 E31.96613
G0 F9000 X160 Y158.1
G1 F1350 X160 Y141.91 E33.25849
G0 F9000 X161.6 Y141.9
G1 F1350 X161.6 Y158.1 E34.55164
G0 F9000 X163.2 Y158.1
G1 F1350 X163.2 Y141.9 E35.8448
G0 F9000 X164.8 Y141.9
G1 F1350 X164.8 Y158.1 E37.13795
G0 F9000 X166.4 Y158.1
G1 F1350 X166.4 Y141.9 E38.4311
G0 F9000 X168 Y141.952
G1 F1350 X168 Y158.046 E39.7158
G0 F9000 X169.6 Y157.521
G1 F1350 X169.6 Y142.481 E40.91636
G0 F9000 X171.2 Y143.898
G1 F1350 X171.2 Y156.096 E41.89005
G1 F2700 E34.89005
G0 F9000 X171.934 Y156.892
G0 X171.3 Y157.585
G0 X170.408 Y158.28
G0 X169.455 Y158.764
G0 X168.435 Y159.058
G0 X167.291 Y159.164
G0 X132.088 Y159.132
G0 X131.021 Y158.927
G0 X130.024 Y158.528
G0 X129.108 Y157.934
G0 X128.415 Y157.3
G0 X127.718 Y156.405
G0 X127.285 Y155.55
G0 X126.96 Y154.514
G0 X128 Y154.287
G1 F2700 E41.89005
G1 F1350 X128 Y145.711 E42.57463
G1 F2700 E35.57463
G0 F300 X128 Y145.711 Z0.54
G0 F9000 X126.868 Y146.088
G0 X126.844 Y153.516
G0 X126.94 Y154.227
G0 X127.113 Y155.113
G0 X128.251 Y155.121
;TIME_ELAPSED:33.446589
;LAYER:-5
;TYPE:SUPPORT
G1 F2700 E42.57463
G1 F1350 X130.876 Y157.746 E42.94504
G1 X130.78 Y157.708 E42.95534
G1 X130.521 Y157.585 E42.98395
G1 X130.262 Y157.442 E43.01347
G1 X130.044 Y157.302 E43.03932
G1 X129.778 Y157.104 E43.07241
G1 X129.423 Y156.801 E43.11898
G1 X129.296 Y156.684 E43.13621
G1 X129.209 Y156.59 E43.14899
G1 X128.95 Y156.295 E43.18816
G1 X128.783 Y156.08 E43.21533
G1 X128.623 Y155.844 E43.24378
G1 X128.469 Y155.581 E43.27419
G1 X128.339 Y155.323 E43.30301
G1 F2700 E36.30301
G0 F9000 X127.535 Y156.094
G0 X128.137 Y156.983
G0 X128.722 Y157.602
G0 X129.533 Y158.217
G0 X130.024 Y158.528
G0 X130.876 Y157.746
G1 F2700 E43.30301
G1 F1350 X131.057 Y157.818 E43.32245
G1 X131.317 Y157.903 E43.34974
G1 X131.608 Y157.978 E43.37973
G1 X131.892 Y158.034 E43.40861
G1 X132.19 Y158.071 E43.43858
G1 X132.566 Y158.094 E43.47616
G1 X132.641 Y158.097 E43.48365
G1 X127.902 Y153.358 E44.15238
G1 X127.9 Y153.279 E44.16026
G1 X127.9 Y151.941 E44.29377
G1 X134.057 Y158.099 E45.16266
G1 X135.471 Y158.099 E45.30375
G1 X127.9 Y150.527 E46.37217
G1 X127.9 Y149.113 E46.51326
G1 X136.885 Y158.099 E47.78121
G1 X138.3 Y158.099 E47.9224
G1 X127.9 Y147.699 E49.38995
G1 X127.9 Y146.692 E49.49043
G1 X127.904 Y146.566 E49.50301
G1 X127.919 Y146.304 E49.52919
G1 X139.714 Y158.099 E51.19359
G1 X141.128 Y158.099 E51.33468
G1 X128.157 Y145.128 E53.16503
G1 X128.18 Y145.058 E53.17238
G1 X128.291 Y144.779 E53.20235
G1 X128.413 Y144.521 E53.23082
G1 X128.552 Y144.27 E53.25945
G1 X128.614 Y144.171 E53.27111
G1 X142.542 Y158.099 E55.2365
G1 X143.957 Y158.099 E55.37769
G1 X129.237 Y143.379 E57.45484
G1 X129.314 Y143.295 E57.46621
G1 X129.409 Y143.208 E57.47906
G1 X129.703 Y142.949 E57.51816
G1 X129.918 Y142.782 E57.54532
G1 X130 Y142.728 E57.55512
G1 X145.371 Y158.099 E59.72413
G1 X146.785 Y158.099 E59.86522
G1 X130.919 Y142.233 E62.10408
G1 X130.944 Y142.221 E62.10685
G1 X131.2 Y142.129 E62.13399
G1 X131.492 Y142.045 E62.16431
G1 X131.753 Y141.989 E62.19095
G1 X132.047 Y141.946 E62.2206
G1 X148.199 Y158.099 E64.49989
G1 X149.613 Y158.099 E64.64098
G1 X133.414 Y141.899 E66.9269
G1 X134.828 Y141.899 E67.06799
G1 X151.028 Y158.099 E69.35399
G1 X152.442 Y158.099 E69.49508
G1 X136.242 Y141.899 E71.78107
G1 X137.656 Y141.899 E71.92216
G1 X153.856 Y158.099 E74.20815
G1 X155.27 Y158.099 E74.34924
G1 X139.07 Y141.899 E76.63524
G1 X139.807 Y141.898 E76.70878
G1 X139.932 Y141.902 E76.72126
G1 X140.309 Y141.927 E76.75896
G1 X140.542 Y141.956 E76.78238
G1 X156.684 Y158.099 E79.06027
G1 X158.099 Y158.099 E79.20146
G1 X143.193 Y143.193 E81.30485
G1 X143.213 Y143.206 E81.30723
G1 X143.828 Y143.503 E81.37538
G1 X144.476 Y143.719 E81.44353
G1 X145.145 Y143.853 E81.51161
G1 X145.276 Y143.862 E81.52472
G1 X159.513 Y158.099 E83.53371
G1 X160.927 Y158.099 E83.6748
G1 X146.728 Y143.9 E85.67843
G1 X148.143 Y143.9 E85.81962
G1 X162.341 Y158.099 E87.82318
G1 X163.756 Y158.099 E87.96437
G1 X149.557 Y143.9 E89.968
G1 X150.971 Y143.9 E90.10909
G1 X165.17 Y158.099 E92.11273
G1 X166.584 Y158.099 E92.25382
G1 X152.385 Y143.9 E94.25745
G1 X153.799 Y143.9 E94.39854
G1 X167.952 Y158.052 E96.39561
G1 X168.245 Y158.009 E96.42516
G1 X168.506 Y157.953 E96.45179
G1 X168.798 Y157.869 E96.48211
G1 X169.055 Y157.776 E96.50938
G1 X169.079 Y157.765 E96.51201
G1 X155.113 Y143.8 E98.4827
G1 X155.483 Y143.728 E98.52031
G1 X156.132 Y143.515 E98.58846
G1 X156.208 Y143.48 E98.59681
G1 X169.999 Y157.271 E100.54287
G1 X170.08 Y157.216 E100.55264
G1 X170.297 Y157.047 E100.58009
G1 X170.59 Y156.791 E100.61891
G1 X170.684 Y156.703 E100.63176
G1 X170.762 Y156.619 E100.64319
G1 X157.125 Y142.983 E102.56745
G1 X157.648 Y142.626 E102.63064
G1 X157.917 Y142.468 E102.66176
G1 X157.989 Y142.433 E102.66975
G1 X171.385 Y155.828 E104.56
G1 X171.442 Y155.737 E104.57072
G1 X171.585 Y155.477 E104.60032
G1 X171.708 Y155.219 E104.62884
G1 X171.819 Y154.94 E104.6588
G1 X171.841 Y154.871 E104.66603
G1 X159.013 Y142.042 E106.47627
G1 X159.253 Y141.991 E106.50075
G1 X159.572 Y141.943 E106.53294
G1 X160.041 Y141.907 E106.57988
G1 X160.233 Y141.9 E106.59905
G1 X160.284 Y141.9 E106.60413
G1 X172.079 Y153.694 E108.26847
G1 X172.094 Y153.432 E108.29465
G1 X172.099 Y153.307 E108.30713
G1 X172.099 Y152.3 E108.40761
G1 X161.699 Y141.9 E109.87517
G1 X163.113 Y141.9 E110.01625
G1 X172.099 Y150.885 E111.28421
G1 X172.099 Y149.471 E111.4253
G1 X164.527 Y141.9 E112.49372
G1 X165.941 Y141.9 E112.63481
G1 X172.099 Y148.057 E113.5037
G1 X172.099 Y146.719 E113.6372
G1 X172.097 Y146.641 E113.64499
G1 X167.358 Y141.902 E114.31371
G1 X167.432 Y141.904 E114.3211
G1 X167.809 Y141.927 E114.35878
G1 X168.106 Y141.965 E114.38866
G1 X168.391 Y142.02 E114.41762
G1 X168.681 Y142.095 E114.44751
G1 X168.939 Y142.18 E114.47462
G1 X169.122 Y142.252 E114.49424
G1 X171.749 Y144.879 E114.86494
G0 F9000 X171.662 Y144.677
G1 F1350 X171.529 Y144.418 E114.89399
G1 X171.372 Y144.15 E114.92498
G1 X171.216 Y143.918 E114.95288
G1 X171.049 Y143.703 E114.98004
G1 X170.788 Y143.408 E115.01934
G1 X170.702 Y143.314 E115.03205
G1 X170.575 Y143.197 E115.04928
G1 X170.221 Y142.894 E115.09578
G1 X169.955 Y142.696 E115.12887
G1 X169.736 Y142.556 E115.1548
G1 X169.477 Y142.413 E115.18432
G1 X169.219 Y142.291 E115.2128
G1 X169.122 Y142.252 E115.22323
G0 F300 X169.122 Y142.252 Z0.74
G0 F9000 X169.031 Y142
;TIME_ELAPSED:68.330412
;LAYER:-4
;TYPE:SUPPORT-INTERFACE
G1 F1800 X158.475 Y142 E115.57432
G1 X158.655 Y141.935 E115.58069
G1 X158.94 Y141.854 E115.59054
G1 X159.214 Y141.794 E115.59987
G1 X159.556 Y141.743 E115.61137
G1 X160.028 Y141.707 E115.62712
G1 X160.227 Y141.7 E115.63374
G1 X167.314 Y141.7 E115.86946
G1 X167.433 Y141.704 E115.87342
G1 X167.837 Y141.729 E115.88688
G1 X168.14 Y141.767 E115.89703
G1 X168.435 Y141.824 E115.90703
G1 X168.73 Y141.901 E115.91717
G1 X169.015 Y141.994 E115.92714
G1 F2700 E108.92714
G0 F9000 X168.979 Y141.073
G0 X167.912 Y140.868
G0 X159.984 Y140.844
G0 X159.273 Y140.94
G0 X158.387 Y141.113
G0 X158.367 Y142.039
G1 F2700 E115.92714
G1 F1800 X158.082 Y142.161 E115.93745
G1 X157.827 Y142.29 E115.94696
G1 X157.641 Y142.4 E115.95414
G1 X169.863 Y142.4 E116.36065
G1 X170.081 Y142.539 E116.36925
G1 X170.347 Y142.737 E116.38028
G1 X170.421 Y142.8 E116.38351
G1 X157.04 Y142.8 E116.82856
G1 X157.001 Y142.826 E116.83012
G1 X156.998 Y142.821 E116.83032
G1 X156.654 Y143.048 E116.84402
G1 X156.333 Y143.2 E116.85584
G1 X170.87 Y143.2 E117.33934
G1 X170.944 Y143.28 E117.34296
G1 X171.193 Y143.563 E117.3555
G1 X171.222 Y143.6 E117.35706
G1 X155.096 Y143.6 E117.89342
G0 F9000 X154.788 Y143.659
G1 F1800 X154.138 Y143.7 E117.91508
G1 X145.856 Y143.7 E118.19054
G1 X145.174 Y143.655 E118.21327
G1 X144.899 Y143.6 E118.2226
G1 X128.782 Y143.6 E118.75865
G1 X128.745 Y143.642 E118.76052
G1 X128.534 Y143.926 E118.77228
G1 X128.487 Y144 E118.7752
G1 X171.513 Y144 E120.20625
G1 X171.552 Y144.059 E120.2086
G1 X171.71 Y144.327 E120.21895
G1 X171.747 Y144.4 E120.22167
G1 X128.251 Y144.4 E121.66835
G1 X128.243 Y144.414 E121.66889
G1 X128.099 Y144.718 E121.68008
G1 X128.067 Y144.8 E121.68301
G1 X171.934 Y144.8 E123.14203
G1 X171.959 Y144.86 E123.14419
G1 X172.062 Y145.146 E123.1543
G1 X172.078 Y145.2 E123.15617
G1 X127.923 Y145.2 E124.62478
G1 X127.9 Y145.27 E124.62723
G1 X127.824 Y145.559 E124.63717
G1 X127.817 Y145.6 E124.63855
G1 X172.182 Y145.6 E126.11413
G1 X172.204 Y145.702 E126.11761
G1 X172.249 Y146 E126.12763
G1 X127.749 Y146 E127.60771
G1 X127.728 Y146.163 E127.61317
G1 X127.714 Y146.4 E127.62107
G1 X172.284 Y146.4 E129.10347
G1 X172.293 Y146.528 E129.10774
G1 X172.3 Y146.72 E129.11413
G1 X172.3 Y146.8 E129.11679
G1 X127.699 Y146.8 E130.60023
G1 X127.699 Y147.2 E130.61353
G1 X172.3 Y147.2 E132.09697
G1 X172.3 Y147.6 E132.11027
G1 X127.699 Y147.6 E133.5937
G1 X127.699 Y148 E133.60701
G1 X172.3 Y148 E135.09044
G1 X172.3 Y148.4 E135.10375
G1 X127.699 Y148.4 E136.58718
G1 X127.699 Y148.8 E136.60049
G1 X172.3 Y148.8 E138.08392
G1 X172.3 Y149.2 E138.09723
G1 X127.699 Y149.2 E139.58066
G1 X127.699 Y149.6 E139.59397
G1 X172.3 Y149.6 E141.0774
G1 X172.3 Y150 E141.09071
G1 X127.699 Y150 E142.57414
G1 X127.699 Y150.4 E142.58744
G1 X172.3 Y150.4 E144.07088
G1 X172.3 Y150.8 E144.08418
G1 X127.699 Y150.8 E145.56762
G1 X127.699 Y151.2 E145.58092
G1 X172.3 Y151.2 E147.06436
G1 X172.3 Y151.6 E147.07766
G1 X127.699 Y151.6 E148.5611
G1 X127.699 Y152 E148.5744
G1 X172.3 Y152 E150.05784
G1 X172.3 Y152.4 E150.07114
G1 X127.699 Y152.4 E151.55458
G1 X127.699 Y152.8 E151.56788
G1 X172.3 Y152.8 E153.05132
G1 X172.3 Y153.2 E153.06462
G1 X127.699 Y153.2 E154.54806
G1 X127.699 Y153.28 E154.55072
G1 X127.706 Y153.472 E154.55711
G1 X127.715 Y153.6 E154.56137
G1 X172.285 Y153.6 E156.04378
G1 X172.271 Y153.837 E156.05167
G1 X172.25 Y154 E156.05714
G1 X127.75 Y154 E157.53722
G1 X127.793 Y154.285 E157.5468
G1 X127.817 Y154.4 E157.55071
G1 X172.182 Y154.4 E159.0263
G1 X172.176 Y154.435 E159.02748
G1 X172.099 Y154.73 E159.03762
G1 X172.076 Y154.8 E159.04007
