;FLAVOR:Marlin
;TIME:10724
;Filament used: 2.98774m
;Layer height: 0.12
;MINX:133.512
;MINY:123.335
;MINZ:0.144
;MAXX:166.487
;MAXY:176.667
;MAXZ:21.714
;Generated with Cura_SteamEngine 4.12.0
M140 S55
M105
M190 S55
M104 S205
M105
M109 S205
M82 ;absolute extrusion mode
M201 X500.00 Y500.00 Z100.00 E5000.00 ;Setup machine max acceleration
M203 X500.00 Y500.00 Z10.00 E50.00 ;Setup machine max feedrate
M204 P500.00 R1000.00 T500.00 ;Setup Print/Retract/Travel acceleration
M205 X8.00 Y8.00 Z0.40 E5.00 ;Setup Jerk
M220 S100 ;Reset Feedrate
M221 S100 ;Reset Flowrate

G28 ;Home

G92 E0 ;Reset Extruder
G1 Z2.0 F3000 ;Move Z Axis up
G1 X10.1 Y20 Z0.28 F5000.0 ;Move to start position
G1 X10.1 Y200.0 Z0.28 F1500.0 E15 ;Draw the first line
G1 X10.4 Y200.0 Z0.28 F5000.0 ;Move to side a little
G1 X10.4 Y20 Z0.28 F1500.0 E30 ;Draw the second line
G92 E0 ;Reset Extruder
G1 Z2.0 F3000 ;Move Z Axis up

G92 E0
G92 E0
G1 F2700 E-5
;LAYER_COUNT:175
;LAYER:-6
M107
G0 F9000 X136.12 Y126.041 Z0.144
;TYPE:SUPPORT-INTERFACE
G1 F2700 E0
G1 F1125 X136.501 Y125.706 E0.0243
G1 X136.867 Y125.426 E0.04637
G1 X137.308 Y125.134 E0.0717
G1 X137.721 Y124.933 E0.0937
G1 X138.165 Y124.749 E0.11672
G1 X138.581 Y124.604 E0.13782
G1 X139.143 Y124.491 E0.16527
G1 X139.632 Y124.429 E0.18888
G1 X139.996 Y124.404 E0.20636
G1 X140.126 Y124.4 E0.21259
G1 X141.175 Y124.4 E0.26283
G1 X141.689 Y124.435 E0.2875
G1 X141.742 Y124.442 E0.29006
G1 X142.197 Y124.54 E0.31235
G1 X142.237 Y124.552 E0.31435
G1 X142.664 Y124.709 E0.33614
G1 X142.717 Y124.733 E0.33893
G1 X143.118 Y124.95 E0.36077
G1 X143.162 Y124.978 E0.36327
G1 X143.534 Y125.252 E0.38539
G1 X143.561 Y125.274 E0.38706
G1 X143.77 Y125.469 E0.40075
G1 X143.867 Y125.566 E0.40732
G1 X144.194 Y125.942 E0.43119
G1 X144.215 Y125.97 E0.43287
G1 X144.476 Y126.374 E0.4559
G1 X144.491 Y126.401 E0.45738
G1 X144.708 Y126.875 E0.48235
G1 X144.74 Y126.939 E0.48578
G1 X144.948 Y127.241 E0.50334
G1 X145.256 Y127.491 E0.52234
G1 X145.621 Y127.646 E0.54133
G1 X146.014 Y127.692 E0.56028
G1 X146.405 Y127.626 E0.57927
G1 X146.761 Y127.453 E0.59823
G1 X147.062 Y127.183 E0.6176
G1 X147.288 Y126.786 E0.63948
G1 X147.378 Y126.541 E0.65198
G1 X147.586 Y126.14 E0.67361
G1 X147.618 Y126.09 E0.67646
G1 X147.882 Y125.721 E0.69819
G1 X147.908 Y125.69 E0.70012
G1 X148.237 Y125.346 E0.72292
G1 X148.263 Y125.323 E0.72458
G1 X148.627 Y125.035 E0.74681
G1 X148.672 Y125.005 E0.7494
G1 X149.073 Y124.774 E0.77157
G1 X149.099 Y124.761 E0.77296
G1 X149.553 Y124.578 E0.79641
G1 X150.023 Y124.46 E0.81961
G1 X150.072 Y124.453 E0.82199
G1 X150.69 Y124.4 E0.85169
G1 X160.237 Y124.395 E1.30894
G1 X160.743 Y124.429 E1.33323
G1 X160.817 Y124.439 E1.33681
G1 X161.257 Y124.533 E1.35836
G1 X161.301 Y124.546 E1.36056
G1 X161.69 Y124.685 E1.38034
G1 X162.287 Y124.936 E1.41136
G1 X162.74 Y125.163 E1.43563
G1 X163.119 Y125.418 E1.4575
G1 X163.516 Y125.722 E1.48145
G1 X163.887 Y126.048 E1.50511
G1 X164.209 Y126.413 E1.52842
G1 X164.5 Y126.792 E1.5513
G1 X164.829 Y127.301 E1.58033
G1 X164.998 Y127.659 E1.59929
G1 X165.18 Y128.103 E1.62227
G1 X165.333 Y128.553 E1.64504
G1 X165.429 Y129.035 E1.66858
G1 X165.497 Y129.554 E1.69365
G1 X165.525 Y130.003 E1.71519
G1 X165.524 Y170.01 E3.63131
G1 X165.492 Y170.491 E3.6544
G1 X165.435 Y170.927 E3.67546
G1 X165.425 Y170.987 E3.67837
G1 X165.329 Y171.462 E3.70158
G1 X165.184 Y171.887 E3.72309
G1 X164.991 Y172.356 E3.74738
G1 X164.729 Y172.871 E3.77506
G1 X164.717 Y172.892 E3.77621
G1 X164.485 Y173.23 E3.79585
G1 X164.197 Y173.6 E3.8183
G1 X164.036 Y173.792 E3.83031
G1 X164.008 Y173.822 E3.83227
G1 X163.504 Y174.289 E3.86518
G1 X163.137 Y174.571 E3.88735
G1 X162.72 Y174.849 E3.91135
G1 X162.281 Y175.067 E3.93483
G1 X161.844 Y175.248 E3.95748
G1 X161.432 Y175.391 E3.97837
G1 X161.388 Y175.402 E3.98054
G1 X160.877 Y175.506 E4.00552
G1 X160.387 Y175.57 E4.02918
G1 X160.227 Y175.586 E4.03688
G1 X159.885 Y175.6 E4.05328
G1 X151.254 Y175.6 E4.46666
G1 X139.982 Y175.606 E5.00652
G1 X139.463 Y175.57 E5.03144
G1 X139.195 Y175.52 E5.0445
G1 X139.14 Y175.511 E5.04717
G1 X138.435 Y175.351 E5.08179
G1 X138.411 Y175.344 E5.08299
G1 X138.146 Y175.245 E5.09654
G1 X137.708 Y175.062 E5.11927
G1 X137.228 Y174.82 E5.14502
G1 X136.838 Y174.555 E5.1676
G1 X136.472 Y174.271 E5.18979
G1 X136.216 Y174.052 E5.20593
G1 X135.793 Y173.588 E5.236
G1 X135.497 Y173.201 E5.25933
G1 X135.169 Y172.694 E5.28825
G1 X135.006 Y172.35 E5.30649
G1 X134.834 Y171.936 E5.32796
G1 X134.649 Y171.377 E5.35616
G1 X134.57 Y170.957 E5.37663
G1 X134.493 Y170.354 E5.40574
G1 X134.475 Y169.972 E5.42406
G1 X134.479 Y138.71 E6.92134
G1 X134.48 Y138.675 E6.92302
G1 X134.504 Y138.35 E6.93862
G1 X134.493 Y138.078 E6.95166
G1 X134.486 Y138.023 E6.95432
G1 X134.475 Y137.732 E6.96826
G1 X134.476 Y130.003 E7.33844
G1 X134.488 Y129.702 E7.35287
G1 X134.506 Y129.529 E7.3612
G1 X134.569 Y129.044 E7.38462
G1 X134.671 Y128.539 E7.4093
G1 X134.834 Y128.062 E7.43344
G1 X135.009 Y127.642 E7.45523
G1 X135.195 Y127.261 E7.47554
G1 X135.223 Y127.21 E7.47833
G1 X135.517 Y126.769 E7.50371
G1 X135.773 Y126.436 E7.52383
G1 X135.806 Y126.396 E7.52631
G1 X136.12 Y126.041 E7.54901
G1 F2700 E2.54901
G0 F9000 X135.422 Y125.237
G0 X148.56 Y132.392
G0 X147.805 Y131.627
G1 F2700 E7.54901
G1 F1125 X147.565 Y131.942 E7.56798
G1 X147.421 Y132.319 E7.58731
G1 X147.399 Y132.776 E7.60922
G1 X147.44 Y133.088 E7.62429
G1 X147.539 Y133.442 E7.6419
G1 X147.749 Y133.778 E7.66087
G1 X148.044 Y134.042 E7.67983
G1 X148.403 Y134.214 E7.6989
G1 X148.793 Y134.275 E7.71781
G1 X149.435 Y134.275 E7.74855
G1 X149.798 Y134.223 E7.76612
G1 X150.158 Y134.06 E7.78504
G1 X150.46 Y133.803 E7.80404
G1 X150.683 Y133.462 E7.82355
G1 X150.803 Y132.983 E7.8472
G1 X150.808 Y132.874 E7.85243
G1 X150.774 Y132.508 E7.87003
G1 X150.628 Y132.139 E7.88904
G1 X150.385 Y131.826 E7.90802
G1 X150.066 Y131.593 E7.92694
G1 X149.733 Y131.472 E7.94391
G1 X149.634 Y131.446 E7.94881
G1 X149.25 Y131.304 E7.96842
G1 X148.891 Y131.227 E7.986
G1 X148.496 Y131.254 E8.00497
G1 X148.124 Y131.392 E8.02397
G1 X147.805 Y131.627 E8.04295
G0 F9000 X148.8 Y131.234
G1 F1125 X148.8 Y124.931 E8.34482
G0 F9000 X150.4 Y124.424
G1 F1125 X150.4 Y131.845 E8.70025
G0 F9000 X150.4 Y133.854
G1 F1125 X150.4 Y175.601 E10.69971
G0 F9000 X148.8 Y175.602
G1 F1125 X148.8 Y134.275 E12.67905
G1 F2700 E7.67905
G0 F9000 X148.721 Y133.186
G0 X145.989 Y126.618
G0 X145.6 Y127.638
G1 F2700 E12.67905
G1 F1125 X145.6 Y175.604 E14.97636
G0 F9000 X144 Y175.604
G1 F1125 X144 Y125.719 E17.36558
G0 F9000 X142.4 Y124.612
G1 F1125 X142.4 Y175.605 E19.80787
G0 F9000 X140.8 Y175.606
G1 F1125 X140.8 Y124.4 E22.26036
G0 F9000 X139.2 Y124.483
G1 F1125 X139.2 Y175.52 E24.70476
G0 F9000 X137.6 Y175.007
G1 F1125 X137.6 Y124.991 E27.10025
G0 F9000 X136 Y126.176
G1 F1125 X136 Y173.815 E29.3819
G1 F2700 E24.3819
G0 F9000 X135.517 Y174.855
G0 X136.766 Y175.781
G0 X138.186 Y176.386
G0 X139.361 Y176.63
G0 X147.201 Y176.667
G0 X147.2 Y175.603
G1 F2700 E29.3819
G1 F1125 X147.2 Y126.94 E31.7126
G1 F2700 E26.7126
G0 F9000 X146.314 Y126.345
G0 X146.727 Y125.507
G0 X147.495 Y124.582
G0 X148.107 Y124.103
G0 X149.185 Y123.579
G0 X149.947 Y123.395
G0 X151.999 Y123.335
G0 X152 Y124.399
G1 F2700 E31.7126
G1 F1125 X152 Y175.6 E34.16485
G0 F9000 X153.6 Y175.6
G1 F1125 X153.6 Y124.398 E36.61715
G0 F9000 X155.2 Y124.397
G1 F1125 X155.2 Y175.6 E39.06949
G0 F9000 X156.8 Y175.6
G1 F1125 X156.8 Y124.396 E41.52189
G0 F9000 X158.4 Y124.395
G1 F1125 X158.4 Y175.6 E43.97433
G0 F9000 X160 Y175.596
G1 F1125 X160 Y124.395 E46.42658
G0 F9000 X161.6 Y124.653
G1 F1125 X161.6 Y175.333 E48.85388
G0 F9000 X163.2 Y174.523
G1 F1125 X163.2 Y125.481 E51.20273
G0 F9000 X164.8 Y127.257
G1 F1125 X164.8 Y172.732 E53.38073
G1 F2700 E48.38073
G0 F300 X164.8 Y172.732 Z0.324
G0 F9000 X165.605 Y173.48
G0 X164.766 Y174.57
G0 X163.76 Y175.435
G0 X162.704 Y176.044
G0 X161.628 Y176.44
G0 X160.276 Y176.649
G0 X139.881 Y176.667
G0 X138.933 Y176.556
G0 X137.75 Y176.233
G0 X136.636 Y175.705
G0 X135.438 Y174.779
G0 X134.608 Y173.787
G0 X134.28 Y173.211
G0 X133.852 Y172.344
G0 X134.833 Y171.935
;TIME_ELAPSED:70.113055
;LAYER:-5
;TYPE:SUPPORT
G1 F2700 E53.38073
G1 F1125 X135.005 Y172.349 E53.40757
G1 X135.169 Y172.693 E53.43039
G1 X135.497 Y173.2 E53.46654
G1 X135.792 Y173.587 E53.49567
G1 X136.215 Y174.051 E53.53326
G1 X136.472 Y174.27 E53.55348
G1 X136.838 Y174.554 E53.58121
G1 X137.228 Y174.819 E53.60944
G1 X137.707 Y175.061 E53.64157
G1 X138.146 Y175.243 E53.67002
G1 X138.411 Y175.343 E53.68698
G1 X138.435 Y175.35 E53.68848
G1 X138.623 Y175.392 E53.70001
G1 X134.669 Y171.439 E54.03474
G1 X134.649 Y171.376 E54.03869
G1 X134.57 Y170.956 E54.06428
G1 X134.493 Y170.353 E54.10067
G1 X134.474 Y169.971 E54.12357
G1 X134.474 Y169.83 E54.13201
G1 X140.248 Y175.604 E54.62088
G1 X141.662 Y175.603 E54.70553
G1 X134.474 Y168.415 E55.31411
G1 X134.474 Y167.001 E55.39877
G1 X143.075 Y175.602 E56.12698
G1 X144.489 Y175.602 E56.21164
G1 X134.474 Y165.587 E57.05957
G1 X134.475 Y164.173 E57.14423
G1 X145.902 Y175.601 E58.11175
G1 X147.316 Y175.6 E58.19641
G1 X134.475 Y162.759 E59.28361
G1 X134.475 Y161.345 E59.36826
G1 X148.73 Y175.6 E60.57518
G1 X150.143 Y175.599 E60.65978
G1 X134.475 Y159.931 E61.98633
G1 X134.476 Y158.517 E62.07098
G1 X151.557 Y175.599 E63.51722
G1 X152.971 Y175.599 E63.60187
G1 X134.476 Y157.103 E65.16782
G1 X134.476 Y155.689 E65.25247
G1 X154.386 Y175.599 E66.93818
G1 X155.8 Y175.599 E67.02283
G1 X134.476 Y154.275 E68.82826
G1 X134.476 Y152.861 E68.91292
G1 X157.214 Y175.599 E70.83806
G1 X158.628 Y175.599 E70.92272
G1 X134.476 Y151.447 E72.96758
G1 X134.476 Y150.033 E73.05224
G1 X160.036 Y175.592 E75.21627
G1 X160.226 Y175.585 E75.22765
G1 X160.386 Y175.569 E75.23728
G1 X160.876 Y175.505 E75.26686
G1 X161.28 Y175.422 E75.29155
G1 X134.477 Y148.619 E77.56087
G1 X134.477 Y147.205 E77.64552
G1 X162.319 Y175.047 E80.00281
G1 X162.72 Y174.848 E80.02961
G1 X163.136 Y174.57 E80.05956
G1 X163.204 Y174.518 E80.06469
G1 X134.477 Y145.791 E82.4969
G1 X134.477 Y144.377 E82.58156
G1 X163.962 Y173.862 E85.07795
G1 X164.007 Y173.82 E85.08163
G1 X164.036 Y173.791 E85.08409
G1 X164.197 Y173.598 E85.09913
G1 X164.485 Y173.229 E85.12716
G1 X164.59 Y173.075 E85.13832
G1 X134.478 Y142.963 E87.68779
G1 X134.478 Y141.549 E87.77245
G1 X165.076 Y172.147 E90.36307
G1 X165.184 Y171.886 E90.37998
G1 X165.329 Y171.461 E90.40687
G1 X165.409 Y171.066 E90.431
G1 X134.478 Y140.135 E93.04981
G1 X134.478 Y138.72 E93.13453
G1 X165.523 Y169.766 E95.76304
G1 X165.523 Y168.352 E95.84769
G1 X134.474 Y137.303 E98.4765
G1 X134.474 Y135.888 E98.56122
G1 X165.523 Y166.938 E101.19007
G1 X165.523 Y165.523 E101.27478
G1 X134.474 Y134.474 E103.90359
G1 X134.474 Y133.06 E103.98825
G1 X165.523 Y164.109 E106.61706
G1 X165.523 Y162.695 E106.70171
G1 X134.474 Y131.646 E109.33052
G1 X134.474 Y130.232 E109.41517
G1 X165.523 Y161.281 E112.04398
G1 X165.523 Y159.866 E112.1287
G1 X134.589 Y128.933 E114.74773
G1 X134.669 Y128.539 E114.7718
G1 X134.833 Y128.061 E114.80205
G1 X134.92 Y127.849 E114.81577
G1 X165.523 Y158.452 E117.40682
G1 X165.523 Y157.038 E117.49147
G1 X135.411 Y126.926 E120.04095
G1 X135.516 Y126.769 E120.05226
G1 X135.772 Y126.435 E120.07745
G1 X135.804 Y126.396 E120.08047
G1 X136.034 Y126.135 E120.1013
G1 X165.523 Y155.624 E122.59803
G1 X165.523 Y154.21 E122.68268
G1 X136.794 Y125.481 E125.11506
G1 X136.866 Y125.425 E125.12053
G1 X137.307 Y125.133 E125.15219
G1 X137.68 Y124.952 E125.17701
G1 X165.523 Y152.795 E127.53438
G1 X165.523 Y151.381 E127.61903
G1 X148.313 Y134.171 E129.07614
G1 X148.402 Y134.213 E129.08204
G1 X148.792 Y134.275 E129.10568
G1 X149.434 Y134.275 E129.14411
G1 X149.782 Y134.225 E129.16516
G1 X165.523 Y149.967 E130.49794
G1 X165.523 Y148.553 E130.58259
G1 X150.583 Y133.612 E131.84755
G1 X150.682 Y133.461 E131.85836
G1 X150.802 Y132.983 E131.88787
G1 X150.807 Y132.873 E131.89446
G1 X150.773 Y132.507 E131.91647
G1 X150.695 Y132.31 E131.92915
G1 X165.523 Y147.139 E133.18463
G1 X165.523 Y145.724 E133.26934
G1 X147.019 Y127.22 E134.83601
G1 X147.061 Y127.183 E134.83936
G1 X147.287 Y126.785 E134.86676
G1 X147.357 Y126.585 E134.87945
G1 X147.376 Y126.541 E134.88232
G1 X147.505 Y126.292 E134.89911
G1 X165.523 Y144.31 E136.42463
G1 X165.523 Y142.896 E136.50928
G1 X148.107 Y125.48 E137.98383
G1 X148.236 Y125.345 E137.99501
G1 X148.262 Y125.322 E137.99709
G1 X148.626 Y125.034 E138.02488
G1 X148.671 Y125.004 E138.02811
G1 X148.909 Y124.867 E138.04455
G1 X165.523 Y141.482 E139.45125
G1 X165.523 Y140.067 E139.53596
G1 X149.937 Y124.481 E140.85557
G1 X150.021 Y124.459 E140.86077
G1 X150.071 Y124.452 E140.86379
G1 X150.689 Y124.4 E140.90092
G1 X151.27 Y124.4 E140.93571
G1 X165.523 Y138.653 E142.14246
G1 X165.523 Y137.239 E142.22711
G1 X152.684 Y124.399 E143.31419
G1 X154.097 Y124.399 E143.39878
G1 X165.523 Y135.825 E144.36618
G1 X165.523 Y134.411 E144.45083
G1 X155.51 Y124.397 E145.29864
G1 X156.923 Y124.397 E145.38323
G1 X165.523 Y132.996 E146.11132
G1 X165.523 Y131.582 E146.19598
G1 X158.337 Y124.396 E146.80439
G1 X159.75 Y124.395 E146.88898
G1 X165.523 Y130.168 E147.37776
G1 X165.523 Y130.002 E147.3877
G1 X165.496 Y129.553 E147.41463
G1 X165.428 Y129.034 E147.44597
G1 X165.335 Y128.565 E147.47459
G1 X161.324 Y124.555 E147.81415
G1 X161.689 Y124.684 E147.83733
G1 X162.286 Y124.935 E147.8761
G1 X162.739 Y125.163 E147.90646
G1 X163.118 Y125.418 E147.93381
G1 X163.515 Y125.722 E147.96374
G1 X163.886 Y126.048 E147.99331
G1 X164.207 Y126.413 E148.02241
G1 X164.499 Y126.792 E148.05105
G1 X164.828 Y127.301 E148.08734
G1 X164.997 Y127.658 E148.11098
G1 X165.179 Y128.103 E148.13977
G1 X165.332 Y128.552 E148.16817
G1 F2700 E143.16817
G0 F9000 X166.339 Y128.211
G0 X149.705 Y132.698
G0 X150.695 Y132.31
G1 F2700 E148.16817
G1 F1125 X150.627 Y132.139 E148.17918
G1 X150.384 Y131.825 E148.20295
G1 X150.065 Y131.592 E148.2266
G0 F9000 X149.927 Y131.542
G1 F1125 X146.068 Y127.683 E148.55333
G1 X146.013 Y127.692 E148.55667
G1 X145.62 Y127.645 E148.58036
G1 X145.255 Y127.491 E148.60408
G1 X144.946 Y127.241 E148.62788
G1 X144.739 Y126.939 E148.6498
G1 X144.707 Y126.875 E148.65408
G1 X144.49 Y126.4 E148.68535
G1 X144.475 Y126.373 E148.68719
G1 X144.214 Y125.969 E148.71599
G1 X144.193 Y125.941 E148.71809
G1 X143.865 Y125.565 E148.74796
G1 X143.768 Y125.469 E148.75613
G1 X143.56 Y125.274 E148.7732
G1 X143.533 Y125.251 E148.77532
G1 X143.161 Y124.977 E148.80298
G1 X143.116 Y124.95 E148.80612
G1 X142.716 Y124.732 E148.83339
G1 X142.663 Y124.708 E148.83688
G1 X142.236 Y124.551 E148.86411
G1 X142.196 Y124.539 E148.86662
G1 X141.74 Y124.442 E148.89453
G1 X141.688 Y124.435 E148.89767
G1 X141.385 Y124.414 E148.91585
G1 X148.297 Y131.326 E149.50107
G1 X148.123 Y131.391 E149.51219
G1 X147.804 Y131.627 E149.53594
G1 X147.564 Y131.941 E149.5596
G1 X147.547 Y131.99 E149.56271
G1 X139.963 Y124.406 E150.20482
G1 X139.791 Y124.413 E150.21512
G1 X139.631 Y124.428 E150.22475
G1 X139.142 Y124.491 E150.25426
G1 X138.718 Y124.575 E150.28014
G1 X147.521 Y133.379 E151.0255
G1 X147.538 Y133.441 E151.02935
G1 X147.747 Y133.778 E151.05309
G1 X148.042 Y134.041 E151.07675
G0 F300 X148.042 Y134.041 Z0.444
G0 F9000 X148.42 Y134
;TIME_ELAPSED:159.719661
;LAYER:-4
;TYPE:SUPPORT-INTERFACE
G1 F1500 X148.156 Y133.874 E151.08259
G1 X147.903 Y133.648 E151.08936
G1 X147.874 Y133.6 E151.09048
G1 X134.276 Y133.6 E151.36184
G1 X134.276 Y133.2 E151.36982
G1 X147.68 Y133.2 E151.63732
G1 X147.637 Y133.047 E151.64049
G1 X147.604 Y132.8 E151.64546
G1 X134.276 Y132.8 E151.91143
G1 X134.276 Y132.4 E151.91942
G1 X147.617 Y132.4 E152.18565
G1 X147.619 Y132.36 E152.18645
G1 X147.742 Y132.04 E152.19329
G1 X147.772 Y132 E152.19429
G1 X134.276 Y132 E152.46362
G1 X134.276 Y131.6 E152.4716
G1 X148.178 Y131.6 E152.74903
G0 F9000 X148.22 Y131.569
G1 F1500 X148.539 Y131.451 E152.75582
G1 X148.876 Y131.429 E152.76256
G1 X149.194 Y131.496 E152.76904
G1 X149.475 Y131.6 E152.77502
G1 X165.724 Y131.6 E153.09929
G1 X165.724 Y131.2 E153.10727
G1 X134.276 Y131.2 E153.73485
G1 X134.276 Y130.8 E153.74283
G1 X165.724 Y130.8 E154.37041
G1 X165.724 Y130.4 E154.37839
G1 X134.276 Y130.4 E155.00597
G1 X134.276 Y130 E155.01395
G1 X165.725 Y130 E155.64155
