;FLAVOR:Marlin
;TIME:582
;Filament used: 0.44005m
;Layer height: 0.2
;MINX:126.844
;MINY:140.836
;MINZ:0.24
;MAXX:173.164
;MAXY:159.165
;MAXZ:3.93
;Generated with Cura_SteamEngine 4.12.0
M140 S60
M105
M190 S60
M104 S200
M105
M109 S200
M82 ;absolute extrusion mode
M201 X500.00 Y500.00 Z100.00 E5000.00 ;Setup machine max acceleration
M203 X500.00 Y500.00 Z10.00 E50.00 ;Setup machine max feedrate
M204 P500.00 R1000.00 T500.00 ;Setup Print/Retract/Travel acceleration
M205 X8.00 Y8.00 Z0.40 E5.00 ;Setup Jerk
M220 S100 ;Reset Feedrate
M221 S100 ;Reset Flowrate

G28 ;Home

G92 E0 ;Reset Extruder
G1 Z2.0 F3000 ;Move Z Axis up
G1 X10.1 Y20 Z0.28 F5000.0 ;Move to start position
G1 X10.1 Y200.0 Z0.28 F1500.0 E15 ;Draw the first line
G1 X10.4 Y200.0 Z0.28 F5000.0 ;Move to side a little
G1 X10.4 Y20 Z0.28 F1500.0 E30 ;Draw the second line
G92 E0 ;Reset Extruder
G1 Z2.0 F3000 ;Move Z Axis up

G92 E0
G92 E0
G1 F2700 E-7
;LAYER_COUNT:14
;LAYER:-6
M107
G0 F9000 X129.409 Y143.209 Z0.24
;TYPE:SUPPORT-INTERFACE
G1 F2700 E0
G1 F1350 X129.704 Y142.95 E0.03134
G1 X129.919 Y142.783 E0.05307
G1 X130.15 Y142.627 E0.07532
G1 X130.418 Y142.469 E0.10015
G1 X130.675 Y142.339 E0.12314
G1 X130.945 Y142.223 E0.1466
G1 X131.201 Y142.131 E0.16831
G1 X131.493 Y142.047 E0.19257
G1 X131.754 Y141.991 E0.21388
G1 X132.074 Y141.943 E0.23971
G1 X132.542 Y141.907 E0.27717
G1 X132.734 Y141.9 E0.29251
G1 X140.307 Y141.9 E0.89702
G1 X140.433 Y141.904 E0.90708
G1 X140.81 Y141.928 E0.93724
G1 X141.108 Y141.965 E0.96121
G1 X141.392 Y142.02 E0.9843
G1 X141.683 Y142.096 E1.00831
G1 X141.941 Y142.18 E1.02997
G1 X142.22 Y142.291 E1.05393
G1 X142.478 Y142.413 E1.07672
G1 X142.736 Y142.556 E1.10026
G1 X142.964 Y142.702 E1.12187
G1 X143.152 Y142.842 E1.14059
G1 X143.714 Y143.206 E1.19403
G1 X144.329 Y143.503 E1.24855
G1 X144.977 Y143.719 E1.30307
G1 X145.647 Y143.853 E1.35762
G1 X146.35 Y143.9 E1.41386
G1 X153.645 Y143.9 E1.99618
G1 X154.313 Y143.858 E2.0496
G1 X154.984 Y143.729 E2.10415
G1 X155.633 Y143.516 E2.15867
G1 X156.253 Y143.222 E2.21345
G1 X156.447 Y143.104 E2.23157
G1 X157.15 Y142.627 E2.29939
G1 X157.418 Y142.469 E2.32422
G1 X157.675 Y142.339 E2.34721
G1 X157.945 Y142.223 E2.37067
G1 X158.201 Y142.131 E2.39238
G1 X158.493 Y142.047 E2.41664
G1 X158.754 Y141.991 E2.43794
G1 X159.074 Y141.943 E2.46377
G1 X159.542 Y141.907 E2.50124
G1 X159.734 Y141.9 E2.51658
G1 X167.307 Y141.9 E3.12109
G1 X167.433 Y141.904 E3.13115
G1 X167.81 Y141.928 E3.16131
G1 X168.108 Y141.965 E3.18528
G1 X168.392 Y142.02 E3.20837
G1 X168.683 Y142.096 E3.23238
G1 X168.941 Y142.18 E3.25403
G1 X169.22 Y142.291 E3.278
G1 X169.478 Y142.413 E3.30078
G1 X169.737 Y142.557 E3.32444
G1 X169.956 Y142.696 E3.34514
G1 X170.222 Y142.894 E3.37161
G1 X170.576 Y143.198 E3.40886
G1 X170.79 Y143.408 E3.4328
G1 X171.05 Y143.704 E3.46424
G1 X171.217 Y143.919 E3.48598
G1 X171.373 Y144.15 E3.50823
G1 X171.531 Y144.418 E3.53306
G1 X171.663 Y144.677 E3.55626
G1 X171.766 Y144.916 E3.57704
G1 X171.871 Y145.208 E3.60181
G1 X171.952 Y145.49 E3.62523
G1 X172.008 Y145.744 E3.64599
G1 X172.057 Y146.074 E3.67262
G1 X172.093 Y146.535 E3.70953
G1 X172.1 Y146.72 E3.72431
G1 X172.1 Y153.307 E4.25011
G1 X172.096 Y153.433 E4.26018
G1 X172.072 Y153.81 E4.29033
G1 X172.035 Y154.108 E4.3143
G1 X171.98 Y154.392 E4.33739
G1 X171.904 Y154.683 E4.3614
G1 X171.82 Y154.941 E4.38306
G1 X171.709 Y155.22 E4.40703
G1 X171.587 Y155.478 E4.42981
G1 X171.443 Y155.737 E4.45347
G1 X171.304 Y155.956 E4.47417
G1 X171.106 Y156.222 E4.50064
G1 X170.802 Y156.576 E4.53789
G1 X170.591 Y156.791 E4.56193
G1 X170.298 Y157.048 E4.59305
G1 X170.081 Y157.217 E4.615
G1 X169.85 Y157.373 E4.63725
G1 X169.582 Y157.531 E4.66209
G1 X169.325 Y157.661 E4.68508
G1 X169.056 Y157.776 E4.70843
G1 X168.799 Y157.869 E4.73024
G1 X168.507 Y157.953 E4.7545
G1 X168.246 Y158.009 E4.77581
G1 X167.926 Y158.057 E4.80164
G1 X167.458 Y158.093 E4.8391
G1 X167.266 Y158.1 E4.85444
G1 X132.693 Y158.1 E7.61421
G1 X132.567 Y158.096 E7.62427
G1 X132.19 Y158.072 E7.65443
G1 X131.892 Y158.035 E7.6784
G1 X131.608 Y157.98 E7.70149
G1 X131.317 Y157.904 E7.72549
G1 X131.057 Y157.819 E7.74733
G1 X130.78 Y157.709 E7.77112
G1 X130.521 Y157.586 E7.79401
G1 X130.263 Y157.443 E7.81756
G1 X130.044 Y157.304 E7.83826
G1 X129.778 Y157.106 E7.86473
G1 X129.424 Y156.802 E7.90198
G1 X129.209 Y156.591 E7.92602
G1 X128.95 Y156.296 E7.95736
G1 X128.783 Y156.081 E7.97909
G1 X128.624 Y155.845 E8.00181
G1 X128.469 Y155.582 E8.02618
G1 X128.339 Y155.325 E8.04917
G1 X128.223 Y155.055 E8.07262
G1 X128.131 Y154.799 E8.09434
G1 X128.047 Y154.507 E8.11859
G1 X127.991 Y154.246 E8.1399
G1 X127.943 Y153.926 E8.16573
G1 X127.906 Y153.448 E8.204
G1 X127.9 Y153.28 E8.21742
G1 X127.9 Y146.693 E8.74322
G1 X127.904 Y146.567 E8.75328
G1 X127.928 Y146.19 E8.78344
G1 X127.965 Y145.892 E8.80741
G1 X128.02 Y145.608 E8.8305
G1 X128.096 Y145.317 E8.85451
G1 X128.18 Y145.059 E8.87617
G1 X128.291 Y144.78 E8.90014
G1 X128.413 Y144.522 E8.92292
G1 X128.552 Y144.272 E8.94575
G1 X128.704 Y144.034 E8.96829
G1 X128.894 Y143.778 E8.99374
G1 X129.198 Y143.424 E9.03099
G1 X129.409 Y143.209 E9.05503
G0 F9000 X129.6 Y143.041
G1 F1350 X129.6 Y156.953 E10.16555
G0 F9000 X131.2 Y157.865
G1 F1350 X131.2 Y142.131 E11.42151
G0 F9000 X132.8 Y141.9
G1 F1350 X132.8 Y158.1 E12.71466
G0 F9000 X134.4 Y158.1
G1 F1350 X134.4 Y141.9 E14.00781
G0 F9000 X136 Y141.9
G1 F1350 X136 Y158.1 E15.30097
G0 F9000 X137.6 Y158.1
G1 F1350 X137.6 Y141.9 E16.59412
G0 F9000 X139.2 Y141.9
G1 F1350 X139.2 Y158.1 E17.88728
G0 F9000 X140.8 Y158.1
G1 F1350 X140.8 Y141.928 E19.1782
G0 F9000 X142.4 Y142.377
G1 F1350 X142.4 Y158.1 E20.43327
G0 F9000 X144 Y158.1
G1 F1350 X144 Y143.345 E21.61108
G0 F9000 X145.6 Y143.844
G1 F1350 X145.6 Y158.1 E22.74906
G0 F9000 X147.2 Y158.1
G1 F1350 X147.2 Y143.9 E23.88256
G0 F9000 X148.8 Y143.9
G1 F1350 X148.8 Y158.1 E25.01607
G0 F9000 X150.4 Y158.1
G1 F1350 X150.4 Y143.9 E26.14957
G0 F9000 X152 Y143.9
G1 F1350 X152 Y158.1 E27.28308
G0 F9000 X153.6 Y158.1
G1 F1350 X153.6 Y143.9 E28.41658
G0 F9000 X155.2 Y143.658
G1 F1350 X155.2 Y158.1 E29.56941
G0 F9000 X156.8 Y158.1
G1 F1350 X156.8 Y142.864 E30.78561
G0 F9000 X158.4 Y142.073
G1 F1350 X158.4 Y158.1 E32.06496
G0 F9000 X160 Y158.1
G1 F1350 X160 Y141.9 E33.35811
G0 F9000 X161.6 Y141.9
G1 F1350 X161.6 Y158.1 E34.65126
G0 F9000 X163.2 Y158.1
G1 F1350 X163.2 Y141.9 E35.94442
G0 F9000 X164.8 Y141.9
G1 F1350 X164.8 Y158.1 E37.23757
G0 F9000 X166.4 Y158.1
G1 F1350 X166.4 Y141.9 E38.53073
G0 F9000 X168 Y141.952
G1 F1350 X168 Y158.046 E39.81542
G0 F9000 X169.6 Y157.521
G1 F1350 X169.6 Y142.481 E41.01598
G0 F9000 X171.2 Y143.898
G1 F1350 X171.2 Y156.096 E41.98967
G1 F2700 E34.98967
G0 F9000 X171.934 Y156.892
G0 X171.3 Y157.585
G0 X170.408 Y158.28
G0 X169.455 Y158.764
G0 X168.435 Y159.058
G0 X167.291 Y159.164
G0 X132.088 Y159.132
G0 X131.021 Y158.927
G0 X130.024 Y158.528
G0 X129.108 Y157.934
G0 X128.415 Y157.3
G0 X127.718 Y156.405
G0 X127.285 Y155.55
G0 X126.96 Y154.514
G0 X128 Y154.287
G1 F2700 E41.98967
G1 F1350 X128 Y145.711 E42.67425
G1 F2700 E35.67425
G0 F300 X128 Y145.711 Z0.54
G0 F9000 X126.868 Y146.088
G0 X126.844 Y153.516
G0 X126.94 Y154.227
G0 X127.113 Y155.113
G0 X128.251 Y155.121
;TIME_ELAPSED:33.499278
;LAYER:-5
;TYPE:SUPPORT
G1 F2700 E42.67425
G1 F1350 X130.876 Y157.746 E43.04466
G1 X130.78 Y157.708 E43.05496
G1 X130.521 Y157.585 E43.08357
G1 X130.262 Y157.442 E43.11309
G1 X130.044 Y157.302 E43.13895
G1 X129.778 Y157.104 E43.17203
G1 X129.423 Y156.801 E43.2186
G1 X129.296 Y156.684 E43.23583
G1 X129.209 Y156.59 E43.24861
G1 X128.95 Y156.295 E43.28778
G1 X128.783 Y156.08 E43.31495
G1 X128.623 Y155.844 E43.3434
G1 X128.469 Y155.581 E43.37381
G1 X128.339 Y155.323 E43.40263
G1 F2700 E36.40263
G0 F9000 X127.535 Y156.094
G0 X128.137 Y156.983
G0 X128.722 Y157.602
G0 X129.533 Y158.217
G0 X130.024 Y158.528
G0 X130.876 Y157.746
G1 F2700 E43.40263
G1 F1350 X131.057 Y157.818 E43.42207
G1 X131.317 Y157.903 E43.44936
G1 X131.608 Y157.978 E43.47935
G1 X131.892 Y158.034 E43.50823
G1 X132.19 Y158.071 E43.5382
G1 X132.566 Y158.094 E43.57578
G1 X132.641 Y158.097 E43.58327
G1 X127.902 Y153.358 E44.252
G1 X127.9 Y153.279 E44.25988
G1 X127.9 Y151.941 E44.39339
G1 X134.057 Y158.099 E45.26228
G1 X135.471 Y158.099 E45.40337
G1 X127.9 Y150.527 E46.47179
G1 X127.9 Y149.113 E46.61288
G1 X136.885 Y158.099 E47.88083
G1 X138.3 Y158.099 E48.02202
G1 X127.9 Y147.699 E49.48957
G1 X127.9 Y146.692 E49.59005
G1 X127.904 Y146.566 E49.60263
G1 X127.919 Y146.304 E49.62881
G1 X139.714 Y158.099 E51.29322
G1 X141.128 Y158.099 E51.4343
G1 X128.157 Y145.128 E53.26465
G1 X128.18 Y145.058 E53.272
G1 X128.291 Y144.779 E53.30197
G1 X128.413 Y144.521 E53.33044
G1 X128.552 Y144.27 E53.35907
G1 X128.614 Y144.171 E53.37073
G1 X142.542 Y158.099 E55.33612
G1 X143.957 Y158.099 E55.47731
G1 X129.237 Y143.379 E57.55446
G1 X129.314 Y143.295 E57.56583
G1 X129.409 Y143.208 E57.57868
G1 X129.703 Y142.949 E57.61778
G1 X129.918 Y142.782 E57.64494
G1 X130 Y142.728 E57.65474
G1 X145.371 Y158.099 E59.82375
G1 X146.785 Y158.099 E59.96484
G1 X130.919 Y142.233 E62.20371
G1 X130.944 Y142.221 E62.20647
G1 X131.2 Y142.129 E62.23362
G1 X131.492 Y142.045 E62.26393
G1 X131.753 Y141.989 E62.29057
G1 X132.047 Y141.946 E62.32022
G1 X148.199 Y158.099 E64.59951
G1 X149.613 Y158.099 E64.7406
G1 X133.414 Y141.899 E67.02652
G1 X134.828 Y141.899 E67.16761
G1 X151.028 Y158.099 E69.45361
G1 X152.442 Y158.099 E69.5947
G1 X136.242 Y141.899 E71.88069
G1 X137.656 Y141.899 E72.02178
G1 X153.856 Y158.099 E74.30778
G1 X155.27 Y158.099 E74.44887
G1 X139.07 Y141.899 E76.73486
G1 X140.306 Y141.899 E76.85819
G1 X140.432 Y141.903 E76.87077
G1 X140.493 Y141.907 E76.87687
G1 X156.684 Y158.099 E79.16166
G1 X158.099 Y158.099 E79.30285
G1 X142.355 Y142.355 E81.5245
G1 X142.477 Y142.413 E81.53798
G1 X142.735 Y142.555 E81.56736
G1 X142.963 Y142.701 E81.59438
G1 X143.151 Y142.841 E81.61777
G1 X143.713 Y143.206 E81.68463
G1 X144.328 Y143.502 E81.75274
G1 X144.975 Y143.718 E81.8208
G1 X145.172 Y143.758 E81.84085
G1 X159.513 Y158.099 E83.86452
G1 X160.927 Y158.099 E84.00561
G1 X146.728 Y143.9 E86.00925
G1 X148.143 Y143.9 E86.15043
G1 X162.341 Y158.099 E88.154
G1 X163.756 Y158.099 E88.29519
G1 X149.557 Y143.9 E90.29882
G1 X150.971 Y143.9 E90.43991
G1 X165.17 Y158.099 E92.44354
G1 X166.584 Y158.099 E92.58463
G1 X152.385 Y143.9 E94.58826
G1 X153.644 Y143.9 E94.71389
G1 X153.79 Y143.891 E94.72848
G1 X167.952 Y158.052 E96.72682
G1 X168.245 Y158.009 E96.75637
G1 X168.506 Y157.953 E96.78301
G1 X168.798 Y157.869 E96.81332
G1 X169.055 Y157.776 E96.84059
G1 X169.079 Y157.765 E96.84323
G1 X155.028 Y143.714 E98.82598
G1 X155.632 Y143.515 E98.88943
G1 X156.047 Y143.319 E98.93523
G1 X169.999 Y157.271 E100.904
G1 X170.08 Y157.216 E100.91377
G1 X170.297 Y157.047 E100.94122
G1 X170.59 Y156.791 E100.98004
G1 X170.684 Y156.703 E100.99289
G1 X170.762 Y156.619 E101.00433
G1 X156.923 Y142.781 E102.95709
G1 X157.149 Y142.626 E102.98443
G1 X157.417 Y142.469 E103.01542
G1 X157.674 Y142.338 E103.04421
G1 X157.829 Y142.272 E103.06102
G1 X171.385 Y155.828 E104.97391
G1 X171.442 Y155.737 E104.98463
G1 X171.585 Y155.477 E105.01424
G1 X171.708 Y155.219 E105.04276
G1 X171.819 Y154.94 E105.07272
G1 X171.841 Y154.871 E105.07994
G1 X158.934 Y141.964 E106.90126
G1 X159.073 Y141.943 E106.91529
G1 X159.54 Y141.907 E106.96202
G1 X159.733 Y141.9 E106.98129
G1 X160.284 Y141.9 E107.03627
G1 X172.079 Y153.694 E108.7006
G1 X172.094 Y153.432 E108.72679
G1 X172.099 Y153.307 E108.73927
G1 X172.099 Y152.3 E108.83975
G1 X161.699 Y141.9 E110.3073
G1 X163.113 Y141.9 E110.44839
G1 X172.099 Y150.885 E111.71634
G1 X172.099 Y149.471 E111.85743
G1 X164.527 Y141.9 E112.92585
G1 X165.941 Y141.9 E113.06694
G1 X172.099 Y148.057 E113.93583
G1 X172.099 Y146.719 E114.06934
G1 X172.097 Y146.641 E114.07712
G1 X167.358 Y141.902 E114.74585
G1 X167.432 Y141.904 E114.75323
G1 X167.809 Y141.927 E114.79092
G1 X168.106 Y141.965 E114.8208
G1 X168.391 Y142.02 E114.84976
G1 X168.681 Y142.095 E114.87965
G1 X168.939 Y142.18 E114.90675
G1 X169.122 Y142.252 E114.92637
G1 X171.749 Y144.879 E115.29707
G0 F9000 X171.662 Y144.677
G1 F1350 X171.529 Y144.418 E115.32612
G1 X171.372 Y144.15 E115.35712
G1 X171.216 Y143.918 E115.38501
G1 X171.049 Y143.703 E115.41218
G1 X170.788 Y143.408 E115.45148
G1 X170.702 Y143.314 E115.46419
G1 X170.575 Y143.197 E115.48142
G1 X170.221 Y142.894 E115.52791
G1 X169.955 Y142.696 E115.561
G1 X169.736 Y142.556 E115.58694
G1 X169.477 Y142.413 E115.61646
G1 X169.219 Y142.291 E115.64493
G1 X169.122 Y142.252 E115.65537
G0 F300 X169.122 Y142.252 Z0.74
G0 F9000 X169.031 Y142
;TIME_ELAPSED:68.529623
;LAYER:-4
;TYPE:SUPPORT-INTERFACE
G1 F1800 X157.975 Y142 E116.02309
G1 X157.867 Y142.039 E116.02691
G1 X157.582 Y142.161 E116.03722
G1 X157.327 Y142.29 E116.04673
G1 X157.141 Y142.4 E116.05391
G1 X169.863 Y142.4 E116.47705
G1 X170.081 Y142.539 E116.48565
G1 X170.347 Y142.737 E116.49668
G1 X170.421 Y142.8 E116.49991
G1 X156.54 Y142.8 E116.96159
G1 X156.501 Y142.826 E116.96315
G1 X156.498 Y142.821 E116.96335
G1 X156.154 Y143.048 E116.97705
G1 X155.833 Y143.2 E116.98887
G1 X170.87 Y143.2 E117.489
G1 X170.944 Y143.28 E117.49262
G1 X171.193 Y143.563 E117.50516
G1 X171.222 Y143.6 E117.50672
G1 X154.596 Y143.6 E118.05971
G0 F9000 X154.288 Y143.659
G1 F1800 X153.638 Y143.7 E118.08137
G1 X146.356 Y143.7 E118.32357
G1 X145.674 Y143.655 E118.3463
G1 X145.399 Y143.6 E118.35563
G1 X128.782 Y143.6 E118.90831
G1 X128.745 Y143.642 E118.91018
G1 X128.534 Y143.926 E118.92194
G1 X128.487 Y144 E118.92486
G1 X171.513 Y144 E120.35591
G1 X171.552 Y144.059 E120.35826
G1 X171.71 Y144.327 E120.36861
G1 X171.747 Y144.4 E120.37133
G1 X128.251 Y144.4 E121.81801
G1 X128.243 Y144.414 E121.81855
G1 X128.099 Y144.718 E121.82974
G1 X128.067 Y144.8 E121.83267
G1 X171.934 Y144.8 E123.29169
G1 X171.959 Y144.86 E123.29385
G1 X172.062 Y145.146 E123.30396
G1 X172.078 Y145.2 E123.30583
G1 X127.923 Y145.2 E124.77444
G1 X127.9 Y145.27 E124.77689
G1 X127.824 Y145.559 E124.78683
G1 X127.817 Y145.6 E124.78821
G1 X172.182 Y145.6 E126.26379
G1 X172.204 Y145.702 E126.26727
G1 X172.249 Y146 E126.27729
G1 X127.749 Y146 E127.75737
G1 X127.728 Y146.163 E127.76283
G1 X127.714 Y146.4 E127.77073
G1 X172.284 Y146.4 E129.25313
G1 X172.293 Y146.528 E129.2574
G1 X172.3 Y146.72 E129.26379
G1 X172.3 Y146.8 E129.26645
G1 X127.699 Y146.8 E130.74989
G1 X127.699 Y147.2 E130.76319
G1 X172.3 Y147.2 E132.24663
G1 X172.3 Y147.6 E132.25993
G1 X127.699 Y147.6 E133.74336
G1 X127.699 Y148 E133.75667
G1 X172.3 Y148 E135.2401
G1 X172.3 Y148.4 E135.25341
G1 X127.699 Y148.4 E136.73684
G1 X127.699 Y148.8 E136.75015
G1 X172.3 Y148.8 E138.23358
G1 X172.3 Y149.2 E138.24689
G1 X127.699 Y149.2 E139.73032
G1 X127.699 Y149.6 E139.74363
G1 X172.3 Y149.6 E141.22706
G1 X172.3 Y150 E141.24037
G1 X127.699 Y150 E142.7238
G1 X127.699 Y150.4 E142.7371
G1 X172.3 Y150.4 E144.22054
G1 X172.3 Y150.8 E144.23384
G1 X127.699 Y150.8 E145.71728
G1 X127.699 Y151.2 E145.73058
G1 X172.3 Y151.2 E147.21402
G1 X172.3 Y151.6 E147.22732
G1 X127.699 Y151.6 E148.71076
G1 X127.699 Y152 E148.72406
G1 X172.3 Y152 E150.2075
G1 X172.3 Y152.4 E150.2208
G1 X127.699 Y152.4 E151.70424
G1 X127.699 Y152.8 E151.71754
G1 X172.3 Y152.8 E153.20098
G1 X172.3 Y153.2 E153.21428
G1 X127.699 Y153.2 E154.69772
G1 X127.699 Y153.28 E154.70038
G1 X127.706 Y153.472 E154.70677
G1 X127.715 Y153.6 E154.71103
G1 X172.285 Y153.6 E156.19344
G1 X172.271 Y153.837 E156.20133
G1 X172.25 Y154 E156.2068
G1 X127.75 Y154 E157.68688
G1 X127.793 Y154.285 E157.69646
G1 X127.817 Y154.4 E157.70037
G1 X172.182 Y154.4 E159.17596
G1 X172.176 Y154.435 E159.17714
G1 X172.099 Y154.73 E159.18728
G1 X172.076 Y154.8 E159.18973
G1 X127.921 Y154.8 E160.65833
G1 X127.933 Y154.841 E160.65975
G1 X128.038 Y155.133 E160.67007
G1 X128.066 Y155.2 E160.67249
G1 X171.932 Y155.2 E162.13148
G1 X171.9 Y155.282 E162.1344
G1 X171.757 Y155.585 E162.14555
G1 X171.748 Y155.6 E162.14613
G1 X128.252 Y155.6 E163.59281
G1 X128.289 Y155.673 E163.59553
G1 X128.445 Y155.938 E163.60576
G1 X128.486 Y156 E163.60823
G1 X171.512 Y156 E165.03928
G1 X171.461 Y156.081 E165.04247
G1 X171.263 Y156.347 E165.0535
G1 X171.217 Y156.4 E165.05583
