;FLAVOR:Marlin
;TIME:10620
;Filament used: 2.97986m
;Layer height: 0.12
;MINX:133.41
;MINY:123.554
;MINZ:0.144
;MAXX:166.589
;MAXY:176.665
;MAXZ:21.714
;Generated with Cura_SteamEngine 4.12.0
M140 S55
M105
M190 S55
M104 S205
M105
M109 S205
M82 ;absolute extrusion mode
M201 X500.00 Y500.00 Z100.00 E5000.00 ;Setup machine max acceleration
M203 X500.00 Y500.00 Z10.00 E50.00 ;Setup machine max feedrate
M204 P500.00 R1000.00 T500.00 ;Setup Print/Retract/Travel acceleration
M205 X8.00 Y8.00 Z0.40 E5.00 ;Setup Jerk
M220 S100 ;Reset Feedrate
M221 S100 ;Reset Flowrate

G28 ;Home

G92 E0 ;Reset Extruder
G1 Z2.0 F3000 ;Move Z Axis up
G1 X10.1 Y20 Z0.28 F5000.0 ;Move to start position
G1 X10.1 Y200.0 Z0.28 F1500.0 E15 ;Draw the first line
G1 X10.4 Y200.0 Z0.28 F5000.0 ;Move to side a little
G1 X10.4 Y20 Z0.28 F1500.0 E30 ;Draw the second line
G92 E0 ;Reset Extruder
G1 Z2.0 F3000 ;Move Z Axis up

G92 E0
G92 E0
G1 F2700 E-5
;LAYER_COUNT:175
;LAYER:-6
M107
G0 F9000 X136.118 Y126.043 Z0.144
;TYPE:SUPPORT-INTERFACE
G1 F2700 E0
G1 F1125 X136.501 Y125.706 E0.02443
G1 X136.832 Y125.451 E0.04445
G1 X136.877 Y125.419 E0.04709
G1 X137.308 Y125.134 E0.07184
G1 X137.721 Y124.933 E0.09384
G1 X138.165 Y124.749 E0.11686
G1 X138.581 Y124.604 E0.13796
G1 X139.143 Y124.491 E0.16541
G1 X139.632 Y124.429 E0.18902
G1 X139.996 Y124.404 E0.20649
G1 X140.126 Y124.4 E0.21272
G1 X141.175 Y124.4 E0.26296
G1 X141.689 Y124.435 E0.28764
G1 X141.742 Y124.442 E0.2902
G1 X142.197 Y124.54 E0.31249
G1 X142.237 Y124.552 E0.31449
G1 X142.664 Y124.709 E0.33628
G1 X142.717 Y124.733 E0.33907
G1 X143.118 Y124.95 E0.3609
G1 X143.162 Y124.978 E0.3634
G1 X143.534 Y125.252 E0.38553
G1 X143.561 Y125.274 E0.3872
G1 X143.77 Y125.469 E0.40089
G1 X143.831 Y125.53 E0.40502
G1 X144.126 Y125.75 E0.42265
G1 X144.496 Y125.89 E0.44159
G1 X144.891 Y125.921 E0.46057
G1 X145.278 Y125.84 E0.47951
G1 X145.619 Y125.659 E0.498
G1 X145.943 Y125.352 E0.51937
G1 X145.974 Y125.324 E0.52138
G1 X146.339 Y125.035 E0.54367
G1 X146.384 Y125.005 E0.54626
G1 X146.785 Y124.774 E0.56843
G1 X146.811 Y124.761 E0.56982
G1 X147.265 Y124.578 E0.59326
G1 X147.735 Y124.46 E0.61647
G1 X147.784 Y124.453 E0.61884
G1 X148.402 Y124.4 E0.64855
G1 X160.227 Y124.394 E1.21491
G1 X160.734 Y124.428 E1.23924
G1 X160.805 Y124.438 E1.24268
G1 X161.253 Y124.534 E1.26462
G1 X161.289 Y124.544 E1.26641
G1 X161.656 Y124.673 E1.28504
G1 X162.291 Y124.938 E1.318
G1 X162.673 Y125.122 E1.3383
G1 X163.15 Y125.436 E1.36566
G1 X163.498 Y125.704 E1.38669
G1 X163.928 Y126.088 E1.4143
G1 X164.216 Y126.423 E1.43546
G1 X164.503 Y126.797 E1.45804
G1 X164.829 Y127.301 E1.48679
G1 X164.998 Y127.659 E1.50575
G1 X165.18 Y128.103 E1.52873
G1 X165.333 Y128.553 E1.5515
G1 X165.429 Y129.035 E1.57504
G1 X165.497 Y129.554 E1.60011
G1 X165.525 Y130.003 E1.62165
G1 X165.524 Y170.01 E3.53777
G1 X165.492 Y170.491 E3.56086
G1 X165.435 Y170.927 E3.58192
G1 X165.425 Y170.987 E3.58483
G1 X165.329 Y171.462 E3.60804
G1 X165.166 Y171.936 E3.63205
G1 X164.989 Y172.362 E3.65414
G1 X164.718 Y172.892 E3.68265
G1 X164.486 Y173.227 E3.70217
G1 X164.19 Y173.608 E3.72528
G1 X164.105 Y173.714 E3.73179
G1 X163.734 Y174.099 E3.75739
G1 X163.52 Y174.279 E3.77079
G1 X162.986 Y174.69 E3.80306
G1 X162.546 Y174.982 E3.82835
G1 X162.503 Y175.007 E3.83073
G1 X162.076 Y175.209 E3.85336
G1 X162.048 Y175.22 E3.8548
G1 X161.474 Y175.388 E3.88344
G1 X161.182 Y175.443 E3.89767
G1 X160.865 Y175.515 E3.91324
G1 X160.821 Y175.521 E3.91537
G1 X160.34 Y175.567 E3.93851
G1 X159.883 Y175.6 E3.96046
G1 X146.58 Y175.6 E4.5976
G1 X139.954 Y175.606 E4.91495
G1 X139.473 Y175.572 E4.93804
G1 X139.177 Y175.515 E4.95248
G1 X139.137 Y175.509 E4.95442
G1 X138.615 Y175.406 E4.9799
G1 X138.153 Y175.247 E5.0033
G1 X137.683 Y175.05 E5.02771
G1 X137.295 Y174.859 E5.04842
G1 X136.85 Y174.562 E5.07405
G1 X136.466 Y174.264 E5.09733
G1 X136.269 Y174.099 E5.10963
G1 X135.787 Y173.579 E5.14359
G1 X135.498 Y173.203 E5.16631
G1 X135.208 Y172.765 E5.19147
G1 X135.006 Y172.35 E5.21357
G1 X134.834 Y171.936 E5.23504
G1 X134.649 Y171.377 E5.26324
G1 X134.57 Y170.957 E5.28371
G1 X134.493 Y170.354 E5.31283
G1 X134.475 Y169.972 E5.33114
G1 X134.478 Y138.711 E6.82838
G1 X134.479 Y138.662 E6.83072
G1 X134.503 Y138.338 E6.84628
G1 X134.493 Y138.086 E6.85836
G1 X134.486 Y138.021 E6.86149
G1 X134.475 Y137.732 E6.87535
G1 X134.476 Y130.003 E7.24552
G1 X134.488 Y129.702 E7.25995
G1 X134.506 Y129.529 E7.26828
G1 X134.569 Y129.044 E7.29171
G1 X134.671 Y128.539 E7.31638
G1 X134.834 Y128.062 E7.34052
G1 X135.009 Y127.642 E7.36232
G1 X135.195 Y127.261 E7.38262
G1 X135.223 Y127.21 E7.38541
G1 X135.517 Y126.769 E7.41079
G1 X135.773 Y126.436 E7.43091
G1 X135.806 Y126.396 E7.43339
G1 X136.118 Y126.043 E7.45596
G0 F9000 X136 Y126.176
G1 F1125 X136 Y173.808 E9.73727
G0 F9000 X137.6 Y175.009
G1 F1125 X137.6 Y124.991 E12.13287
G0 F9000 X139.2 Y124.483
G1 F1125 X139.2 Y175.519 E14.57721
G0 F9000 X140.8 Y175.606
G1 F1125 X140.8 Y124.4 E17.0297
G0 F9000 X142.4 Y124.612
G1 F1125 X142.4 Y175.604 E19.47195
G0 F9000 X144 Y175.603
G1 F1125 X144 Y125.657 E21.86409
G0 F9000 X145.6 Y125.669
G1 F1125 X145.6 Y175.601 E24.25556
G0 F9000 X147.2 Y175.6
G1 F1125 X147.2 Y124.604 E26.69799
G0 F9000 X148.8 Y124.399
G1 F1125 X148.8 Y175.6 E29.15025
G0 F9000 X150.4 Y175.6
G1 F1125 X150.4 Y124.398 E31.60254
G0 F9000 X152 Y124.398
G1 F1125 X152 Y175.6 E34.05484
G0 F9000 X153.6 Y175.6
G1 F1125 X153.6 Y124.397 E36.50719
G0 F9000 X155.2 Y124.396
G1 F1125 X155.2 Y175.6 E38.95959
G0 F9000 X156.8 Y175.6
G1 F1125 X156.8 Y124.395 E41.41203
G0 F9000 X158.4 Y124.394
G1 F1125 X158.4 Y175.6 E43.86452
G0 F9000 X160 Y175.592
G1 F1125 X160 Y124.394 E46.31663
G0 F9000 X161.6 Y124.654
G1 F1125 X161.6 Y175.352 E48.74479
G0 F9000 X163.2 Y174.526
G1 F1125 X163.2 Y125.475 E51.09406
G0 F9000 X164.8 Y127.257
G1 F1125 X164.8 Y172.732 E53.27207
G0 F300 X164.8 Y172.732 Z0.324
G0 F9000 X164.105 Y173.713
;TIME_ELAPSED:66.102921
;LAYER:-5
;TYPE:SUPPORT
G1 F1125 X164.19 Y173.607 E53.28021
G1 X164.486 Y173.226 E53.30909
G1 X164.591 Y173.076 E53.32005
G1 X134.476 Y142.962 E55.86974
G1 X134.476 Y141.547 E55.95445
G1 X165.077 Y172.148 E58.54533
G1 X165.166 Y171.935 E58.55915
G1 X165.329 Y171.461 E58.58916
G1 X165.409 Y171.066 E58.61329
G1 X134.476 Y140.133 E61.23228
G1 X134.476 Y138.719 E61.31693
G1 X165.523 Y169.766 E63.94557
G1 X165.523 Y168.352 E64.03023
G1 X134.474 Y137.303 E66.65904
G1 X134.474 Y135.888 E66.74375
G1 X165.523 Y166.938 E69.3726
G1 X165.523 Y165.523 E69.45731
G1 X134.474 Y134.474 E72.08612
G1 X134.474 Y133.06 E72.17078
G1 X165.523 Y164.109 E74.79959
G1 X165.523 Y162.695 E74.88424
G1 X134.474 Y131.646 E77.51305
G1 X134.474 Y130.232 E77.5977
G1 X165.523 Y161.281 E80.22651
G1 X165.523 Y159.866 E80.31123
G1 X134.589 Y128.933 E82.93026
G1 X134.669 Y128.539 E82.95433
G1 X134.833 Y128.061 E82.98458
G1 X134.92 Y127.849 E82.9983
G1 X165.523 Y158.452 E85.58935
G1 X165.523 Y157.038 E85.674
G1 X135.411 Y126.926 E88.22348
G1 X135.516 Y126.769 E88.23479
G1 X135.772 Y126.435 E88.25998
G1 X135.804 Y126.396 E88.263
G1 X136.034 Y126.135 E88.28383
G1 X165.523 Y155.624 E90.78056
G1 X165.523 Y154.21 E90.86521
G1 X136.794 Y125.48 E93.29764
G1 X136.831 Y125.451 E93.30045
G1 X136.876 Y125.418 E93.30379
G1 X137.307 Y125.133 E93.33473
G1 X137.68 Y124.952 E93.35955
G1 X165.523 Y152.795 E95.71692
G1 X165.523 Y151.381 E95.80157
G1 X138.718 Y124.575 E98.0711
G1 X139.142 Y124.491 E98.09698
G1 X139.631 Y124.428 E98.12649
G1 X139.791 Y124.413 E98.13611
G1 X139.963 Y124.406 E98.14642
G1 X165.523 Y149.967 E100.31054
G1 X165.523 Y148.553 E100.39519
G1 X141.385 Y124.414 E102.43891
G1 X141.688 Y124.435 E102.4571
G1 X141.74 Y124.442 E102.46024
G1 X142.196 Y124.539 E102.48815
G1 X142.236 Y124.551 E102.49065
G1 X142.663 Y124.708 E102.51789
G1 X142.716 Y124.732 E102.52137
G1 X143.116 Y124.95 E102.54864
G1 X143.161 Y124.977 E102.55178
G1 X143.533 Y125.251 E102.57944
G1 X143.56 Y125.274 E102.58157
G1 X143.768 Y125.469 E102.59864
G1 X143.829 Y125.529 E102.60376
G1 X144.125 Y125.75 E102.62588
G1 X144.141 Y125.756 E102.6269
G1 X165.523 Y147.139 E104.43728
G1 X165.523 Y145.724 E104.52199
G1 X145.514 Y125.715 E106.21608
G1 X145.618 Y125.659 E106.22316
G1 X145.797 Y125.502 E106.23741
G1 X145.942 Y125.351 E106.24994
G1 X145.973 Y125.324 E106.2524
G1 X146.288 Y125.075 E106.27644
G1 X165.523 Y144.31 E107.905
G1 X165.523 Y142.896 E107.98966
G1 X147.223 Y124.595 E109.5391
G1 X147.264 Y124.578 E109.54175
G1 X147.733 Y124.459 E109.57072
G1 X147.783 Y124.452 E109.57374
G1 X148.401 Y124.4 E109.61087
G1 X148.442 Y124.4 E109.61333
G1 X165.523 Y141.482 E111.05956
G1 X165.523 Y140.067 E111.14427
G1 X149.855 Y124.399 E112.47083
G1 X151.269 Y124.399 E112.55548
G1 X165.523 Y138.653 E113.76232
G1 X165.523 Y137.239 E113.84697
G1 X152.682 Y124.398 E114.93417
G1 X154.096 Y124.397 E115.01883
G1 X165.523 Y135.825 E115.98635
G1 X165.523 Y134.411 E116.07101
G1 X155.509 Y124.397 E116.91886
G1 X156.923 Y124.396 E117.00351
G1 X165.523 Y132.996 E117.73164
G1 X165.523 Y131.582 E117.81629
G1 X158.336 Y124.395 E118.42479
G1 X159.75 Y124.394 E118.50945
G1 X165.523 Y130.168 E118.99827
G1 X165.523 Y130.002 E119.00821
G1 X165.496 Y129.553 E119.03514
G1 X165.428 Y129.034 E119.06647
G1 X165.335 Y128.565 E119.0951
G1 X161.327 Y124.558 E119.4344
G1 X161.655 Y124.673 E119.45521
G1 X162.29 Y124.937 E119.49638
G1 X162.672 Y125.121 E119.52176
G1 X163.149 Y125.436 E119.55599
G1 X163.497 Y125.703 E119.58225
G1 X163.927 Y126.088 E119.6168
G1 X164.214 Y126.422 E119.64316
G1 X164.502 Y126.796 E119.67142
G1 X164.828 Y127.301 E119.70741
G1 X164.997 Y127.658 E119.73106
G1 X165.179 Y128.103 E119.75984
G1 X165.332 Y128.552 E119.78824
G1 F2700 E114.78824
G0 F9000 X166.482 Y128.876
G0 X166.589 Y129.979
G0 X166.555 Y170.574
G0 X166.351 Y171.762
G0 X165.945 Y172.831
G0 X165.604 Y173.414
G0 X165.023 Y174.27
G0 X164.105 Y173.713
G1 F2700 E119.78824
G1 F1125 X163.962 Y173.862 E119.8006
G1 X134.476 Y144.376 E122.29708
G1 X134.476 Y145.79 E122.38173
G1 X163.205 Y174.518 E124.81407
G1 X162.985 Y174.688 E124.83072
G1 X162.546 Y174.981 E124.86232
G1 X162.503 Y175.006 E124.86529
G1 X162.35 Y175.078 E124.87542
G1 X134.476 Y147.204 E127.23541
G1 X134.476 Y148.618 E127.32006
G1 X161.285 Y175.427 E129.58989
G1 X161.269 Y175.431 E129.59088
G1 X161.181 Y175.442 E129.59618
G1 X161.086 Y175.462 E129.602
G1 X161.037 Y175.479 E129.6051
G1 X160.864 Y175.514 E129.61567
G1 X160.82 Y175.52 E129.61833
G1 X160.339 Y175.566 E129.64726
G1 X160.254 Y175.577 E129.65239
G1 X160.185 Y175.588 E129.65657
G1 X160.091 Y175.592 E129.6622
G1 X160.038 Y175.594 E129.66538
G1 X134.476 Y150.032 E131.82962
G1 X134.476 Y151.446 E131.91428
G1 X158.628 Y175.599 E133.95918
G1 X157.214 Y175.599 E134.04384
G1 X134.476 Y152.86 E135.96903
G1 X134.476 Y154.275 E136.05374
G1 X155.8 Y175.599 E137.85917
G1 X154.386 Y175.599 E137.94382
G1 X134.475 Y155.688 E139.62962
G1 X134.475 Y157.102 E139.71427
G1 X152.971 Y175.599 E141.2803
G1 X151.557 Y175.599 E141.36496
G1 X134.475 Y158.517 E142.81123
G1 X134.475 Y159.931 E142.89588
G1 X150.143 Y175.599 E144.22244
G1 X148.729 Y175.599 E144.30709
G1 X134.475 Y161.345 E145.51393
G1 X134.474 Y162.759 E145.59858
G1 X147.315 Y175.599 E146.68574
G1 X146.579 Y175.599 E146.7298
G1 X145.9 Y175.599 E146.77045
G1 X134.474 Y164.173 E147.73785
G1 X134.474 Y165.587 E147.82251
G1 X144.488 Y175.6 E148.67032
G1 X143.075 Y175.602 E148.75491
G1 X134.474 Y167.001 E149.48313
G1 X134.474 Y168.415 E149.56778
G1 X141.661 Y175.602 E150.17628
G1 X140.248 Y175.604 E150.26087
G1 X134.474 Y169.83 E150.74974
G1 X134.474 Y169.971 E150.75818
G1 X134.493 Y170.353 E150.78107
G1 X134.57 Y170.956 E150.81747
G1 X134.649 Y171.376 E150.84305
G1 X134.669 Y171.439 E150.84701
G1 X138.641 Y175.41 E151.18326
G1 X138.614 Y175.405 E151.18491
G1 X138.153 Y175.246 E151.2141
G1 X137.682 Y175.049 E151.24467
G1 X137.295 Y174.858 E151.27051
G1 X136.849 Y174.561 E151.30258
G1 X136.465 Y174.263 E151.33168
G1 X136.269 Y174.098 E151.34702
G1 X135.787 Y173.577 E151.38952
G1 X135.497 Y173.202 E151.4179
G1 X135.208 Y172.763 E151.44936
G1 X135.005 Y172.349 E151.47697
G1 X134.833 Y171.935 E151.50381
G1 F2700 E146.50381
G0 F300 X134.833 Y171.935 Z0.444
G0 F9000 X133.852 Y172.344
G0 X134.329 Y173.367
G0 X135.003 Y174.301
G0 X135.791 Y175.088
G0 X136.793 Y175.798
G0 X138.326 Y176.432
G0 X139.353 Y176.631
G0 X146.58 Y176.665
G0 X160.286 Y176.652
G0 X161.359 Y176.494
G0 X161.445 Y175.6
;TIME_ELAPSED:156.845488
;LAYER:-4
;TYPE:SUPPORT-INTERFACE
G1 F2700 E151.50381
G1 F1500 X161.479 Y175.593 E151.5045
G1 X161.523 Y175.582 E151.5054
G1 X162.107 Y175.411 E151.51755
G1 X162.163 Y175.389 E151.51875
G1 X162.564 Y175.2 E151.5276
G1 X137.535 Y175.2 E152.02708
G1 X137.189 Y175.029 E152.03478
G1 X136.845 Y174.8 E152.04302
G1 X163.17 Y174.8 E152.56837
G1 X163.642 Y174.437 E152.58025
G1 X163.686 Y174.4 E152.5814
G1 X136.316 Y174.4 E153.1276
G1 X136.136 Y174.25 E153.13227
G1 X135.904 Y174 E153.13908
G1 X164.106 Y174 E153.70188
G1 X164.257 Y173.845 E153.7062
G1 X164.346 Y173.734 E153.70904
G1 X164.449 Y173.6 E153.71241
G1 X135.552 Y173.6 E154.28908
G1 X135.335 Y173.319 E154.29617
G1 X135.255 Y173.2 E154.29903
G1 X164.746 Y173.2 E154.88755
G1 X164.895 Y172.985 E154.89277
G1 X164.989 Y172.8 E154.89691
G1 X135.003 Y172.8 E155.49532
G1 X134.823 Y172.429 E155.50355
G1 X134.811 Y172.4 E155.50417
G1 X165.188 Y172.4 E156.11038
G1 X165.35 Y172.012 E156.11877
G1 X165.354 Y172 E156.11902
G1 X134.645 Y172 E156.73185
G1 X134.636 Y171.977 E156.73235
G1 X134.512 Y171.6 E156.74027
G1 X165.492 Y171.6 E157.35851
G1 X165.527 Y171.498 E157.36066
G1 X165.586 Y171.2 E157.36672
G1 X134.412 Y171.2 E157.98883
G1 X134.37 Y170.973 E157.99344
G1 X134.347 Y170.8 E157.99692
G1 X165.653 Y170.8 E158.62167
G1 X165.691 Y170.518 E158.62734
G1 X165.698 Y170.4 E158.6297
G1 X134.298 Y170.4 E159.25632
G1 X134.293 Y170.347 E159.25739
G1 X134.275 Y170 E159.26432
G1 X165.724 Y170 E159.89192
G1 X165.724 Y169.6 E159.8999
G1 X134.276 Y169.6 E160.52748
G1 X134.276 Y169.2 E160.53546
G1 X165.724 Y169.2 E161.16304
G1 X165.724 Y168.8 E161.17102
G1 X134.276 Y168.8 E161.7986
G1 X134.276 Y168.4 E161.80659
G1 X165.724 Y168.4 E162.43416
G1 X165.724 Y168 E162.44215
G1 X134.276 Y168 E163.06973
G1 X134.276 Y167.6 E163.07771
G1 X165.724 Y167.6 E163.70529
G1 X165.724 Y167.2 E163.71327
G1 X134.276 Y167.2 E164.34085
G1 X134.276 Y166.8 E164.34883
G1 X165.724 Y166.8 E164.97641
G1 X165.724 Y166.4 E164.98439
G1 X134.276 Y166.4 E165.61197
G1 X134.276 Y166 E165.61995
G1 X165.724 Y166 E166.24753
G1 X165.724 Y165.6 E166.25551
G1 X134.276 Y165.6 E166.88309
G1 X134.276 Y165.2 E166.89108
G1 X165.724 Y165.2 E167.51865
G1 X165.724 Y164.8 E167.52664
G1 X134.276 Y164.8 E168.15422
G1 X134.276 Y164.4 E168.1622
G1 X165.724 Y164.4 E168.78978
G1 X165.724 Y164 E168.79776
G1 X134.276 Y164 E169.42534
G1 X134.276 Y163.6 E169.43332
G1 X165.724 Y163.6 E170.0609
G1 X165.724 Y163.2 E170.06888
G1 X134.276 Y163.2 E170.69646
G1 X134.276 Y162.8 E170.70444
G1 X165.724 Y162.8 E171.33202
G1 X165.724 Y162.4 E171.34
G1 X134.276 Y162.4 E171.96758
G1 X134.276 Y162 E171.97557
G1 X165.724 Y162 E172.60314
G1 X165.724 Y161.6 E172.61113
G1 X134.276 Y161.6 E173.23871
G1 X134.276 Y161.2 E173.24669
G1 X165.724 Y161.2 E173.87427
G1 X165.724 Y160.8 E173.88225
G1 X134.276 Y160.8 E174.50983
G1 X134.276 Y160.4 E174.51781
G1 X165.724 Y160.4 E175.14539
G1 X165.724 Y160 E175.15337
G1 X134.276 Y160 E175.78095
G1 X134.276 Y159.6 E175.78893
G1 X165.724 Y159.6 E176.41651
G1 X165.724 Y159.2 E176.42449
G1 X134.277 Y159.2 E177.05205
G1 X134.277 Y158.8 E177.06004
G1 X165.724 Y158.8 E177.68759
G1 X165.724 Y158.4 E177.69558
G1 X134.277 Y158.4 E178.32314
G1 X134.277 Y158 E178.33112
G1 X165.724 Y158 E178.95868
G1 X165.724 Y157.6 E178.96666
G1 X134.277 Y157.6 E179.59422
G1 X134.277 Y157.2 E179.6022
G1 X165.724 Y157.2 E180.22976
G1 X165.724 Y156.8 E180.23774
G1 X134.277 Y156.8 E180.8653
G1 X134.277 Y156.4 E180.87328
G1 X165.724 Y156.4 E181.50084
G1 X165.724 Y156 E181.50882
G1 X134.277 Y156 E182.13638
G1 X134.277 Y155.6 E182.14437
G1 X165.724 Y155.6 E182.77192
G1 X165.724 Y155.2 E182.77991
G1 X134.277 Y155.2 E183.40747
G1 X134.277 Y154.8 E183.41545
G1 X165.724 Y154.8 E184.04301
