;FLAVOR:Marlin
;TIME:11091
;Filament used: 3.21303m
;Layer height: 0.12
;MINX:133.412
;MINY:123.947
;MINZ:0.144
;MAXX:166.59
;MAXY:175.948
;MAXZ:21.354
;Generated with Cura_SteamEngine 4.12.0
M140 S55
M105
M190 S55
M104 S205
M105
M109 S205
M82 ;absolute extrusion mode
M201 X500.00 Y500.00 Z100.00 E5000.00 ;Setup machine max acceleration
M203 X500.00 Y500.00 Z10.00 E50.00 ;Setup machine max feedrate
M204 P500.00 R1000.00 T500.00 ;Setup Print/Retract/Travel acceleration
M205 X8.00 Y8.00 Z0.40 E5.00 ;Setup Jerk
M220 S100 ;Reset Feedrate
M221 S100 ;Reset Flowrate

G28 ;Home

G92 E0 ;Reset Extruder
G1 Z2.0 F3000 ;Move Z Axis up
G1 X10.1 Y20 Z0.28 F5000.0 ;Move to start position
G1 X10.1 Y200.0 Z0.28 F1500.0 E15 ;Draw the first line
G1 X10.4 Y200.0 Z0.28 F5000.0 ;Move to side a little
G1 X10.4 Y20 Z0.28 F1500.0 E30 ;Draw the second line
G92 E0 ;Reset Extruder
G1 Z2.0 F3000 ;Move Z Axis up

G92 E0
G92 E0
G1 F2700 E-5
;LAYER_COUNT:172
;LAYER:-6
M107
G0 F9000 X136.125 Y126.535 Z0.144
;TYPE:SUPPORT-INTERFACE
G1 F2700 E0
G1 F1125 X136.472 Y126.23 E0.02213
G1 X136.511 Y126.198 E0.02454
G1 X136.858 Y125.932 E0.04548
G1 X137.257 Y125.664 E0.0685
G1 X137.715 Y125.436 E0.09301
G1 X138.166 Y125.249 E0.11639
G1 X138.585 Y125.103 E0.13764
G1 X139.138 Y124.991 E0.16467
G1 X139.638 Y124.929 E0.1888
G1 X140.094 Y124.901 E0.21068
G1 X159.888 Y124.9 E1.1587
G1 X160.211 Y124.912 E1.17418
G1 X160.402 Y124.932 E1.18338
G1 X160.891 Y124.996 E1.207
G1 X161.385 Y125.095 E1.23113
G1 X161.833 Y125.249 E1.25382
G1 X161.885 Y125.268 E1.25647
G1 X162.263 Y125.426 E1.2761
G1 X162.791 Y125.693 E1.30443
G1 X163.124 Y125.919 E1.32371
G1 X163.516 Y126.219 E1.34735
G1 X163.889 Y126.549 E1.3712
G1 X164.216 Y126.922 E1.39496
G1 X164.497 Y127.289 E1.4171
G1 X164.756 Y127.673 E1.43928
G1 X164.993 Y128.148 E1.46471
G1 X165.161 Y128.55 E1.48557
G1 X165.179 Y128.598 E1.48803
G1 X165.329 Y129.04 E1.51038
G1 X165.43 Y129.535 E1.53458
G1 X165.493 Y130.016 E1.55782
G1 X165.514 Y130.225 E1.56788
G1 X165.525 Y130.53 E1.58249
G1 X165.524 Y138.254 E1.95243
G1 X165.496 Y138.656 E1.97173
G1 X165.497 Y138.834 E1.98026
G1 X165.525 Y139.188 E1.99726
G1 X165.525 Y160.797 E3.03222
G1 X165.512 Y160.973 E3.04067
G1 X165.47 Y160.973 E3.04268
G1 X165.514 Y161.482 E3.06715
G1 X165.525 Y161.768 E3.08086
G1 X165.524 Y169.492 E3.4508
G1 X165.511 Y169.805 E3.4658
G1 X165.494 Y169.972 E3.47384
G1 X165.432 Y170.454 E3.49712
G1 X165.332 Y170.95 E3.52135
G1 X165.326 Y170.973 E3.52249
G1 X165.166 Y171.437 E3.546
G1 X164.985 Y171.868 E3.56838
G1 X164.73 Y172.37 E3.59535
G1 X164.494 Y172.716 E3.61541
G1 X164.22 Y173.073 E3.63697
G1 X163.893 Y173.447 E3.66076
G1 X163.882 Y173.459 E3.66154
G1 X163.493 Y173.799 E3.68628
G1 X163.137 Y174.071 E3.70774
G1 X162.751 Y174.332 E3.73006
G1 X162.277 Y174.568 E3.75542
G1 X161.834 Y174.751 E3.77837
G1 X161.413 Y174.896 E3.7997
G1 X160.902 Y175.001 E3.82469
G1 X160.862 Y175.008 E3.82663
G1 X160.398 Y175.068 E3.84904
G1 X160.173 Y175.09 E3.85987
G1 X159.885 Y175.1 E3.87367
G1 X140.077 Y175.099 E4.82236
G1 X139.789 Y175.088 E4.83617
G1 X139.596 Y175.068 E4.84546
G1 X139.11 Y175.004 E4.86894
G1 X138.637 Y174.91 E4.89204
G1 X138.158 Y174.749 E4.91624
G1 X137.738 Y174.575 E4.93801
G1 X137.311 Y174.368 E4.96074
G1 X136.876 Y174.08 E4.98573
G1 X136.831 Y174.048 E4.98837
G1 X136.47 Y173.768 E5.01025
G1 X136.113 Y173.452 E5.03309
G1 X135.772 Y173.063 E5.05786
G1 X135.505 Y172.715 E5.07887
G1 X135.243 Y172.325 E5.10137
G1 X135.007 Y171.852 E5.12669
G1 X134.817 Y171.39 E5.15062
G1 X134.667 Y170.945 E5.17311
G1 X134.568 Y170.451 E5.19724
G1 X134.506 Y169.972 E5.22037
G1 X134.488 Y169.791 E5.22908
G1 X134.475 Y169.47 E5.24447
G1 X134.476 Y161.73 E5.61517
G1 X134.504 Y161.343 E5.63376
G1 X134.503 Y161.165 E5.64228
G1 X134.475 Y160.803 E5.65967
G1 X134.478 Y139.209 E6.69391
G1 X134.503 Y138.843 E6.71148
G1 X134.493 Y138.578 E6.72418
G1 X134.476 Y138.27 E6.73895
G1 X134.475 Y130.537 E7.10932
G1 X134.488 Y130.201 E7.12543
G1 X134.506 Y130.028 E7.13376
G1 X134.57 Y129.535 E7.15757
G1 X134.667 Y129.054 E7.18107
G1 X134.674 Y129.027 E7.1824
G1 X134.84 Y128.547 E7.20673
G1 X135 Y128.164 E7.22661
G1 X135.268 Y127.634 E7.25505
G1 X135.494 Y127.301 E7.27433
G1 X135.779 Y126.927 E7.29685
G1 X136.125 Y126.535 E7.32189
G0 F9000 X136 Y126.676
G1 F1125 X136 Y173.323 E9.55603
G0 F9000 X137.6 Y174.508
G1 F1125 X137.6 Y125.493 E11.90358
G0 F9000 X139.2 Y124.983
G1 F1125 X139.2 Y175.015 E14.29985
G0 F9000 X140.8 Y175.099
G1 F1125 X140.8 Y124.9 E16.70411
G0 F9000 X142.4 Y124.9
G1 F1125 X142.4 Y175.099 E19.10837
G0 F9000 X144 Y175.099
G1 F1125 X144 Y124.9 E21.51263
G0 F9000 X145.6 Y124.9
G1 F1125 X145.6 Y175.099 E23.91689
G0 F9000 X147.2 Y175.099
G1 F1125 X147.2 Y124.9 E26.32115
G0 F9000 X148.8 Y124.9
G1 F1125 X148.8 Y175.099 E28.72541
G0 F9000 X150.4 Y175.099
G1 F1125 X150.4 Y124.9 E31.12967
G0 F9000 X152 Y124.9
G1 F1125 X152 Y175.099 E33.53393
G0 F9000 X153.6 Y175.099
G1 F1125 X153.6 Y124.9 E35.93819
G0 F9000 X155.2 Y124.9
G1 F1125 X155.2 Y175.099 E38.34245
G0 F9000 X156.8 Y175.099
G1 F1125 X156.8 Y124.9 E40.74672
G0 F9000 X158.4 Y124.9
G1 F1125 X158.4 Y175.099 E43.15098
G0 F9000 X160 Y175.097
G1 F1125 X160 Y124.905 E45.5549
G0 F9000 X161.6 Y125.169
G1 F1125 X161.6 Y174.832 E47.93349
G0 F9000 X163.2 Y174.023
G1 F1125 X163.2 Y125.978 E50.23459
G0 F9000 X164.8 Y127.762
G1 F1125 X164.8 Y172.233 E52.36451
G0 F300 X164.8 Y172.233 Z0.324
G0 F9000 X164.219 Y173.072
;TIME_ELAPSED:65.102268
;LAYER:-5
;TYPE:SUPPORT
G1 F1125 X164.379 Y172.864 E52.38022
G1 X134.476 Y142.962 E54.91196
G1 X134.476 Y141.547 E54.99667
G1 X164.922 Y171.993 E57.57443
G1 X164.984 Y171.867 E57.58283
G1 X165.166 Y171.436 E57.61084
G1 X165.323 Y170.98 E57.63972
G1 X134.476 Y140.133 E60.25142
G1 X134.477 Y139.208 E60.3068
G1 X134.503 Y138.841 E60.32883
G1 X134.498 Y138.741 E60.33482
G1 X165.513 Y169.755 E62.96071
G1 X165.524 Y169.491 E62.97653
G1 X165.524 Y168.352 E63.04472
G1 X134.474 Y137.303 E65.67357
G1 X134.474 Y135.888 E65.75828
G1 X165.524 Y166.938 E68.38718
G1 X165.524 Y165.524 E68.47183
G1 X134.474 Y134.474 E71.10073
G1 X134.474 Y133.06 E71.18538
G1 X165.524 Y164.11 E73.81428
G1 X165.524 Y162.696 E73.89893
G1 X134.474 Y131.646 E76.52782
G1 X134.475 Y130.501 E76.59637
G1 X134.485 Y130.242 E76.61189
G1 X165.494 Y161.251 E79.23731
G1 X165.469 Y160.973 E79.25402
G1 X165.511 Y160.972 E79.25654
G1 X165.524 Y160.796 E79.2671
G1 X165.524 Y159.867 E79.32272
G1 X134.675 Y129.018 E81.9346
G1 X134.838 Y128.547 E81.96444
G1 X134.999 Y128.164 E81.98931
G1 X135.078 Y128.007 E81.99983
G1 X165.524 Y158.453 E84.57759
G1 X165.524 Y157.039 E84.66224
G1 X135.62 Y127.134 E87.19415
G1 X135.778 Y126.927 E87.20974
G1 X136.124 Y126.534 E87.24109
G1 X136.289 Y126.39 E87.2542
G1 X165.524 Y155.625 E89.72942
G1 X165.524 Y154.21 E89.81414
G1 X137.09 Y125.776 E92.22154
G1 X137.256 Y125.664 E92.23353
G1 X137.713 Y125.435 E92.26413
G1 X138.032 Y125.304 E92.28478
G1 X165.524 Y152.796 E94.61243
G1 X165.524 Y151.382 E94.69708
G1 X139.134 Y124.992 E96.93143
G0 F9000 X139.137 Y124.991
G1 F1125 X139.637 Y124.929 E96.9616
G1 X139.79 Y124.912 E96.97081
G1 X140.128 Y124.899 E96.99106
G1 X140.456 Y124.9 E97.0107
G1 X165.524 Y149.968 E99.13312
G1 X165.524 Y148.553 E99.21783
G1 X141.871 Y124.9 E101.22045
G1 X143.285 Y124.9 E101.3051
G1 X165.524 Y147.139 E103.188
G1 X165.524 Y145.725 E103.27265
G1 X144.699 Y124.9 E105.03583
G1 X146.113 Y124.9 E105.12049
G1 X165.524 Y144.311 E106.76395
G1 X165.524 Y142.897 E106.8486
G1 X147.527 Y124.9 E108.37235
G1 X148.942 Y124.9 E108.45706
G1 X165.524 Y141.482 E109.861
G1 X165.524 Y140.068 E109.94565
G1 X150.356 Y124.9 E111.22987
G1 X151.77 Y124.9 E111.31453
G1 X165.496 Y138.626 E112.47666
G1 X165.523 Y138.254 E112.49899
G1 X165.523 Y137.239 E112.55976
G1 X153.184 Y124.9 E113.60445
G1 X154.598 Y124.9 E113.68911
G1 X165.523 Y135.825 E114.61409
G1 X165.523 Y134.411 E114.69874
G1 X156.013 Y124.9 E115.50396
G1 X157.427 Y124.9 E115.58862
G1 X165.524 Y132.997 E116.27416
G1 X165.524 Y131.583 E116.35882
G1 X158.841 Y124.9 E116.92464
G1 X159.922 Y124.9 E116.98936
G1 X160.21 Y124.911 E117.00661
G1 X160.274 Y124.918 E117.01047
G1 X165.506 Y130.151 E117.45349
G1 X165.492 Y130.015 E117.46167
G1 X165.429 Y129.534 E117.49071
G1 X165.328 Y129.039 E117.52096
G1 X165.178 Y128.597 E117.5489
G1 X165.16 Y128.55 E117.55192
G1 X165.045 Y128.276 E117.56971
G1 X162.148 Y125.378 E117.81503
G1 X162.261 Y125.425 E117.82235
G1 X162.79 Y125.692 E117.85783
G1 X163.123 Y125.919 E117.88196
G1 X163.514 Y126.219 E117.91146
G1 X163.888 Y126.548 E117.94128
G1 X164.214 Y126.922 E117.97099
G1 X164.496 Y127.288 E117.99865
G1 X164.755 Y127.673 E118.02643
G1 X164.992 Y128.147 E118.05815
G1 F2700 E113.05815
G0 F9000 X166.153 Y128.165
G0 X166.544 Y129.558
G0 X166.59 Y130.522
G0 X166.574 Y169.852
G0 X166.341 Y171.293
G0 X165.939 Y172.339
G0 X165.345 Y173.355
G0 X164.219 Y173.072
G1 F2700 E118.05815
G1 F1125 X163.893 Y173.446 E118.08786
G1 X163.882 Y173.458 E118.08883
G1 X163.709 Y173.608 E118.10254
G1 X134.476 Y144.376 E120.57755
G1 X134.476 Y145.79 E120.66221
G1 X162.909 Y174.223 E123.06953
G1 X162.75 Y174.331 E123.08104
G1 X162.276 Y174.567 E123.11274
G1 X161.967 Y174.694 E123.13274
G1 X134.476 Y147.204 E125.46026
G1 X134.476 Y148.618 E125.54492
G1 X160.863 Y175.006 E127.77905
G0 F9000 X160.861 Y175.006
G1 F1125 X160.397 Y175.067 E127.80707
G1 X160.208 Y175.087 E127.81845
G1 X159.885 Y175.099 E127.8378
G1 X159.542 Y175.098 E127.85833
G1 X134.476 Y150.032 E129.98058
G1 X134.476 Y151.446 E130.06524
G1 X158.128 Y175.098 E132.06777
G1 X156.713 Y175.098 E132.15248
G1 X134.476 Y152.86 E134.03525
G1 X134.475 Y154.274 E134.11991
G1 X155.299 Y175.098 E135.883
G1 X153.885 Y175.098 E135.96766
G1 X134.475 Y155.688 E137.61103
G1 X134.475 Y157.102 E137.69569
G1 X152.471 Y175.098 E139.21934
G1 X151.057 Y175.098 E139.304
G1 X134.475 Y158.517 E140.70789
G1 X134.475 Y159.931 E140.79255
G1 X149.642 Y175.098 E142.07668
G1 X148.228 Y175.098 E142.16134
G1 X134.501 Y161.371 E143.32356
G1 X134.476 Y161.729 E143.34504
G1 X134.475 Y162.759 E143.4067
G1 X146.814 Y175.098 E144.4514
G1 X145.4 Y175.098 E144.53606
G1 X134.475 Y164.173 E145.46104
G1 X134.475 Y165.588 E145.54575
G1 X143.986 Y175.098 E146.35097
G1 X142.571 Y175.098 E146.43569
G1 X134.474 Y167.001 E147.12123
G1 X134.474 Y168.415 E147.20589
G1 X141.157 Y175.098 E147.77171
G1 X140.077 Y175.098 E147.83637
G1 X139.788 Y175.087 E147.85368
G1 X139.725 Y175.08 E147.85748
G1 X134.493 Y169.849 E148.30041
G1 X134.505 Y169.971 E148.30775
G1 X134.568 Y170.45 E148.33667
G1 X134.667 Y170.944 E148.36684
G1 X134.816 Y171.389 E148.39493
G1 X134.954 Y171.723 E148.41657
G1 X137.851 Y174.62 E148.66185
G1 X137.738 Y174.574 E148.66915
G1 X137.31 Y174.367 E148.69761
G1 X136.876 Y174.079 E148.7288
G1 X136.83 Y174.047 E148.73215
G1 X136.47 Y173.767 E148.75946
G1 X136.113 Y173.451 E148.788
G1 X135.772 Y173.062 E148.81897
G1 X135.504 Y172.714 E148.84527
G1 X135.243 Y172.324 E148.87336
G1 X135.007 Y171.851 E148.90501
G1 F2700 E143.90501
G0 F300 X135.007 Y171.851 Z0.444
G0 F9000 X134.297 Y172.813
G0 X134.987 Y173.784
G0 X135.846 Y174.632
G0 X136.809 Y175.306
G0 X137.642 Y175.651
G0 X138.403 Y175.948
G0 X139.09 Y175.204
;TIME_ELAPSED:154.047407
;LAYER:-4
;TYPE:SUPPORT-INTERFACE
G1 F2700 E148.90501
G1 F1500 X139.564 Y175.266 E148.91455
G1 X139.759 Y175.286 E148.91846
G1 X139.844 Y175.291 E148.92016
G1 X140.07 Y175.299 E148.92467
G1 X159.89 Y175.3 E149.3202
G1 X160.153 Y175.291 E149.32545
G1 X160.238 Y175.286 E149.32715
G1 X160.43 Y175.266 E149.331
G1 X160.886 Y175.207 E149.34018
G1 X160.925 Y175.2 E149.34097
G1 X139.07 Y175.2 E149.77711
G1 X138.569 Y175.099 E149.78731
G1 X138.08 Y174.934 E149.79761
G1 X137.758 Y174.8 E149.80457
G1 X162.238 Y174.8 E150.29309
G1 X162.37 Y174.746 E150.29594
G1 X162.835 Y174.514 E150.30631
G1 X162.863 Y174.498 E150.30695
G1 X163.008 Y174.4 E150.31045
G1 X136.998 Y174.4 E150.8295
G1 X136.715 Y174.211 E150.83629
G1 X136.442 Y174 E150.84318
G1 X163.559 Y174 E151.38433
G1 X163.623 Y173.951 E151.38594
G1 X164.014 Y173.609 E151.3963
G1 X164.021 Y173.6 E151.39653
G1 X135.978 Y173.6 E151.95616
G1 X135.962 Y173.585 E151.9566
G1 X135.626 Y173.2 E151.9668
G1 X164.374 Y173.2 E152.54049
G1 X164.673 Y172.809 E152.55032
G1 X164.679 Y172.8 E152.55053
G1 X135.321 Y172.8 E153.1364
G1 X135.076 Y172.436 E153.14516
G1 X135.057 Y172.4 E153.14597
G1 X164.939 Y172.4 E153.7423
G1 X165.143 Y172 E153.75126
G1 X134.857 Y172 E154.35565
G1 X134.828 Y171.942 E154.35694
G1 X134.686 Y171.6 E154.36433
G1 X165.314 Y171.6 E154.97555
G1 X165.35 Y171.514 E154.97741
G1 X165.457 Y171.2 E154.98403
G1 X134.54 Y171.2 E155.60101
G1 X134.478 Y171.014 E155.60492
G1 X134.434 Y170.8 E155.60928
G1 X165.565 Y170.8 E156.23054
G1 X165.631 Y170.478 E156.2371
G1 X165.641 Y170.4 E156.23866
G1 X134.358 Y170.4 E156.86295
G1 X134.307 Y170 E156.871
G1 X165.692 Y170 E157.49732
G0 F9000 X165.693 Y169.997
G1 F1500 X165.71 Y169.829 E157.50069
G1 X165.719 Y169.6 E157.50526
G1 X134.28 Y169.6 E158.13266
G1 X134.275 Y169.47 E158.13526
G1 X134.276 Y169.2 E158.14065
G1 X165.724 Y169.2 E158.76822
G1 X165.724 Y168.8 E158.77621
G1 X134.276 Y168.8 E159.40379
G1 X134.276 Y168.4 E159.41177
G1 X165.724 Y168.4 E160.03935
G1 X165.724 Y168 E160.04733
G1 X134.276 Y168 E160.67491
G1 X134.276 Y167.6 E160.68289
G1 X165.724 Y167.6 E161.31047
G1 X165.724 Y167.2 E161.31845
G1 X134.276 Y167.2 E161.94603
G1 X134.276 Y166.8 E161.95401
G1 X165.724 Y166.8 E162.58159
G1 X165.724 Y166.4 E162.58957
G1 X134.276 Y166.4 E163.21715
G1 X134.276 Y166 E163.22514
G1 X165.724 Y166 E163.85271
G1 X165.724 Y165.6 E163.8607
G1 X134.276 Y165.6 E164.48828
G1 X134.276 Y165.2 E164.49626
G1 X165.724 Y165.2 E165.12384
G1 X165.724 Y164.8 E165.13182
G1 X134.276 Y164.8 E165.7594
G1 X134.276 Y164.4 E165.76738
G1 X165.724 Y164.4 E166.39496
G1 X165.724 Y164 E166.40294
G1 X134.276 Y164 E167.03052
G1 X134.276 Y163.6 E167.0385
G1 X165.724 Y163.6 E167.66608
G1 X165.724 Y163.2 E167.67406
G1 X134.276 Y163.2 E168.30164
G1 X134.276 Y162.8 E168.30963
G1 X165.724 Y162.8 E168.93721
G1 X165.724 Y162.4 E168.94519
G1 X134.276 Y162.4 E169.57277
G1 X134.276 Y162 E169.58075
G1 X165.724 Y162 E170.20833
G1 X165.725 Y161.768 E170.21296
G1 X165.719 Y161.6 E170.21631
G1 X134.286 Y161.6 E170.84359
G1 X134.304 Y161.336 E170.84887
G1 X134.303 Y161.2 E170.85159
G1 X165.691 Y161.2 E171.47797
G1 X165.688 Y161.173 E171.47851
G1 X165.699 Y161.173 E171.47873
G1 X165.724 Y160.811 E171.48597
G1 X165.724 Y160.8 E171.48619
G1 X134.276 Y160.8 E172.11377
G1 X134.276 Y160.4 E172.12175
G1 X165.724 Y160.4 E172.74933
G1 X165.724 Y160 E172.75731
G1 X134.276 Y160 E173.38489
G1 X134.276 Y159.6 E173.39287
G1 X165.724 Y159.6 E174.02045
G1 X165.724 Y159.2 E174.02844
G1 X134.276 Y159.2 E174.65601
G1 X134.276 Y158.8 E174.664
G1 X165.724 Y158.8 E175.29158
G1 X165.724 Y158.4 E175.29956
G1 X134.276 Y158.4 E175.92714
G1 X134.276 Y158 E175.93512
G1 X165.724 Y158 E176.5627
G1 X165.724 Y157.6 E176.57068
G1 X134.276 Y157.6 E177.19826
G1 X134.276 Y157.2 E177.20624
G1 X165.724 Y157.2 E177.83382
G1 X165.724 Y156.8 E177.8418
G1 X134.276 Y156.8 E178.46938
G1 X134.276 Y156.4 E178.47736
G1 X165.724 Y156.4 E179.10494
G1 X165.724 Y156 E179.11293
G1 X134.276 Y156 E179.7405
G1 X134.276 Y155.6 E179.74849
G1 X165.724 Y155.6 E180.37607
G1 X165.724 Y155.2 E180.38405
G1 X134.276 Y155.2 E181.01163
G1 X134.276 Y154.8 E181.01961
G1 X165.724 Y154.8 E181.64719
G1 X165.724 Y154.4 E181.65517
G1 X134.276 Y154.4 E182.28275
G1 X134.276 Y154 E182.29073
G1 X165.724 Y154 E182.91831
G1 X165.724 Y153.6 E182.92629
G1 X134.277 Y153.6 E183.55385
G1 X134.277 Y153.2 E183.56183
G1 X165.724 Y153.2 E184.18939
G1 X165.724 Y152.8 E184.19738
G1 X134.277 Y152.8 E184.82493
G1 X134.277 Y152.4 E184.83292
G1 X165.724 Y152.4 E185.46048
G1 X165.724 Y152 E185.46846
G1 X134.277 Y152 E186.09602
G1 X134.277 Y151.6 E186.104
G1 X165.724 Y151.6 E186.73156
G1 X165.724 Y151.2 E186.73954
G1 X134.277 Y151.2 E187.3671
G1 X134.277 Y150.8 E187.37508
G1 X165.724 Y150.8 E188.00264
G1 X165.724 Y150.4 E188.01062
G1 X134.277 Y150.4 E188.63818
G1 X134.277 Y150 E188.64617
G1 X165.724 Y150 E189.27372
G1 X165.724 Y149.6 E189.28171
G1 X134.277 Y149.6 E189.90927
