;FLAVOR:Marlin
;TIME:10944
;Filament used: 3.1587m
;Layer height: 0.12
;MINX:133.412
;MINY:123.947
;MINZ:0.144
;MAXX:166.59
;MAXY:175.947
;MAXZ:21.354
;Generated with Cura_SteamEngine 4.12.0
M140 S55
M105
M190 S55
M104 S205
M105
M109 S205
M82 ;absolute extrusion mode
M201 X500.00 Y500.00 Z100.00 E5000.00 ;Setup machine max acceleration
M203 X500.00 Y500.00 Z10.00 E50.00 ;Setup machine max feedrate
M204 P500.00 R1000.00 T500.00 ;Setup Print/Retract/Travel acceleration
M205 X8.00 Y8.00 Z0.40 E5.00 ;Setup Jerk
M220 S100 ;Reset Feedrate
M221 S100 ;Reset Flowrate

G28 ;Home

G92 E0 ;Reset Extruder
G1 Z2.0 F3000 ;Move Z Axis up
G1 X10.1 Y20 Z0.28 F5000.0 ;Move to start position
G1 X10.1 Y200.0 Z0.28 F1500.0 E15 ;Draw the first line
G1 X10.4 Y200.0 Z0.28 F5000.0 ;Move to side a little
G1 X10.4 Y20 Z0.28 F1500.0 E30 ;Draw the second line
G92 E0 ;Reset Extruder
G1 Z2.0 F3000 ;Move Z Axis up

G92 E0
G92 E0
G1 F2700 E-5
;LAYER_COUNT:172
;LAYER:-6
M107
G0 F9000 X136.125 Y126.535 Z0.144
;TYPE:SUPPORT-INTERFACE
G1 F2700 E0
G1 F1125 X136.472 Y126.23 E0.02213
G1 X136.511 Y126.198 E0.02454
G1 X136.858 Y125.932 E0.04548
G1 X137.252 Y125.666 E0.06825
G1 X137.718 Y125.434 E0.09318
G1 X138.166 Y125.249 E0.1164
G1 X138.587 Y125.104 E0.13772
G1 X139.098 Y124.999 E0.16271
G1 X139.138 Y124.992 E0.16465
G1 X139.6 Y124.932 E0.18697
G1 X139.827 Y124.91 E0.19789
G1 X140.115 Y124.9 E0.21169
G1 X159.923 Y124.901 E1.16039
G1 X160.211 Y124.912 E1.17419
G1 X160.402 Y124.932 E1.18339
G1 X160.891 Y124.996 E1.20701
G1 X161.385 Y125.095 E1.23114
G1 X161.833 Y125.249 E1.25383
G1 X161.885 Y125.268 E1.25648
G1 X162.267 Y125.428 E1.27632
G1 X162.791 Y125.693 E1.30444
G1 X163.124 Y125.919 E1.32372
G1 X163.516 Y126.219 E1.34736
G1 X163.889 Y126.549 E1.37121
G1 X164.216 Y126.922 E1.39497
G1 X164.497 Y127.289 E1.41711
G1 X164.756 Y127.673 E1.43929
G1 X164.993 Y128.148 E1.46471
G1 X165.161 Y128.55 E1.48558
G1 X165.179 Y128.598 E1.48804
G1 X165.329 Y129.04 E1.51039
G1 X165.43 Y129.535 E1.53459
G1 X165.493 Y130.016 E1.55782
G1 X165.514 Y130.225 E1.56788
G1 X165.525 Y130.53 E1.5825
G1 X165.524 Y138.254 E1.95244
G1 X165.496 Y138.656 E1.97174
G1 X165.497 Y138.834 E1.98026
G1 X165.525 Y139.188 E1.99727
G1 X165.525 Y160.797 E3.03223
G1 X165.512 Y160.973 E3.04068
G1 X165.47 Y160.973 E3.04269
G1 X165.514 Y161.482 E3.06716
G1 X165.525 Y161.768 E3.08087
G1 X165.524 Y169.492 E3.45081
G1 X165.511 Y169.805 E3.46581
G1 X165.494 Y169.972 E3.47385
G1 X165.432 Y170.454 E3.49712
G1 X165.332 Y170.95 E3.52136
G1 X165.326 Y170.973 E3.5225
G1 X165.166 Y171.437 E3.546
G1 X164.985 Y171.868 E3.56839
G1 X164.73 Y172.37 E3.59536
G1 X164.494 Y172.716 E3.61542
G1 X164.22 Y173.073 E3.63697
G1 X163.893 Y173.447 E3.66077
G1 X163.882 Y173.459 E3.66155
G1 X163.503 Y173.791 E3.68568
G1 X163.137 Y174.071 E3.70775
G1 X162.751 Y174.332 E3.73007
G1 X162.277 Y174.568 E3.75543
G1 X161.84 Y174.749 E3.77808
G1 X161.413 Y174.896 E3.79971
G1 X160.902 Y175.001 E3.82469
G1 X160.862 Y175.008 E3.82664
G1 X160.398 Y175.068 E3.84905
G1 X160.173 Y175.09 E3.85988
G1 X159.885 Y175.1 E3.87368
G1 X140.077 Y175.099 E4.82237
G1 X139.789 Y175.088 E4.83618
G1 X139.598 Y175.068 E4.84538
G1 X139.109 Y175.004 E4.869
G1 X138.612 Y174.904 E4.89328
G1 X138.167 Y174.751 E4.91581
G1 X138.115 Y174.732 E4.91847
G1 X137.733 Y174.572 E4.9383
G1 X137.212 Y174.309 E4.96625
G1 X136.87 Y174.077 E4.98605
G1 X136.486 Y173.782 E5.00924
G1 X136.113 Y173.453 E5.03306
G1 X135.772 Y173.063 E5.05787
G1 X135.505 Y172.715 E5.07888
G1 X135.243 Y172.325 E5.10138
G1 X135.007 Y171.852 E5.1267
G1 X134.817 Y171.39 E5.15062
G1 X134.667 Y170.945 E5.17312
G1 X134.568 Y170.451 E5.19725
G1 X134.506 Y169.972 E5.22038
G1 X134.488 Y169.791 E5.22909
G1 X134.475 Y169.47 E5.24448
G1 X134.476 Y161.73 E5.61518
G1 X134.504 Y161.343 E5.63377
G1 X134.503 Y161.165 E5.64229
G1 X134.475 Y160.803 E5.65968
G1 X134.478 Y139.209 E6.69392
G1 X134.503 Y138.843 E6.71149
G1 X134.493 Y138.578 E6.72419
G1 X134.476 Y138.27 E6.73896
G1 X134.475 Y130.537 E7.10933
G1 X134.488 Y130.201 E7.12544
G1 X134.506 Y130.028 E7.13377
G1 X134.57 Y129.535 E7.15758
G1 X134.667 Y129.054 E7.18108
G1 X134.674 Y129.027 E7.18241
G1 X134.84 Y128.547 E7.20674
G1 X135 Y128.164 E7.22662
G1 X135.268 Y127.634 E7.25506
G1 X135.494 Y127.301 E7.27434
G1 X135.779 Y126.927 E7.29686
G1 X136.125 Y126.535 E7.3219
G0 F9000 X136 Y126.676
G1 F1125 X136 Y173.323 E9.55604
G0 F9000 X137.6 Y174.504
G1 F1125 X137.6 Y125.492 E11.90345
G0 F9000 X139.2 Y124.983
G1 F1125 X139.2 Y175.015 E14.29971
G0 F9000 X140.8 Y175.099
G1 F1125 X140.8 Y124.901 E16.70393
G0 F9000 X142.4 Y124.901
G1 F1125 X142.4 Y175.099 E19.10814
G0 F9000 X144 Y175.099
G1 F1125 X144 Y124.901 E21.51235
G0 F9000 X145.6 Y124.901
G1 F1125 X145.6 Y175.099 E23.91656
G0 F9000 X147.2 Y175.099
G1 F1125 X147.2 Y124.901 E26.32078
G0 F9000 X148.8 Y124.901
G1 F1125 X148.8 Y175.099 E28.72499
G0 F9000 X150.4 Y175.099
G1 F1125 X150.4 Y124.901 E31.1292
G0 F9000 X152 Y124.901
G1 F1125 X152 Y175.099 E33.53342
G0 F9000 X153.6 Y175.099
G1 F1125 X153.6 Y124.901 E35.93763
G0 F9000 X155.2 Y124.901
G1 F1125 X155.2 Y175.099 E38.34184
G0 F9000 X156.8 Y175.099
G1 F1125 X156.8 Y124.901 E40.74605
G0 F9000 X158.4 Y124.901
G1 F1125 X158.4 Y175.099 E43.15027
G0 F9000 X160 Y175.097
G1 F1125 X160 Y124.904 E45.55424
G0 F9000 X161.6 Y125.169
G1 F1125 X161.6 Y174.832 E47.93283
G0 F9000 X163.2 Y174.023
G1 F1125 X163.2 Y125.978 E50.23393
G0 F9000 X164.8 Y127.762
G1 F1125 X164.8 Y172.233 E52.36385
G0 F300 X164.8 Y172.233 Z0.324
G0 F9000 X164.219 Y173.072
;TIME_ELAPSED:65.101457
;LAYER:-5
;TYPE:SUPPORT
G1 F1125 X164.379 Y172.864 E52.37956
G1 X134.476 Y142.962 E54.9113
G1 X134.476 Y141.547 E54.99601
G1 X164.922 Y171.993 E57.57376
G1 X164.984 Y171.867 E57.58217
G1 X165.166 Y171.436 E57.61018
G1 X165.323 Y170.98 E57.63905
G1 X134.476 Y140.133 E60.25076
G1 X134.477 Y139.208 E60.30614
G1 X134.503 Y138.841 E60.32817
G1 X134.498 Y138.741 E60.33416
G1 X165.513 Y169.755 E62.96005
G1 X165.524 Y169.491 E62.97587
G1 X165.524 Y168.352 E63.04406
G1 X134.474 Y137.303 E65.67291
G1 X134.474 Y135.888 E65.75762
G1 X165.524 Y166.938 E68.38652
G1 X165.524 Y165.524 E68.47117
G1 X134.474 Y134.474 E71.10007
G1 X134.474 Y133.06 E71.18472
G1 X165.524 Y164.11 E73.81361
G1 X165.524 Y162.696 E73.89827
G1 X134.474 Y131.646 E76.52716
G1 X134.475 Y130.501 E76.59571
G1 X134.485 Y130.242 E76.61123
G1 X165.494 Y161.251 E79.23665
G1 X165.469 Y160.973 E79.25336
G1 X165.511 Y160.972 E79.25588
G1 X165.524 Y160.796 E79.26644
G1 X165.524 Y159.867 E79.32206
G1 X134.675 Y129.018 E81.93394
G1 X134.838 Y128.547 E81.96377
G1 X134.999 Y128.164 E81.98865
G1 X135.078 Y128.007 E81.99917
G1 X165.524 Y158.453 E84.57693
G1 X165.524 Y157.039 E84.66158
G1 X135.62 Y127.134 E87.19349
G1 X135.778 Y126.927 E87.20908
G1 X136.124 Y126.534 E87.24043
G1 X136.289 Y126.39 E87.25354
G1 X165.524 Y155.625 E89.72876
G1 X165.524 Y154.21 E89.81348
G1 X137.089 Y125.775 E92.22097
G1 X137.251 Y125.666 E92.23266
G1 X137.717 Y125.433 E92.26385
G1 X138.032 Y125.304 E92.28423
G1 X165.524 Y152.796 E94.61188
G1 X165.524 Y151.382 E94.69653
G1 X139.135 Y124.993 E96.93079
G0 F9000 X139.137 Y124.992
G1 F1125 X139.599 Y124.932 E96.95869
G1 X139.826 Y124.91 E96.97234
G1 X140.113 Y124.899 E96.98953
G1 X140.456 Y124.9 E97.01007
G1 X165.524 Y149.968 E99.13249
G1 X165.524 Y148.553 E99.2172
G1 X141.871 Y124.9 E101.21982
G1 X143.285 Y124.9 E101.30447
G1 X165.524 Y147.139 E103.18737
G1 X165.524 Y145.725 E103.27202
G1 X144.699 Y124.9 E105.0352
G1 X146.113 Y124.9 E105.11986
G1 X165.524 Y144.311 E106.76332
G1 X165.524 Y142.897 E106.84797
G1 X147.527 Y124.9 E108.37171
G1 X148.942 Y124.9 E108.45643
G1 X165.524 Y141.482 E109.86037
G1 X165.524 Y140.068 E109.94502
G1 X150.356 Y124.9 E111.22924
G1 X151.77 Y124.9 E111.3139
G1 X165.496 Y138.626 E112.47603
G1 X165.523 Y138.254 E112.49836
G1 X165.523 Y137.239 E112.55912
G1 X153.184 Y124.9 E113.60382
G1 X154.598 Y124.9 E113.68848
G1 X165.523 Y135.825 E114.61346
G1 X165.523 Y134.411 E114.69811
G1 X156.013 Y124.9 E115.50333
G1 X157.427 Y124.9 E115.58799
G1 X165.524 Y132.997 E116.27353
G1 X165.524 Y131.583 E116.35819
G1 X158.841 Y124.9 E116.92401
G1 X159.922 Y124.9 E116.98873
G1 X160.21 Y124.911 E117.00598
G1 X160.274 Y124.918 E117.00984
G1 X165.506 Y130.151 E117.45286
G1 X165.492 Y130.015 E117.46104
G1 X165.429 Y129.534 E117.49008
G1 X165.328 Y129.039 E117.52033
G1 X165.178 Y128.597 E117.54827
G1 X165.16 Y128.55 E117.55129
G1 X165.045 Y128.276 E117.56908
G1 X162.148 Y125.378 E117.8144
G1 X162.266 Y125.428 E117.82207
G1 X162.79 Y125.692 E117.8572
G1 X163.123 Y125.919 E117.88132
G1 X163.514 Y126.219 E117.91083
G1 X163.888 Y126.548 E117.94065
G1 X164.214 Y126.922 E117.97035
G1 X164.496 Y127.288 E117.99801
G1 X164.755 Y127.673 E118.02579
G1 X164.992 Y128.147 E118.05752
G1 F2700 E113.05752
G0 F9000 X166.153 Y128.165
G0 X166.544 Y129.558
G0 X166.59 Y130.522
G0 X166.574 Y169.852
G0 X166.341 Y171.293
G0 X165.939 Y172.339
G0 X165.345 Y173.355
G0 X164.219 Y173.072
G1 F2700 E118.05752
G1 F1125 X163.893 Y173.446 E118.08722
G1 X163.882 Y173.458 E118.0882
G1 X163.709 Y173.608 E118.10191
G1 X134.476 Y144.376 E120.57692
G1 X134.476 Y145.79 E120.66157
G1 X162.909 Y174.223 E123.0689
G1 X162.75 Y174.331 E123.0804
G1 X162.276 Y174.567 E123.1121
G1 X161.967 Y174.695 E123.13213
G1 X134.476 Y147.204 E125.45969
G1 X134.476 Y148.618 E125.54435
G1 X160.863 Y175.006 E127.77848
G0 F9000 X160.861 Y175.006
G1 F1125 X160.397 Y175.067 E127.8065
G1 X160.208 Y175.087 E127.81788
G1 X159.885 Y175.099 E127.83723
G1 X159.542 Y175.098 E127.85777
G1 X134.476 Y150.032 E129.98002
G1 X134.476 Y151.446 E130.06467
G1 X158.128 Y175.098 E132.0672
G1 X156.713 Y175.098 E132.15191
G1 X134.476 Y152.86 E134.03469
G1 X134.475 Y154.274 E134.11934
G1 X155.299 Y175.098 E135.88243
G1 X153.885 Y175.098 E135.96709
G1 X134.475 Y155.688 E137.61046
G1 X134.475 Y157.102 E137.69512
G1 X152.471 Y175.098 E139.21878
G1 X151.057 Y175.098 E139.30343
G1 X134.475 Y158.517 E140.70733
G1 X134.475 Y159.931 E140.79198
G1 X149.642 Y175.098 E142.07612
G1 X148.228 Y175.098 E142.16077
G1 X134.501 Y161.371 E143.32299
G1 X134.476 Y161.729 E143.34447
G1 X134.475 Y162.759 E143.40614
G1 X146.814 Y175.098 E144.45084
G1 X145.4 Y175.098 E144.53549
G1 X134.475 Y164.173 E145.46047
G1 X134.475 Y165.588 E145.54518
G1 X143.986 Y175.098 E146.35041
G1 X142.571 Y175.098 E146.43512
G1 X134.474 Y167.001 E147.12066
G1 X134.474 Y168.415 E147.20532
G1 X141.157 Y175.098 E147.77114
G1 X140.077 Y175.098 E147.8358
G1 X139.788 Y175.087 E147.85312
G1 X139.725 Y175.08 E147.85691
G1 X134.493 Y169.849 E148.29984
G1 X134.505 Y169.971 E148.30718
G1 X134.568 Y170.45 E148.33611
G1 X134.667 Y170.944 E148.36627
G1 X134.816 Y171.389 E148.39436
G1 X134.954 Y171.723 E148.416
G1 X137.851 Y174.62 E148.66128
G1 X137.732 Y174.571 E148.66898
G1 X137.211 Y174.308 E148.70392
G1 X136.869 Y174.076 E148.72866
G1 X136.485 Y173.781 E148.75765
G1 X136.113 Y173.452 E148.78739
G1 X135.772 Y173.062 E148.8184
G1 X135.504 Y172.714 E148.8447
G1 X135.243 Y172.324 E148.87279
G1 X135.007 Y171.851 E148.90444
G1 F2700 E143.90444
G0 F300 X135.007 Y171.851 Z0.444
G0 F9000 X134.297 Y172.813
G0 X134.987 Y173.784
G0 X135.825 Y174.617
G0 X136.7 Y175.244
G0 X137.328 Y175.532
G0 X138.393 Y175.947
G0 X139.09 Y175.204
;TIME_ELAPSED:154.046639
;LAYER:-4
;TYPE:SUPPORT-INTERFACE
G1 F2700 E148.90444
G1 F1500 X139.567 Y175.266 E148.91404
G1 X139.759 Y175.286 E148.91789
G1 X139.844 Y175.291 E148.91959
G1 X140.07 Y175.299 E148.9241
G1 X159.89 Y175.3 E149.31963
G1 X160.153 Y175.291 E149.32488
G1 X160.238 Y175.286 E149.32658
G1 X160.43 Y175.266 E149.33044
G1 X160.886 Y175.207 E149.33961
G1 X160.925 Y175.2 E149.3404
G1 X139.069 Y175.2 E149.77656
G1 X138.574 Y175.101 E149.78664
G1 X138.099 Y174.939 E149.79665
G1 X138.054 Y174.922 E149.79761
G1 X137.761 Y174.8 E149.80394
G1 X162.239 Y174.8 E150.29243
G1 X162.37 Y174.746 E150.29526
G1 X162.835 Y174.514 E150.30563
G1 X162.863 Y174.498 E150.30627
G1 X163.008 Y174.4 E150.30976
G1 X136.989 Y174.4 E150.829
G1 X136.763 Y174.246 E150.83446
G1 X136.441 Y174 E150.84255
G1 X163.558 Y174 E151.38369
G1 X163.624 Y173.95 E151.38535
G1 X164.014 Y173.609 E151.39569
G1 X164.021 Y173.6 E151.39591
G1 X135.978 Y173.6 E151.95554
G1 X135.969 Y173.592 E151.95578
G1 X135.626 Y173.2 E151.96618
G1 X164.374 Y173.2 E152.53987
G1 X164.673 Y172.809 E152.5497
G1 X164.679 Y172.8 E152.54991
G1 X135.321 Y172.8 E153.13578
G1 X135.076 Y172.436 E153.14454
G1 X135.057 Y172.4 E153.14535
G1 X164.939 Y172.4 E153.74168
G1 X165.143 Y172 E153.75064
G1 X134.857 Y172 E154.35503
G1 X134.828 Y171.942 E154.35632
G1 X134.686 Y171.6 E154.36371
G1 X165.314 Y171.6 E154.97493
G1 X165.35 Y171.514 E154.97679
G1 X165.457 Y171.2 E154.98341
G1 X134.54 Y171.2 E155.60039
G1 X134.478 Y171.014 E155.6043
G1 X134.434 Y170.8 E155.60866
G1 X165.565 Y170.8 E156.22992
G1 X165.631 Y170.478 E156.23648
G1 X165.641 Y170.4 E156.23804
G1 X134.358 Y170.4 E156.86233
G1 X134.307 Y170 E156.87038
G1 X165.692 Y170 E157.4967
G0 F9000 X165.693 Y169.997
G1 F1500 X165.71 Y169.829 E157.50007
G1 X165.719 Y169.6 E157.50464
G1 X134.28 Y169.6 E158.13204
G1 X134.275 Y169.47 E158.13464
G1 X134.276 Y169.2 E158.14003
G1 X165.724 Y169.2 E158.76761
G1 X165.724 Y168.8 E158.77559
G1 X134.276 Y168.8 E159.40317
G1 X134.276 Y168.4 E159.41115
G1 X165.724 Y168.4 E160.03873
G1 X165.724 Y168 E160.04671
G1 X134.276 Y168 E160.67429
G1 X134.276 Y167.6 E160.68227
G1 X165.724 Y167.6 E161.30985
G1 X165.724 Y167.2 E161.31783
G1 X134.276 Y167.2 E161.94541
G1 X134.276 Y166.8 E161.95339
G1 X165.724 Y166.8 E162.58097
G1 X165.724 Y166.4 E162.58896
G1 X134.276 Y166.4 E163.21653
G1 X134.276 Y166 E163.22452
G1 X165.724 Y166 E163.8521
G1 X165.724 Y165.6 E163.86008
G1 X134.276 Y165.6 E164.48766
G1 X134.276 Y165.2 E164.49564
G1 X165.724 Y165.2 E165.12322
G1 X165.724 Y164.8 E165.1312
G1 X134.276 Y164.8 E165.75878
G1 X134.276 Y164.4 E165.76676
G1 X165.724 Y164.4 E166.39434
G1 X165.724 Y164 E166.40232
G1 X134.276 Y164 E167.0299
G1 X134.276 Y163.6 E167.03788
G1 X165.724 Y163.6 E167.66546
G1 X165.724 Y163.2 E167.67345
G1 X134.276 Y163.2 E168.30102
G1 X134.276 Y162.8 E168.30901
G1 X165.724 Y162.8 E168.93659
G1 X165.724 Y162.4 E168.94457
G1 X134.276 Y162.4 E169.57215
G1 X134.276 Y162 E169.58013
G1 X165.724 Y162 E170.20771
G1 X165.725 Y161.768 E170.21234
G1 X165.719 Y161.6 E170.21569
G1 X134.286 Y161.6 E170.84297
G1 X134.304 Y161.336 E170.84825
G1 X134.303 Y161.2 E170.85097
G1 X165.691 Y161.2 E171.47735
G1 X165.688 Y161.173 E171.47789
G1 X165.699 Y161.173 E171.47811
G1 X165.724 Y160.811 E171.48535
G1 X165.724 Y160.8 E171.48557
G1 X134.276 Y160.8 E172.11315
G1 X134.276 Y160.4 E172.12113
G1 X165.724 Y160.4 E172.74871
G1 X165.724 Y160 E172.75669
G1 X134.276 Y160 E173.38427
G1 X134.276 Y159.6 E173.39225
G1 X165.724 Y159.6 E174.01983
G1 X165.724 Y159.2 E174.02782
G1 X134.276 Y159.2 E174.65539
G1 X134.276 Y158.8 E174.66338
G1 X165.724 Y158.8 E175.29096
G1 X165.724 Y158.4 E175.29894
G1 X134.276 Y158.4 E175.92652
G1 X134.276 Y158 E175.9345
G1 X165.724 Y158 E176.56208
G1 X165.724 Y157.6 E176.57006
G1 X134.276 Y157.6 E177.19764
G1 X134.276 Y157.2 E177.20562
G1 X165.724 Y157.2 E177.8332
G1 X165.724 Y156.8 E177.84118
G1 X134.276 Y156.8 E178.46876
G1 X134.276 Y156.4 E178.47674
G1 X165.724 Y156.4 E179.10432
G1 X165.724 Y156 E179.11231
G1 X134.276 Y156 E179.73989
G1 X134.276 Y155.6 E179.74787
G1 X165.724 Y155.6 E180.37545
G1 X165.724 Y155.2 E180.38343
G1 X134.276 Y155.2 E181.01101
G1 X134.276 Y154.8 E181.01899
G1 X165.724 Y154.8 E181.64657
G1 X165.724 Y154.4 E181.65455
G1 X134.276 Y154.4 E182.28213
G1 X134.276 Y154 E182.29011
G1 X165.724 Y154 E182.91769
G1 X165.724 Y153.6 E182.92567
G1 X134.277 Y153.6 E183.55323
G1 X134.277 Y153.2 E183.56122
G1 X165.724 Y153.2 E184.18877
G1 X165.724 Y152.8 E184.19676
G1 X134.277 Y152.8 E184.82432
G1 X134.277 Y152.4 E184.8323
G1 X165.724 Y152.4 E185.45986
G1 X165.724 Y152 E185.46784
G1 X134.277 Y152 E186.0954
G1 X134.277 Y151.6 E186.10338
G1 X165.724 Y151.6 E186.73094
G1 X165.724 Y151.2 E186.73892
G1 X134.277 Y151.2 E187.36648
G1 X134.277 Y150.8 E187.37446
G1 X165.724 Y150.8 E188.00202
G1 X165.724 Y150.4 E188.01
G1 X134.277 Y150.4 E188.63756
