;FLAVOR:Marlin
;TIME:4509
;Filament used: 3.08139m
;Layer height: 0.2
;MINX:111.994
;MINY:124.268
;MINZ:0.24
;MAXX:188.032
;MAXY:175.657
;MAXZ:15.53
;Generated with Cura_SteamEngine 4.12.0
M140 S60
M105
M190 S60
M104 S200
M105
M109 S200
M82 ;absolute extrusion mode
M201 X500.00 Y500.00 Z100.00 E5000.00 ;Setup machine max acceleration
M203 X500.00 Y500.00 Z10.00 E50.00 ;Setup machine max feedrate
M204 P500.00 R1000.00 T500.00 ;Setup Print/Retract/Travel acceleration
M205 X8.00 Y8.00 Z0.40 E5.00 ;Setup Jerk
M220 S100 ;Reset Feedrate
M221 S100 ;Reset Flowrate

G28 ;Home

G92 E0 ;Reset Extruder
G1 Z2.0 F3000 ;Move Z Axis up
G1 X10.1 Y20 Z0.28 F5000.0 ;Move to start position
G1 X10.1 Y200.0 Z0.28 F1500.0 E15 ;Draw the first line
G1 X10.4 Y200.0 Z0.28 F5000.0 ;Move to side a little
G1 X10.4 Y20 Z0.28 F1500.0 E30 ;Draw the second line
G92 E0 ;Reset Extruder
G1 Z2.0 F3000 ;Move Z Axis up

G92 E0
G92 E0
G1 F2700 E-7
;LAYER_COUNT:72
;LAYER:-6
M107
G0 F9000 X114.836 Y133.381 Z0.24
;TYPE:SUPPORT-INTERFACE
G1 F2700 E0
G1 F1350 X115.051 Y133.214 E0.02173
G1 X115.282 Y133.058 E0.04398
G1 X115.55 Y132.9 E0.06882
G1 X115.807 Y132.77 E0.09181
G1 X116.077 Y132.654 E0.11526
G1 X116.333 Y132.562 E0.13698
G1 X116.625 Y132.478 E0.16123
G1 X116.886 Y132.422 E0.18254
G1 X117.206 Y132.374 E0.20837
G1 X117.674 Y132.338 E0.24584
G1 X117.908 Y132.331 E0.26453
G1 X118.576 Y132.289 E0.31795
G1 X119.247 Y132.16 E0.3725
G1 X119.896 Y131.947 E0.42702
G1 X120.513 Y131.655 E0.48151
G1 X121.088 Y131.287 E0.536
G1 X121.612 Y130.849 E0.59052
G1 X122.076 Y130.349 E0.64497
G1 X122.474 Y129.795 E0.69942
G1 X122.769 Y129.256 E0.74847
G1 X122.924 Y128.932 E0.77714
G1 X123.05 Y128.696 E0.7985
G1 X123.273 Y128.332 E0.83257
G1 X123.432 Y128.098 E0.85515
G1 X123.535 Y127.957 E0.86909
G1 X123.769 Y127.656 E0.89953
G1 X124.038 Y127.364 E0.93122
G1 X124.267 Y127.137 E0.95696
G1 X124.637 Y126.809 E0.99643
G1 X124.687 Y126.769 E1.00154
G1 X124.91 Y126.604 E1.02368
G1 X125.215 Y126.395 E1.05319
G1 X125.521 Y126.204 E1.08199
G1 X125.828 Y126.043 E1.10966
G1 X126.105 Y125.911 E1.13415
G1 X126.151 Y125.89 E1.13819
G1 X126.55 Y125.726 E1.17263
G1 X126.613 Y125.703 E1.17798
G1 X126.899 Y125.614 E1.20189
G1 X127.189 Y125.535 E1.22588
G1 X127.305 Y125.507 E1.23541
G1 X127.656 Y125.43 E1.26409
G1 X128.031 Y125.381 E1.29428
G1 X128.351 Y125.351 E1.31994
G1 X128.773 Y125.332 E1.35366
G1 X131.73 Y125.332 E1.5897
G1 X131.89 Y125.336 E1.60247
G1 X132.245 Y125.352 E1.63084
G1 X132.595 Y125.388 E1.65892
G1 X133.122 Y125.472 E1.70152
G1 X133.573 Y125.582 E1.73858
G1 X133.706 Y125.621 E1.74964
G1 X134.011 Y125.718 E1.77519
G1 X134.126 Y125.757 E1.78488
G1 X134.433 Y125.887 E1.8115
G1 X134.76 Y126.041 E1.84035
G1 X135.012 Y126.174 E1.86309
G1 X135.398 Y126.411 E1.89925
G1 X135.634 Y126.571 E1.92201
G1 X135.765 Y126.667 E1.93498
G1 X136.055 Y126.89 E1.96418
G1 X136.363 Y127.173 E1.99757
G1 X136.582 Y127.393 E2.02234
G1 X136.917 Y127.771 E2.06266
G1 X137.081 Y127.988 E2.08437
G1 X137.274 Y128.264 E2.11126
G1 X137.317 Y128.327 E2.11735
G1 X137.466 Y128.558 E2.13929
G1 X137.689 Y128.975 E2.17704
G1 X137.801 Y129.21 E2.19782
G1 X138.119 Y129.798 E2.25118
G1 X138.518 Y130.353 E2.30574
G1 X138.982 Y130.853 E2.36019
G1 X139.507 Y131.29 E2.41472
G1 X140.083 Y131.658 E2.46928
G1 X140.7 Y131.949 E2.52373
G1 X141.349 Y132.161 E2.57823
G1 X142.02 Y132.29 E2.63278
G1 X142.685 Y132.331 E2.68596
G1 X152.346 Y132.33 E3.45714
G1 X153.014 Y132.288 E3.51057
G1 X153.684 Y132.159 E3.56504
G1 X154.334 Y131.946 E3.61964
G1 X154.95 Y131.653 E3.67409
G1 X155.525 Y131.285 E3.72858
G1 X156.05 Y130.848 E3.78311
G1 X156.514 Y130.348 E3.83756
G1 X156.911 Y129.793 E3.89203
G1 X157.204 Y129.259 E3.94065
G1 X157.314 Y129.026 E3.96122
G1 X157.434 Y128.787 E3.98257
G1 X157.477 Y128.714 E3.98933
G1 X157.713 Y128.33 E4.02531
G1 X157.873 Y128.093 E4.04813
G1 X157.969 Y127.962 E4.0611
G1 X158.193 Y127.671 E4.09041
G1 X158.475 Y127.364 E4.12369
G1 X158.704 Y127.137 E4.14943
G1 X159.074 Y126.809 E4.18889
G1 X159.124 Y126.769 E4.19401
G1 X159.347 Y126.604 E4.21615
G1 X159.652 Y126.395 E4.24566
G1 X159.958 Y126.204 E4.27446
G1 X160.265 Y126.043 E4.30213
G1 X160.542 Y125.911 E4.32662
G1 X160.588 Y125.89 E4.33066
G1 X160.987 Y125.726 E4.36509
G1 X161.05 Y125.703 E4.37045
G1 X161.336 Y125.614 E4.39436
G1 X161.626 Y125.535 E4.41835
G1 X161.742 Y125.507 E4.42788
G1 X162.093 Y125.43 E4.45656
G1 X162.468 Y125.381 E4.48675
G1 X162.788 Y125.351 E4.51241
G1 X163.21 Y125.332 E4.54613
G1 X166.167 Y125.332 E4.78217
G1 X166.327 Y125.336 E4.79494
G1 X166.682 Y125.352 E4.82331
G1 X167.032 Y125.388 E4.85139
G1 X167.559 Y125.472 E4.89399
G1 X168.01 Y125.582 E4.93105
G1 X168.143 Y125.621 E4.94211
G1 X168.448 Y125.718 E4.96766
G1 X168.563 Y125.757 E4.97735
G1 X168.87 Y125.887 E5.00397
G1 X169.196 Y126.041 E5.03275
G1 X169.452 Y126.176 E5.05585
G1 X169.842 Y126.415 E5.09236
G1 X170.109 Y126.597 E5.11815
G1 X170.181 Y126.65 E5.12529
G1 X170.485 Y126.886 E5.15601
G1 X170.729 Y127.109 E5.1824
G1 X170.938 Y127.314 E5.20577
G1 X171.052 Y127.434 E5.21898
G1 X171.324 Y127.739 E5.2516
G1 X171.523 Y127.993 E5.27736
G1 X171.709 Y128.259 E5.30327
G1 X171.893 Y128.542 E5.33021
G1 X171.94 Y128.625 E5.33783
G1 X172.126 Y128.975 E5.36946
G1 X172.238 Y129.21 E5.39025
G1 X172.556 Y129.798 E5.44361
G1 X172.955 Y130.353 E5.49817
G1 X173.419 Y130.853 E5.55262
G1 X173.944 Y131.29 E5.60715
G1 X174.52 Y131.658 E5.66171
G1 X175.137 Y131.949 E5.71616
G1 X175.786 Y132.161 E5.77066
G1 X176.457 Y132.29 E5.8252
G1 X177.121 Y132.331 E5.87831
G1 X182.175 Y132.331 E6.28174
G1 X182.301 Y132.335 E6.2918
G1 X182.678 Y132.359 E6.32196
G1 X182.976 Y132.396 E6.34593
G1 X183.26 Y132.451 E6.36902
G1 X183.551 Y132.527 E6.39303
G1 X183.809 Y132.611 E6.41469
G1 X184.088 Y132.722 E6.43866
G1 X184.346 Y132.844 E6.46144
G1 X184.605 Y132.988 E6.48509
G1 X184.824 Y133.127 E6.5058
G1 X185.09 Y133.325 E6.53227
G1 X185.444 Y133.629 E6.56952
G1 X185.659 Y133.84 E6.59356
G1 X185.918 Y134.135 E6.6249
G1 X186.085 Y134.35 E6.64663
G1 X186.241 Y134.581 E6.66888
G1 X186.399 Y134.849 E6.69371
G1 X186.531 Y135.108 E6.71692
G1 X186.634 Y135.347 E6.73769
G1 X186.739 Y135.639 E6.76246
G1 X186.82 Y135.921 E6.78588
G1 X186.876 Y136.175 E6.80665
G1 X186.925 Y136.505 E6.83328
G1 X186.961 Y136.966 E6.87019
G1 X186.968 Y137.151 E6.88496
G1 X186.968 Y148.054 E7.75529
G1 X186.964 Y148.18 E7.76535
G1 X186.94 Y148.557 E7.79551
G1 X186.903 Y148.855 E7.81948
G1 X186.848 Y149.139 E7.84257
G1 X186.772 Y149.43 E7.86658
G1 X186.688 Y149.688 E7.88824
G1 X186.577 Y149.967 E7.9122
G1 X186.455 Y150.225 E7.93499
G1 X186.311 Y150.484 E7.95864
G1 X186.172 Y150.703 E7.97935
G1 X185.974 Y150.969 E8.00582
G1 X185.67 Y151.323 E8.04306
G1 X185.458 Y151.539 E8.06722
G1 X184.727 Y152.183 E8.14499
G1 X184.701 Y152.206 E8.14776
G1 X184.249 Y152.717 E8.20222
G1 X183.864 Y153.281 E8.25673
G1 X183.553 Y153.892 E8.31146
G1 X183.285 Y154.672 E8.37729
G1 X183.268 Y154.74 E8.38289
G1 X183.184 Y154.997 E8.40447
G1 X183.064 Y155.297 E8.43026
G1 X182.703 Y156.055 E8.49728
G1 X182.711 Y156.059 E8.49799
G1 X182.505 Y156.67 E8.54946
G1 X182.37 Y157.339 E8.60394
G1 X182.321 Y158.026 E8.65892
G1 X182.401 Y158.985 E8.73574
G1 X183.394 Y164.622 E9.19264
G1 X183.438 Y164.956 E9.21953
G1 X183.465 Y165.399 E9.25496
G1 X183.468 Y165.513 E9.26406
G1 X183.467 Y168.017 E9.46394
G1 X183.464 Y168.139 E9.47368
G1 X183.445 Y168.55 E9.50652
G1 X183.417 Y168.841 E9.52986
G1 X183.377 Y169.154 E9.55505
G1 X183.289 Y169.568 E9.58883
G1 X183.201 Y169.908 E9.61687
G1 X183.067 Y170.328 E9.65206
G1 X183.047 Y170.385 E9.65688
G1 X182.882 Y170.77 E9.69032
G1 X182.74 Y171.068 E9.71667
G1 X182.628 Y171.281 E9.73588
G1 X182.397 Y171.658 E9.77117
G1 X182.232 Y171.902 E9.79468
G1 X182.14 Y172.028 E9.80714
G1 X181.905 Y172.333 E9.83787
G1 X181.626 Y172.636 E9.87075
G1 X181.401 Y172.859 E9.89604
G1 X181.027 Y173.191 E9.93596
G1 X180.977 Y173.231 E9.94107
G1 X180.754 Y173.396 E9.96321
G1 X180.449 Y173.605 E9.99273
G1 X180.135 Y173.801 E10.02227
G1 X179.787 Y173.981 E10.05355
G1 X179.513 Y174.11 E10.07772
G1 X179.119 Y174.272 E10.11173
G1 X179.063 Y174.293 E10.1165
G1 X178.765 Y174.386 E10.14142
G1 X178.475 Y174.465 E10.16541
G1 X178.359 Y174.493 E10.17494
G1 X178.008 Y174.57 E10.20362
G1 X177.64 Y174.618 E10.23325
G1 X177.305 Y174.65 E10.26011
G1 X176.83 Y174.669 E10.29806
G1 X119.697 Y174.668 E14.85866
G1 X119.538 Y174.664 E14.87136
G1 X119.183 Y174.648 E14.89972
G1 X118.833 Y174.612 E14.92781
G1 X118.306 Y174.528 E14.97041
G1 X117.852 Y174.417 E15.00772
G1 X117.722 Y174.379 E15.01853
G1 X117.405 Y174.279 E15.04506
G1 X117.311 Y174.246 E15.05301
G1 X116.988 Y174.11 E15.08099
G1 X116.668 Y173.959 E15.10923
G1 X116.416 Y173.826 E15.13198
G1 X116.031 Y173.589 E15.16807
G1 X115.784 Y173.422 E15.19187
G1 X115.664 Y173.334 E15.20375
G1 X115.404 Y173.134 E15.22993
G1 X115.349 Y173.089 E15.2356
G1 X115.058 Y172.82 E15.26724
G1 X114.838 Y172.598 E15.29219
G1 X114.511 Y172.229 E15.33154
G1 X114.328 Y171.986 E15.35582
G1 X114.108 Y171.669 E15.38663
G1 X113.969 Y171.452 E15.4072
G1 X113.917 Y171.361 E15.41556
G1 X113.741 Y171.028 E15.44563
G1 X113.579 Y170.685 E15.47591
G1 X113.46 Y170.393 E15.50108
G1 X113.322 Y169.981 E15.53576
G1 X113.24 Y169.687 E15.56013
G1 X113.209 Y169.558 E15.57072
G1 X113.136 Y169.223 E15.59809
G1 X113.083 Y168.841 E15.62887
G1 X113.054 Y168.539 E15.65309
G1 X113.035 Y168.128 E15.68593
G1 X113.032 Y168.016 E15.69487
G1 X113.032 Y137.124 E18.16081
G1 X113.036 Y136.998 E18.17087
G1 X113.06 Y136.621 E18.20103
G1 X113.097 Y136.323 E18.225
G1 X113.152 Y136.039 E18.24809
G1 X113.228 Y135.748 E18.2721
G1 X113.312 Y135.49 E18.29375
G1 X113.423 Y135.211 E18.31772
G1 X113.545 Y134.953 E18.3405
G1 X113.684 Y134.703 E18.36334
G1 X113.836 Y134.465 E18.38588
G1 X114.026 Y134.209 E18.41133
G1 X114.33 Y133.855 E18.44857
G1 X114.541 Y133.64 E18.47262
G1 X114.836 Y133.381 E18.50396
G0 F9000 X115.2 Y133.113
G1 F1350 X115.2 Y172.951 E21.684
G0 F9000 X116.8 Y174.021
G1 F1350 X116.8 Y132.44 E25.00317
G0 F9000 X118.4 Y132.3
G1 F1350 X118.4 Y174.542 E28.37511
G0 F9000 X120 Y174.668
G1 F1350 X120 Y131.897 E31.78928
G0 F9000 X121.6 Y130.859
G1 F1350 X121.6 Y174.668 E35.2863
G0 F9000 X123.2 Y174.668
G1 F1350 X123.2 Y128.451 E38.97554
G0 F9000 X124.8 Y126.685
G1 F1350 X124.8 Y174.668 E42.80575
G0 F9000 X126.4 Y174.668
G1 F1350 X126.4 Y125.787 E46.70765
G0 F9000 X128 Y125.385
G1 F1350 X128 Y174.668 E50.64163
G0 F9000 X129.6 Y174.668
G1 F1350 X129.6 Y125.332 E54.57984
G0 F9000 X131.2 Y125.332
G1 F1350 X131.2 Y174.668 E58.51806
G0 F9000 X132.8 Y174.668
G1 F1350 X132.8 Y125.421 E62.44916
G0 F9000 X134.4 Y125.874
G1 F1350 X134.4 Y174.668 E66.34411
G0 F9000 X136 Y174.668
G1 F1350 X136 Y126.848 E70.16131
G0 F9000 X137.6 Y128.809
G1 F1350 X137.6 Y174.668 E73.82197
G0 F9000 X139.2 Y174.668
G1 F1350 X139.2 Y131.035 E77.30495
G0 F9000 X140.8 Y131.982
G1 F1350 X140.8 Y174.668 E80.71233
G0 F9000 X142.4 Y174.668
G1 F1350 X142.4 Y132.314 E84.09321
G0 F9000 X144 Y132.33
G1 F1350 X144 Y174.668 E87.47281
G0 F9000 X145.6 Y174.668
G1 F1350 X145.6 Y132.33 E90.85241
G0 F9000 X147.2 Y132.33
G1 F1350 X147.2 Y174.668 E94.23202
G0 F9000 X148.8 Y174.668
G1 F1350 X148.8 Y132.33 E97.61162
G0 F9000 X150.4 Y132.33
G1 F1350 X150.4 Y174.668 E100.99122
G0 F9000 X152 Y174.668
G1 F1350 X152 Y132.33 E104.37082
G0 F9000 X153.6 Y132.175
G1 F1350 X153.6 Y174.668 E107.7628
G0 F9000 X155.2 Y174.668
G1 F1350 X155.2 Y131.493 E111.20921
G0 F9000 X156.8 Y129.948
G1 F1350 X156.8 Y174.668 E114.77896
G0 F9000 X158.4 Y174.668
G1 F1350 X158.4 Y127.445 E118.5485
G0 F9000 X160 Y126.181
G1 F1350 X160 Y174.668 E122.41894
G0 F9000 X161.6 Y174.668
G1 F1350 X161.6 Y125.542 E126.34039
G0 F9000 X163.2 Y125.332
G1 F1350 X163.2 Y174.668 E130.27861
G0 F9000 X164.8 Y174.668
G1 F1350 X164.8 Y125.332 E134.21682
G0 F9000 X166.4 Y125.34
G1 F1350 X166.4 Y174.668 E138.15439
G0 F9000 X168 Y174.668
G1 F1350 X168 Y125.58 E142.07281
G0 F9000 X169.6 Y126.267
G1 F1350 X169.6 Y174.668 E145.93639
G0 F9000 X171.2 Y174.668
G1 F1350 X171.2 Y127.6 E149.69356
G0 F9000 X172.8 Y130.138
G1 F1350 X172.8 Y174.668 E153.24813
G0 F9000 X174.4 Y174.668
G1 F1350 X174.4 Y131.582 E156.68745
G0 F9000 X176 Y132.203
G1 F1350 X176 Y174.668 E160.07719
G0 F9000 X177.6 Y174.622
G1 F1350 X177.6 Y132.331 E163.45304
G0 F9000 X179.2 Y132.331
G1 F1350 X179.2 Y174.239 E166.79831
G0 F9000 X180.8 Y173.362
G1 F1350 X180.8 Y132.331 E170.07359
G0 F9000 X182.4 Y132.342
G1 F1350 X182.4 Y157.191 E172.05714
G0 F9000 X182.4 Y158.974
G1 F1350 X182.4 Y171.654 E173.06931
G1 F2700 E166.06931
G0 F9000 X183.54 Y171.83
G0 X184.09 Y170.623
G0 X184.442 Y169.225
G0 X184.492 Y168.551
G0 X184.782 Y153.823
G0 X184 Y153.082
G1 F2700 E173.06931
G1 F1350 X184 Y132.687 E174.69733
G0 F9000 X185.6 Y133.783
G1 F1350 X185.6 Y151.395 E176.1032
G1 F2700 E169.1032
G0 F9000 X186.261 Y152.227
G0 X187.045 Y151.312
G0 X187.558 Y150.38
G0 X187.888 Y149.372
G0 X188.032 Y148.077
G0 X188.024 Y136.915
G0 X187.852 Y135.659
G0 X187.493 Y134.652
G0 X186.945 Y133.723
G0 X186.146 Y132.829
G0 X185.143 Y132.069
G0 X168.785 Y124.708
G0 X167.745 Y124.424
G0 X166.185 Y124.268
G0 X128.278 Y124.29
G0 X126.921 Y124.506
G0 X125.657 Y124.946
G0 X124.554 Y125.556
G0 X114.149 Y132.568
G0 X113.53 Y133.153
G0 X112.77 Y134.156
G0 X113.6 Y134.854
G1 F2700 E176.1032
G1 F1350 X113.6 Y170.729 E178.96689
G0 F300 X113.6 Y170.729 Z0.54
G0 F9000 X113.322 Y169.979
;TIME_ELAPSED:112.765167
;LAYER:-5
;TYPE:SUPPORT
G1 F1350 X113.46 Y170.392 E179.01034
G1 X113.501 Y170.502 E179.02206
G1 X113.574 Y170.676 E179.04088
G1 X113.676 Y170.897 E179.06517
G1 X113.74 Y171.027 E179.07963
G1 X113.917 Y171.36 E179.11726
G1 X113.969 Y171.451 E179.12772
G1 X114.107 Y171.667 E179.15329
G1 X114.279 Y171.918 E179.18365
G1 X114.443 Y172.141 E179.21127
G1 X114.51 Y172.227 E179.22215
G1 X114.837 Y172.596 E179.27135
G1 X115.058 Y172.819 E179.30267
G1 X115.348 Y173.088 E179.34214
G1 X115.404 Y173.133 E179.34931
G1 X115.664 Y173.333 E179.38204
G1 X115.783 Y173.421 E179.39681
G1 X115.901 Y173.502 E179.41109
G1 X116.031 Y173.588 E179.42664
G1 X116.415 Y173.825 E179.47167
G1 X116.489 Y173.868 E179.48021
G1 X116.668 Y173.958 E179.5002
G1 X116.987 Y174.109 E179.53542
G1 X117.31 Y174.245 E179.57038
G1 X117.405 Y174.277 E179.58039
G1 X117.721 Y174.378 E179.61349
G1 X117.845 Y174.414 E179.62637
G1 X113.286 Y169.855 E180.2697
G1 X113.239 Y169.686 E180.2872
G1 X113.209 Y169.557 E180.30041
G1 X113.135 Y169.221 E180.33474
G1 X113.122 Y169.152 E180.34175
G1 X113.083 Y168.84 E180.37312
G1 X113.074 Y168.764 E180.38076
G1 X113.054 Y168.538 E180.4034
G1 X113.038 Y168.192 E180.43796
G1 X119.506 Y174.661 E181.35074
G1 X119.538 Y174.663 E181.35393
G1 X119.696 Y174.667 E181.3697
G1 X120.927 Y174.667 E181.49253
G1 X113.031 Y166.771 E182.60675
G1 X113.031 Y165.357 E182.74783
G1 X122.341 Y174.667 E184.06158
G1 X123.755 Y174.667 E184.20267
G1 X113.031 Y163.943 E185.71594
G1 X113.031 Y162.529 E185.85703
G1 X125.169 Y174.667 E187.56983
G1 X126.584 Y174.667 E187.71102
G1 X113.031 Y161.114 E189.62349
G1 X113.031 Y159.7 E189.76458
G1 X127.998 Y174.667 E191.87659
G1 X129.412 Y174.667 E192.01768
G1 X113.031 Y158.286 E194.32921
G1 X113.031 Y156.872 E194.4703
G1 X130.826 Y174.667 E196.98137
G1 X132.24 Y174.667 E197.12246
G1 X113.031 Y155.458 E199.83306
G1 X113.031 Y154.043 E199.97425
G1 X133.655 Y174.667 E202.88452
G1 X135.069 Y174.667 E203.02561
G1 X113.031 Y152.629 E206.13541
G1 X113.031 Y151.215 E206.2765
G1 X136.483 Y174.667 E209.58583
G1 X137.897 Y174.667 E209.72692
G1 X113.031 Y149.801 E213.23578
G1 X113.031 Y148.387 E213.37687
G1 X139.312 Y174.667 E217.08533
G1 X140.726 Y174.667 E217.22642
G1 X113.031 Y146.972 E221.13448
G1 X113.031 Y145.558 E221.27557
G1 X142.14 Y174.667 E225.38317
G1 X143.554 Y174.667 E225.52425
G1 X113.031 Y144.144 E229.83138
G1 X113.031 Y142.73 E229.97247
G1 X144.968 Y174.667 E234.47913
G1 X146.383 Y174.667 E234.62031
G1 X113.031 Y141.315 E239.32664
G1 X113.031 Y139.901 E239.46773
G1 X147.797 Y174.667 E244.37359
G1 X149.212 Y174.668 E244.51478
G1 X113.031 Y138.487 E249.62031
G1 X113.032 Y137.123 E249.75641
G1 X113.033 Y137.074 E249.7613
G1 X150.626 Y174.668 E255.06615
