;FLAVOR:Marlin
;TIME:19263
;Filament used: 7.18119m
;Layer height: 0.12
;MINX:73.944
;MINY:46.824
;MINZ:0.144
;MAXX:226.136
;MAXY:252.845
;MAXZ:2.754
;Generated with Cura_SteamEngine 4.12.0
M140 S55
M105
M190 S55
M104 S205
M105
M109 S205
M82 ;absolute extrusion mode
M201 X500.00 Y500.00 Z100.00 E5000.00 ;Setup machine max acceleration
M203 X500.00 Y500.00 Z10.00 E50.00 ;Setup machine max feedrate
M204 P500.00 R1000.00 T500.00 ;Setup Print/Retract/Travel acceleration
M205 X8.00 Y8.00 Z0.40 E5.00 ;Setup Jerk
M220 S100 ;Reset Feedrate
M221 S100 ;Reset Flowrate

G28 ;Home

G92 E0 ;Reset Extruder
G1 Z2.0 F3000 ;Move Z Axis up
G1 X10.1 Y20 Z0.28 F5000.0 ;Move to start position
G1 X10.1 Y200.0 Z0.28 F1500.0 E15 ;Draw the first line
G1 X10.4 Y200.0 Z0.28 F5000.0 ;Move to side a little
G1 X10.4 Y20 Z0.28 F1500.0 E30 ;Draw the second line
G92 E0 ;Reset Extruder
G1 Z2.0 F3000 ;Move Z Axis up

G92 E0
G92 E0
G1 F2700 E-5
;LAYER_COUNT:17
;LAYER:-6
M107
G0 F9000 X79.163 Y142.867 Z0.144
;TYPE:SUPPORT-INTERFACE
G1 F2700 E0
G1 F1125 X79.433 Y142.731 E0.01448
G1 X79.809 Y142.558 E0.0343
G1 X80.199 Y142.404 E0.05438
G1 X80.542 Y142.285 E0.07177
G1 X80.857 Y142.199 E0.08741
G1 X80.965 Y142.164 E0.09285
G1 X81.312 Y142.081 E0.10994
G1 X81.637 Y142.024 E0.12574
G1 X81.717 Y142.007 E0.12966
G1 X82.033 Y141.962 E0.14495
G1 X82.366 Y141.939 E0.16093
G1 X82.466 Y141.922 E0.16579
G1 X82.759 Y141.907 E0.17984
G1 X82.945 Y141.901 E0.18876
G1 X85.105 Y141.873 E0.29222
G1 X87.139 Y141.8 E0.3897
G1 X89.299 Y141.665 E0.49335
G1 X91.299 Y141.495 E0.58949
G1 X93.43 Y141.261 E0.69216
G1 X95.533 Y140.975 E0.79381
G1 X97.577 Y140.647 E0.89296
G1 X99.78 Y140.236 E1.00029
G1 X101.791 Y139.812 E1.09873
G1 X103.952 Y139.296 E1.20514
G1 X105.97 Y138.763 E1.3051
G1 X108.042 Y138.156 E1.40851
G1 X110.067 Y137.512 E1.51028
G1 X112.128 Y136.796 E1.61478
G1 X114.108 Y136.054 E1.71605
G1 X116.135 Y135.234 E1.82078
G1 X118.126 Y134.371 E1.92471
G1 X120.057 Y133.474 E2.02668
G1 X122.007 Y132.509 E2.13089
G1 X123.874 Y131.527 E2.23192
G1 X125.779 Y130.462 E2.33645
G1 X127.576 Y129.397 E2.4365
G1 X127.608 Y129.379 E2.43826
G1 X129.428 Y128.24 E2.54109
G1 X131.252 Y127.032 E2.64587
G1 X132.959 Y125.84 E2.74559
G1 X134.67 Y124.583 E2.84727
G1 X136.364 Y123.271 E2.94989
G1 X138.016 Y121.925 E3.05195
G1 X139.585 Y120.58 E3.15093
G1 X141.196 Y119.131 E3.25471
G1 X142.707 Y117.702 E3.35431
G1 X144.133 Y116.288 E3.4505
G1 X145.567 Y114.794 E3.54968
G1 X146.983 Y113.246 E3.65016
G1 X148.382 Y111.641 E3.75213
G1 X149.695 Y110.058 E3.85064
G1 X151.036 Y108.359 E3.9543
G1 X152.26 Y106.725 E4.05208
G1 X153.527 Y104.944 E4.15677
G1 X154.727 Y103.163 E4.25962
G1 X155.855 Y101.401 E4.35982
G1 X156.95 Y99.588 E4.46127
G1 X158.055 Y97.654 E4.56795
G1 X159.027 Y95.849 E4.66613
G1 X160.014 Y93.901 E4.77073
G1 X160.951 Y91.929 E4.87529
G1 X161.82 Y89.972 E4.97785
G1 X162.643 Y87.992 E5.08055
G1 X163.436 Y85.939 E5.18595
G1 X164.141 Y83.967 E5.28626
G1 X164.834 Y81.859 E5.39253
G1 X165.437 Y79.862 E5.49244
G1 X166.015 Y77.758 E5.59695
G1 X166.528 Y75.688 E5.69909
G1 X166.989 Y73.611 E5.80099
G1 X166.997 Y73.578 E5.80261
G1 X167.399 Y71.516 E5.90323
G1 X167.76 Y69.383 E6.00684
G1 X168.062 Y67.291 E6.10808
G1 X168.314 Y65.187 E6.20957
G1 X168.511 Y63.106 E6.30968
G1 X168.659 Y60.984 E6.41156
G1 X168.754 Y58.873 E6.51277
G1 X168.796 Y56.801 E6.61203
G1 X168.789 Y54.708 E6.71227
G1 X168.796 Y54.472 E6.72358
G1 X168.811 Y54.212 E6.73605
G1 X168.842 Y53.897 E6.75121
G1 X168.883 Y53.662 E6.76264
G1 X168.935 Y53.407 E6.7751
G1 X169.002 Y53.137 E6.78842
G1 X169.08 Y52.895 E6.8006
G1 X169.17 Y52.641 E6.81351
G1 X169.305 Y52.314 E6.83045
G1 X169.505 Y51.926 E6.85136
G1 X169.731 Y51.554 E6.87221
G1 X169.895 Y51.317 E6.88601
G1 X170.113 Y51.022 E6.90358
G1 X170.324 Y50.763 E6.91958
G1 X170.518 Y50.548 E6.93345
G1 X170.542 Y50.516 E6.93536
G1 X170.714 Y50.333 E6.94739
G1 X171.002 Y50.056 E6.96653
G1 X171.26 Y49.838 E6.98271
G1 X171.469 Y49.654 E6.99604
G1 X171.73 Y49.454 E7.01179
G1 X171.977 Y49.284 E7.02615
G1 X172.296 Y49.079 E7.04431
G1 X172.563 Y48.922 E7.05915
G1 X172.875 Y48.758 E7.07603
G1 X173.125 Y48.647 E7.08913
G1 X173.457 Y48.497 E7.10658
G1 X173.775 Y48.383 E7.12276
G1 X173.839 Y48.354 E7.12613
G1 X174.139 Y48.254 E7.14127
G1 X174.432 Y48.17 E7.15587
G1 X174.753 Y48.093 E7.17168
G1 X175.095 Y48.025 E7.18838
G1 X175.584 Y47.951 E7.21207
G1 X176.073 Y47.913 E7.23556
G1 X176.399 Y47.902 E7.25118
G1 X176.687 Y47.905 E7.26498
G1 X177.073 Y47.921 E7.28348
G1 X177.479 Y47.959 E7.30301
G1 X177.694 Y47.989 E7.31341
G1 X178.004 Y48.042 E7.32847
G1 X178.302 Y48.105 E7.34306
G1 X178.739 Y48.216 E7.36465
G1 X179.205 Y48.367 E7.38811
G1 X179.485 Y48.472 E7.40244
G1 X179.815 Y48.611 E7.41959
G1 X180.068 Y48.729 E7.43296
G1 X180.36 Y48.881 E7.44872
G1 X180.621 Y49.029 E7.46309
G1 X180.902 Y49.203 E7.47892
G1 X181.124 Y49.35 E7.49167
G1 X181.393 Y49.55 E7.50773
G1 X181.702 Y49.794 E7.52659
G1 X181.968 Y50.027 E7.54352
G1 X182.201 Y50.249 E7.55894
G1 X182.447 Y50.504 E7.57591
G1 X182.631 Y50.709 E7.5891
G1 X182.848 Y50.975 E7.60554
G1 X183.059 Y51.252 E7.62222
G1 X183.231 Y51.501 E7.63671
G1 X183.457 Y51.856 E7.65687
G1 X183.623 Y52.148 E7.67296
G1 X183.774 Y52.441 E7.68874
G1 X183.963 Y52.852 E7.71041
G1 X184.027 Y53.013 E7.71871
G1 X184.15 Y53.343 E7.73557
G1 X184.232 Y53.606 E7.74877
G1 X184.265 Y53.702 E7.75363
G1 X184.372 Y54.089 E7.77286
G1 X184.417 Y54.292 E7.78282
G1 X184.478 Y54.608 E7.79823
G1 X184.523 Y54.9 E7.81238
G1 X184.555 Y55.168 E7.82531
G1 X184.585 Y55.537 E7.84304
G1 X184.6 Y55.974 E7.86399
G1 X184.6 Y57.854 E7.95403
G1 X184.626 Y59.859 E8.05006
G1 X184.698 Y61.735 E8.13998
G1 X184.825 Y63.739 E8.23615
G1 X184.994 Y65.623 E8.32675
G1 X185.224 Y67.624 E8.42322
G1 X185.492 Y69.531 E8.51545
G1 X185.815 Y71.459 E8.60908
G1 X186.21 Y73.487 E8.70803
G1 X186.625 Y75.36 E8.79992
G1 X187.111 Y77.31 E8.89617
G1 X187.642 Y79.23 E8.99158
G1 X188.228 Y81.15 E9.08772
G1 X188.868 Y83.066 E9.18447
G1 X189.548 Y84.936 E9.27977
G1 X190.275 Y86.78 E9.37471
G1 X191.079 Y88.676 E9.47334
G1 X191.888 Y90.452 E9.56681
G1 X192.78 Y92.284 E9.6644
G1 X193.723 Y94.089 E9.76194
G1 X194.662 Y95.785 E9.85479
G1 X195.672 Y97.5 E9.95011
G1 X196.749 Y99.224 E10.04747
G1 X197.854 Y100.893 E10.14334
G1 X198.984 Y102.506 E10.23766
G1 X200.155 Y104.091 E10.33205
G1 X201.398 Y105.683 E10.42878
G1 X202.608 Y107.154 E10.52001
G1 X203.928 Y108.677 E10.61654
G1 X205.238 Y110.113 E10.70963
G1 X206.591 Y111.521 E10.80316
G1 X207.978 Y112.892 E10.89656
G1 X210.206 Y114.988 E11.04307
G1 X210.282 Y115.06 E11.04808
G1 X211.067 Y115.839 E11.10105
G1 X211.159 Y115.932 E11.10732
G1 X211.921 Y116.724 E11.15995
G1 X212.765 Y117.646 E11.21982
G1 X213.585 Y118.588 E11.27964
G1 X214.386 Y119.561 E11.34
G1 X214.468 Y119.662 E11.34623
G1 X215.06 Y120.422 E11.39237
G1 X215.058 Y120.427 E11.39263
G1 X215.24 Y120.656 E11.40664
G1 X215.922 Y121.578 E11.46156
G1 X216.209 Y122.003 E11.48613
G1 X216.216 Y121.996 E11.4866
G1 X216.634 Y122.592 E11.52147
G1 X217.349 Y123.671 E11.58346
G1 X217.401 Y123.75 E11.58799
G1 X218.014 Y124.73 E11.64335
G1 X218.075 Y124.83 E11.64896
G1 X218.687 Y125.871 E11.7068
G1 X219.282 Y126.943 E11.76552
G1 X219.461 Y127.309 E11.78503
G1 X219.472 Y127.305 E11.78559
G1 X219.923 Y128.173 E11.83244
G1 X220.438 Y129.23 E11.88876
G1 X220.971 Y130.395 E11.95012
G1 X221.464 Y131.555 E12.01048
G1 X221.518 Y131.684 E12.01718
G1 X221.93 Y132.734 E12.0712
G1 X221.984 Y132.877 E12.07853
G1 X222.382 Y133.978 E12.1346
G1 X222.776 Y135.152 E12.19391
G1 X223.141 Y136.341 E12.25348
G1 X223.235 Y136.695 E12.27102
G1 X223.24 Y136.695 E12.27126
G1 X223.49 Y137.599 E12.31618
G1 X223.52 Y137.71 E12.32169
G1 X223.797 Y138.82 E12.37648
G1 X224.065 Y140.019 E12.43532
G1 X224.304 Y141.239 E12.49487
G1 X224.384 Y141.767 E12.52044
G1 X224.394 Y141.765 E12.52093
G1 X224.523 Y142.543 E12.5587
G1 X224.547 Y142.693 E12.56598
G1 X224.695 Y143.746 E12.61691
G1 X224.717 Y143.912 E12.62493
G1 X224.842 Y144.997 E12.67724
G1 X224.955 Y146.265 E12.73821
G1 X224.964 Y146.366 E12.74306
G1 X225.039 Y147.584 E12.80151
G1 X225.083 Y148.711 E12.85553
G1 X225.1 Y149.936 E12.9142
G1 X225.086 Y151.152 E12.97245
G1 X225.083 Y151.273 E12.97824
G1 X225.04 Y152.387 E13.03164
G1 X224.966 Y153.609 E13.09027
G1 X224.856 Y154.863 E13.15056
G1 X224.719 Y156.079 E13.20917
G1 X224.548 Y157.302 E13.26832
G1 X224.465 Y157.759 E13.29056
G1 X224.473 Y157.761 E13.29096
G1 X224.379 Y158.323 E13.31825
G1 X224.369 Y158.323 E13.31873
G1 X224.309 Y158.735 E13.33867
G1 X224.059 Y160.005 E13.40066
G1 X223.829 Y161.042 E13.45153
G1 X223.524 Y162.277 E13.51246
G1 X223.174 Y163.544 E13.57542
G1 X222.819 Y164.71 E13.63379
G1 X222.654 Y165.187 E13.65797
G1 X222.662 Y165.189 E13.65836
G1 X222.408 Y165.948 E13.6967
G1 X221.986 Y167.115 E13.75613
G1 X221.93 Y167.266 E13.76384
G1 X221.525 Y168.298 E13.81694
G1 X221.015 Y169.503 E13.87961
G1 X220.97 Y169.607 E13.88504
G1 X220.483 Y170.673 E13.94117
G1 X219.908 Y171.858 E14.00425
G1 X219.346 Y172.936 E14.06248
G1 X219.291 Y173.04 E14.06811
G1 X218.678 Y174.145 E14.12863
G1 X218.02 Y175.259 E14.1906
G1 X217.425 Y176.213 E14.24445
G1 X216.693 Y177.322 E14.30809
G1 X216.218 Y178.001 E14.34778
G1 X216.209 Y177.992 E14.34839
G1 X215.925 Y178.418 E14.37291
G1 X215.241 Y179.343 E14.42801
G1 X215.06 Y179.565 E14.44173
G1 X215.064 Y179.573 E14.44216
G1 X214.478 Y180.325 E14.48782
G1 X213.685 Y181.293 E14.54775
G1 X213.6 Y181.394 E14.55407
G1 X212.854 Y182.254 E14.6086
G1 X212.029 Y183.161 E14.66732
G1 X211.927 Y183.27 E14.67447
G1 X211.37 Y183.849 E14.71295
G1 X211.357 Y183.838 E14.71377
G1 X211.056 Y184.172 E14.7353
G1 X210.24 Y184.98 E14.7903
G1 X207.958 Y187.127 E14.94037
G1 X206.573 Y188.497 E15.03367
G1 X205.221 Y189.905 E15.12716
G1 X203.914 Y191.339 E15.22009
G1 X202.59 Y192.868 E15.31696
G1 X201.366 Y194.355 E15.40921
G1 X200.154 Y195.909 E15.50359
G1 X198.967 Y197.517 E15.59932
G1 X197.836 Y199.133 E15.69379
G1 X196.731 Y200.805 E15.78978
G1 X195.679 Y202.489 E15.88488
G1 X194.65 Y204.237 E15.98202
G1 X193.716 Y205.923 E16.07434
G1 X192.766 Y207.745 E16.17275
G1 X191.878 Y209.57 E16.26996
G1 X191.066 Y211.354 E16.36383
G1 X190.271 Y213.231 E16.46146
G1 X189.536 Y215.095 E16.55743
G1 X188.868 Y216.934 E16.65114
G1 X188.23 Y218.846 E16.74768
G1 X188.218 Y218.879 E16.74936
G1 X187.634 Y220.8 E16.84552
G1 X187.104 Y222.719 E16.94087
G1 X186.618 Y224.671 E17.03722
G1 X186.204 Y226.539 E17.12885
G1 X185.811 Y228.568 E17.22784
G1 X185.487 Y230.501 E17.32171
G1 X185.216 Y232.428 E17.41491
G1 X184.993 Y234.38 E17.50901
G1 X184.823 Y236.287 E17.60071
G1 X184.696 Y238.294 E17.69702
G1 X184.625 Y240.171 E17.78699
G1 X184.6 Y242.161 E17.8823
G1 X184.6 Y243.991 E17.96995
G1 X184.586 Y244.442 E17.99156
G1 X184.556 Y244.824 E18.00991
G1 X184.523 Y245.1 E18.02323
G1 X184.481 Y245.381 E18.03683
G1 X184.419 Y245.698 E18.0523
G1 X184.344 Y246.015 E18.06791
G1 X184.26 Y246.311 E18.08264
G1 X184.246 Y246.348 E18.08454
G1 X184.15 Y246.657 E18.10004
G1 X184.027 Y246.987 E18.1169
G1 X183.916 Y247.253 E18.13071
G1 X183.774 Y247.559 E18.14686
G1 X183.631 Y247.835 E18.16175
G1 X183.448 Y248.159 E18.17957
G1 X183.23 Y248.499 E18.19892
G1 X183.061 Y248.743 E18.21313
G1 X182.848 Y249.024 E18.23002
G1 X182.627 Y249.295 E18.24677
G1 X182.437 Y249.507 E18.2604
G1 X182.149 Y249.803 E18.28018
G1 X181.976 Y249.966 E18.29157
G1 X181.709 Y250.2 E18.30857
G1 X181.507 Y250.358 E18.32086
G1 X181.389 Y250.454 E18.32814
G1 X181.117 Y250.655 E18.34434
G1 X180.915 Y250.789 E18.35595
G1 X180.511 Y251.037 E18.37865
G1 X180.36 Y251.12 E18.38691
G1 X180.068 Y251.27 E18.40263
G1 X179.81 Y251.391 E18.41628
G1 X179.492 Y251.525 E18.4328
G1 X179.205 Y251.633 E18.44749
G1 X178.88 Y251.74 E18.46388
G1 X178.631 Y251.813 E18.47631
G1 X178.29 Y251.898 E18.49314
G1 X178.004 Y251.959 E18.50714
G1 X177.711 Y252.009 E18.52138
G1 X177.408 Y252.049 E18.53602
G1 X177.043 Y252.08 E18.55356
G1 X176.738 Y252.094 E18.56819
G1 X176.388 Y252.098 E18.58495
G1 X176.072 Y252.087 E18.60009
G1 X175.646 Y252.054 E18.62056
G1 X175.447 Y252.03 E18.63016
G1 X175.079 Y251.972 E18.648
G1 X174.753 Y251.907 E18.66392
G1 X174.404 Y251.823 E18.68111
G1 X174.125 Y251.742 E18.69503
G1 X173.849 Y251.65 E18.70896
G1 X173.752 Y251.609 E18.71401
G1 X173.471 Y251.508 E18.72831
G1 X173.219 Y251.401 E18.74142
G1 X173.15 Y251.364 E18.74517
G1 X172.844 Y251.226 E18.76125
G1 X172.563 Y251.076 E18.7765
G1 X172.292 Y250.918 E18.79153
G1 X171.98 Y250.718 E18.80928
G1 X171.726 Y250.541 E18.8241
G1 X171.456 Y250.335 E18.84037
G1 X171.24 Y250.147 E18.85409
G1 X171.026 Y249.966 E18.86751
G1 X170.714 Y249.667 E18.88821
G1 X170.54 Y249.482 E18.90037
G1 X170.506 Y249.44 E18.90296
G1 X170.305 Y249.215 E18.91741
G1 X170.098 Y248.958 E18.93321
G1 X169.882 Y248.663 E18.95072
G1 X169.73 Y248.443 E18.96353
G1 X169.509 Y248.08 E18.98389
G1 X169.385 Y247.846 E18.99657
G1 X169.288 Y247.647 E19.00717
G1 X169.171 Y247.359 E19.02206
G1 X169.08 Y247.105 E19.03498
G1 X169.002 Y246.862 E19.04721
G1 X168.935 Y246.59 E19.06062
G1 X168.878 Y246.311 E19.07426
G1 X168.841 Y246.092 E19.0849
G1 X168.811 Y245.786 E19.09963
G1 X168.794 Y245.493 E19.11368
G1 X168.789 Y245.286 E19.1236
G1 X168.796 Y243.165 E19.22518
G1 X168.752 Y241.069 E19.32559
G1 X168.657 Y238.982 E19.42565
G1 X168.508 Y236.863 E19.52739
G1 X168.313 Y234.828 E19.6253
G1 X168.311 Y234.797 E19.62679
G1 X168.053 Y232.647 E19.7305
G1 X167.75 Y230.541 E19.83241
G1 X167.398 Y228.48 E19.93255
G1 X166.989 Y226.391 E20.0345
G1 X166.52 Y224.276 E20.13826
G1 X166.012 Y222.232 E20.23913
G1 X165.417 Y220.072 E20.34644
G1 X164.826 Y218.114 E20.4444
G1 X164.127 Y215.992 E20.5514
G1 X163.435 Y214.058 E20.64978
G1 X162.618 Y211.946 E20.75824
G1 X161.816 Y210.017 E20.85829
G1 X160.914 Y207.991 E20.96451
G1 X160.009 Y206.088 E21.06543
G1 X159.012 Y204.123 E21.17097
G1 X158.031 Y202.302 E21.27003
G1 X156.935 Y200.387 E21.37571
G1 X155.846 Y198.583 E21.47664
G1 X154.699 Y196.794 E21.57842
G1 X153.486 Y194.997 E21.68226
G1 X152.239 Y193.247 E21.78517
G1 X150.994 Y191.587 E21.88456
G1 X149.693 Y189.941 E21.98504
G1 X148.363 Y188.336 E22.08488
G1 X146.966 Y186.735 E22.18664
G1 X145.513 Y185.148 E22.2897
G1 X144.106 Y183.686 E22.38688
G1 X142.687 Y182.278 E22.48262
G1 X141.161 Y180.837 E22.58314
G1 X139.55 Y179.389 E22.68689
G1 X137.97 Y178.037 E22.78648
G1 X136.336 Y176.707 E22.88739
G1 X134.634 Y175.39 E22.99046
G1 X132.93 Y174.139 E23.09171
G1 X131.228 Y172.951 E23.19112
G1 X129.403 Y171.744 E23.29591
G1 X127.615 Y170.624 E23.39696
G1 X125.765 Y169.53 E23.4999
G1 X123.838 Y168.453 E23.60563
G1 X121.972 Y167.473 E23.70658
G1 X120.032 Y166.514 E23.81023
G1 X118.064 Y165.602 E23.91411
G1 X116.112 Y164.755 E24.01602
G1 X114.105 Y163.945 E24.11968
G1 X112.122 Y163.202 E24.2211
G1 X110.037 Y162.479 E24.3268
G1 X108.016 Y161.835 E24.42839
G1 X105.934 Y161.228 E24.53226
G1 X103.933 Y160.699 E24.63139
G1 X101.791 Y160.188 E24.73685
G1 X99.751 Y159.758 E24.83671
G1 X97.547 Y159.348 E24.94408
G1 X95.503 Y159.02 E25.04323
G1 X93.4 Y158.736 E25.14486
G1 X91.27 Y158.502 E25.24749
G1 X89.271 Y158.332 E25.34358
G1 X87.108 Y158.199 E25.44737
G1 X85.075 Y158.126 E25.5448
G1 X83.01 Y158.101 E25.64371
G1 X82.767 Y158.094 E25.65536
G1 X82.469 Y158.078 E25.66965
G1 X82.334 Y158.061 E25.67617
G1 X82.02 Y158.036 E25.69125
G1 X81.718 Y157.994 E25.70586
G1 X81.661 Y157.98 E25.70867
G1 X81.269 Y157.91 E25.72774
G1 X80.984 Y157.841 E25.74178
G1 X80.892 Y157.811 E25.74642
G1 X80.542 Y157.715 E25.7638
G1 X80.199 Y157.596 E25.78119
G1 X79.805 Y157.439 E25.8015
G1 X79.4 Y157.252 E25.82287
G1 X79.149 Y157.125 E25.83634
G1 X78.735 Y156.884 E25.85928
G1 X78.362 Y156.636 E25.88074
G1 X78.02 Y156.384 E25.90108
G1 X77.787 Y156.198 E25.91536
G1 X77.408 Y155.856 E25.93981
G1 X77.15 Y155.599 E25.95725
G1 X77.097 Y155.543 E25.96095
G1 X76.774 Y155.179 E25.98425
G1 X76.577 Y154.927 E25.99957
G1 X76.317 Y154.57 E26.02072
G1 X76.167 Y154.347 E26.0336
G1 X75.846 Y153.797 E26.0641
G1 X75.701 Y153.506 E26.07967
G1 X75.526 Y153.115 E26.10019
G1 X75.392 Y152.769 E26.11796
G1 X75.267 Y152.4 E26.13662
G1 X75.166 Y152.047 E26.1542
G1 X75.058 Y151.58 E26.17716
