;FLAVOR:Marlin
;TIME:12128
;Filament used: 5.84615m
;Layer height: 0.2
;MINX:112.836
;MINY:121.072
;MINZ:0.24
;MAXX:186.749
;MAXY:169.411
;MAXZ:36.69
;Generated with Cura_SteamEngine 4.12.0
M140 S55
M105
M190 S55
M104 S210
M105
M109 S210
M82 ;absolute extrusion mode
M201 X500.00 Y500.00 Z100.00 E5000.00 ;Setup machine max acceleration
M203 X500.00 Y500.00 Z10.00 E50.00 ;Setup machine max feedrate
M204 P500.00 R1000.00 T500.00 ;Setup Print/Retract/Travel acceleration
M205 X8.00 Y8.00 Z0.40 E5.00 ;Setup Jerk
M220 S100 ;Reset Feedrate
M221 S100 ;Reset Flowrate

G28 ;Home

G92 E0 ;Reset Extruder
G1 Z2.0 F3000 ;Move Z Axis up
G1 X10.1 Y20 Z0.28 F5000.0 ;Move to start position
G1 X10.1 Y200.0 Z0.28 F1500.0 E15 ;Draw the first line
G1 X10.4 Y200.0 Z0.28 F5000.0 ;Move to side a little
G1 X10.4 Y20 Z0.28 F1500.0 E30 ;Draw the second line
G92 E0 ;Reset Extruder
G1 Z2.0 F3000 ;Move Z Axis up

G92 E0
G92 E0
G1 F2700 E-7
;LAYER_COUNT:178
;LAYER:-6
M107
G0 F9000 X125.066 Y132.711 Z0.24
;TYPE:SUPPORT-INTERFACE
G1 F2700 E0
G1 F1125 X125.442 Y132.384 E0.03978
G1 X125.47 Y132.363 E0.04257
G1 X125.874 Y132.102 E0.08096
G1 X125.902 Y132.087 E0.0835
G1 X126.323 Y131.894 E0.12047
G1 X126.365 Y131.878 E0.12406
G1 X126.842 Y131.736 E0.16378
G1 X127.323 Y131.664 E0.20261
G1 X127.654 Y131.65 E0.22905
G1 X131.548 Y131.65 E0.53989
G1 X131.911 Y131.598 E0.56916
G1 X132.271 Y131.435 E0.60071
G1 X132.573 Y131.178 E0.63236
G1 X132.79 Y130.846 E0.66402
G1 X132.904 Y130.474 E0.69508
G1 X132.918 Y130.186 E0.71809
G1 X132.901 Y129.801 E0.74886
G1 X132.903 Y129.546 E0.76921
G1 X132.914 Y129.265 E0.79166
G1 X132.931 Y129.024 E0.81095
G1 X132.961 Y128.747 E0.83319
G1 X133.014 Y128.391 E0.86192
G1 X133.096 Y127.99 E0.89459
G1 X133.163 Y127.746 E0.91479
G1 X133.237 Y127.469 E0.93767
G1 X133.386 Y127.028 E0.97483
G1 X133.479 Y126.791 E0.99515
G1 X133.652 Y126.43 E1.02711
G1 X133.823 Y126.075 E1.05856
G1 X133.997 Y125.77 E1.08659
G1 X134.158 Y125.512 E1.11087
G1 X134.247 Y125.383 E1.12338
G1 X134.395 Y125.177 E1.14363
G1 X134.551 Y124.973 E1.16413
G1 X134.783 Y124.71 E1.19212
G1 X135.024 Y124.435 E1.22131
G1 X135.224 Y124.233 E1.244
G1 X135.465 Y124.008 E1.27032
G1 X135.816 Y123.717 E1.30671
G1 X136.023 Y123.561 E1.3274
G1 X136.228 Y123.417 E1.3474
G1 X136.445 Y123.275 E1.3681
G1 X136.677 Y123.134 E1.38977
G1 X136.96 Y122.978 E1.41557
G1 X137.26 Y122.828 E1.44234
G1 X137.62 Y122.668 E1.47379
G1 X137.862 Y122.574 E1.49451
G1 X138.325 Y122.42 E1.53346
G1 X138.582 Y122.348 E1.55477
G1 X139.105 Y122.231 E1.59755
G1 X139.444 Y122.174 E1.62499
G1 X139.797 Y122.135 E1.65334
G1 X139.831 Y122.134 E1.65605
G1 X140.124 Y122.111 E1.67951
G1 X140.394 Y122.102 E1.70108
G1 X140.623 Y122.102 E1.71936
G1 X140.881 Y122.111 E1.73997
G1 X141.166 Y122.134 E1.76279
G1 X141.556 Y122.174 E1.79408
G1 X141.894 Y122.23 E1.82143
G1 X142.216 Y122.3 E1.84774
G1 X142.562 Y122.386 E1.8762
G1 X142.881 Y122.484 E1.90283
G1 X143.155 Y122.584 E1.92612
G1 X143.421 Y122.692 E1.94903
G1 X143.815 Y122.862 E1.98329
G1 X144.035 Y122.983 E2.00333
G1 X144.298 Y123.119 E2.02696
G1 X144.53 Y123.265 E2.04885
G1 X144.631 Y123.317 E2.05791
G1 X144.977 Y123.436 E2.08712
G1 X145.373 Y123.457 E2.11878
G1 X145.748 Y123.369 E2.14952
G1 X146.007 Y123.236 E2.17276
G1 X146.235 Y123.1 E2.19396
G1 X146.473 Y122.97 E2.2156
G1 X146.897 Y122.763 E2.25327
G1 X147.256 Y122.614 E2.28429
G1 X147.398 Y122.561 E2.29639
G1 X147.654 Y122.472 E2.31803
G1 X147.913 Y122.393 E2.33964
G1 X148.211 Y122.322 E2.3641
G1 X148.661 Y122.22 E2.40093
G1 X148.857 Y122.187 E2.41679
G1 X149.12 Y122.152 E2.43797
G1 X149.424 Y122.13 E2.4623
G1 X149.677 Y122.107 E2.48258
G1 X149.948 Y122.101 E2.50422
G1 X150.098 Y122.103 E2.51619
G1 X150.454 Y122.116 E2.54463
G1 X150.72 Y122.136 E2.56592
G1 X150.974 Y122.163 E2.58631
G1 X151.309 Y122.214 E2.61336
G1 X151.708 Y122.296 E2.64588
G1 X151.957 Y122.363 E2.66646
G1 X152.217 Y122.433 E2.68795
G1 X152.477 Y122.516 E2.70974
G1 X152.909 Y122.678 E2.74657
G1 X153.188 Y122.803 E2.77097
G1 X153.426 Y122.918 E2.79207
G1 X153.63 Y123.027 E2.81054
G1 X153.867 Y123.16 E2.83223
G1 X154.041 Y123.267 E2.84854
G1 X154.378 Y123.413 E2.87785
G1 X154.771 Y123.463 E2.90948
G1 X155.158 Y123.402 E2.94075
G1 X155.457 Y123.268 E2.9669
G1 X155.677 Y123.134 E2.98747
G1 X155.96 Y122.978 E3.01326
G1 X156.26 Y122.828 E3.04004
G1 X156.62 Y122.668 E3.07148
G1 X156.862 Y122.574 E3.09221
G1 X157.325 Y122.42 E3.13116
G1 X157.582 Y122.348 E3.15246
G1 X158.105 Y122.231 E3.19524
G1 X158.444 Y122.174 E3.22268
G1 X158.797 Y122.135 E3.25103
G1 X158.831 Y122.134 E3.25375
G1 X159.124 Y122.111 E3.27721
G1 X159.394 Y122.102 E3.29877
G1 X159.623 Y122.102 E3.31705
G1 X159.881 Y122.111 E3.33766
G1 X160.166 Y122.134 E3.36048
G1 X160.556 Y122.174 E3.39178
G1 X160.894 Y122.23 E3.41913
G1 X161.216 Y122.3 E3.44543
G1 X161.562 Y122.386 E3.47389
G1 X161.881 Y122.484 E3.50053
G1 X162.155 Y122.584 E3.52381
G1 X162.421 Y122.692 E3.54673
G1 X162.815 Y122.862 E3.58098
G1 X163.035 Y122.983 E3.60102
G1 X163.298 Y123.119 E3.62466
G1 X163.531 Y123.265 E3.64661
G1 X163.633 Y123.317 E3.65574
G1 X163.981 Y123.439 E3.68518
G1 X164.376 Y123.458 E3.71675
G1 X164.751 Y123.37 E3.7475
G1 X165.157 Y123.145 E3.78455
G1 X165.46 Y122.978 E3.81217
G1 X165.76 Y122.828 E3.83894
G1 X166.12 Y122.668 E3.87039
G1 X166.362 Y122.574 E3.89111
G1 X166.825 Y122.42 E3.93006
G1 X167.082 Y122.348 E3.95136
G1 X167.605 Y122.231 E3.99414
G1 X167.944 Y122.174 E4.02158
G1 X168.297 Y122.135 E4.04993
G1 X168.331 Y122.134 E4.05265
G1 X168.624 Y122.111 E4.07611
G1 X168.894 Y122.102 E4.09767
G1 X169.123 Y122.102 E4.11595
G1 X169.381 Y122.111 E4.13656
G1 X169.666 Y122.134 E4.15939
G1 X170.056 Y122.174 E4.19068
G1 X170.394 Y122.23 E4.21803
G1 X170.716 Y122.3 E4.24433
G1 X171.062 Y122.386 E4.27279
G1 X171.381 Y122.484 E4.29943
G1 X171.655 Y122.584 E4.32271
G1 X171.921 Y122.692 E4.34563
G1 X172.315 Y122.862 E4.37988
G1 X172.535 Y122.983 E4.39993
G1 X172.798 Y123.119 E4.42356
G1 X173.028 Y123.264 E4.44526
G1 X173.403 Y123.514 E4.48124
G1 X173.647 Y123.689 E4.50521
G1 X173.881 Y123.876 E4.52912
G1 X174.08 Y124.051 E4.55027
G1 X174.279 Y124.237 E4.57202
G1 X174.617 Y124.584 E4.61068
G1 X174.863 Y124.864 E4.64044
G1 X174.955 Y124.98 E4.65225
G1 X175.111 Y125.184 E4.67275
G1 X175.26 Y125.393 E4.69324
G1 X175.415 Y125.629 E4.71578
G1 X175.557 Y125.86 E4.73743
G1 X175.684 Y126.104 E4.75938
G1 X175.895 Y126.506 E4.79562
G1 X176.01 Y126.777 E4.81912
G1 X176.174 Y127.193 E4.85482
G1 X176.262 Y127.463 E4.87749
G1 X176.336 Y127.717 E4.89861
G1 X176.407 Y128.011 E4.92275
G1 X176.465 Y128.289 E4.94542
G1 X176.521 Y128.616 E4.9719
G1 X176.557 Y128.913 E4.99578
G1 X176.582 Y129.22 E5.02037
G1 X176.596 Y129.488 E5.04179
G1 X176.599 Y129.746 E5.06239
G1 X176.593 Y130.004 E5.08299
G1 X176.571 Y130.275 E5.10469
G1 X176.552 Y130.549 E5.12661
G1 X176.527 Y130.737 E5.14175
G1 X176.472 Y131.088 E5.17011
G1 X176.374 Y131.534 E5.20656
G1 X176.301 Y131.811 E5.22943
G1 X176.207 Y132.113 E5.25468
G1 X176.149 Y132.275 E5.26841
G1 X176.057 Y132.518 E5.28916
G1 X175.96 Y132.751 E5.3093
G1 X175.862 Y132.963 E5.32794
G1 X175.756 Y133.316 E5.35737
G1 X175.754 Y133.618 E5.38147
G1 X175.692 Y133.639 E5.3867
G1 X175.875 Y134.121 E5.42785
G1 X176.014 Y134.592 E5.46705
G1 X176.086 Y135.073 E5.50588
G1 X176.1 Y135.393 E5.53145
G1 X176.1 Y139.279 E5.84164
G1 X176.152 Y139.642 E5.87091
G1 X176.315 Y140.002 E5.90246
G1 X176.572 Y140.304 E5.93411
G1 X176.904 Y140.521 E5.96578
G1 X177.27 Y140.633 E5.99633
G1 X177.485 Y140.65 E6.01354
G1 X181.488 Y140.65 E6.33308
G1 X181.541 Y140.652 E6.33731
G1 X182.175 Y140.708 E6.38812
G1 X182.446 Y140.756 E6.41009
G1 X182.934 Y140.879 E6.45026
G1 X182.968 Y140.89 E6.45311
G1 X183.445 Y141.085 E6.49425
G1 X183.687 Y141.217 E6.51625
G1 X183.974 Y141.387 E6.54288
G1 X184.383 Y141.671 E6.58263
G1 X184.412 Y141.694 E6.58558
G1 X184.859 Y142.122 E6.63498
G1 X185.041 Y142.328 E6.65692
G1 X185.359 Y142.747 E6.69891
G1 X185.372 Y142.767 E6.70082
G1 X185.605 Y143.188 E6.73923
G1 X185.625 Y143.228 E6.7428
G1 X185.749 Y143.534 E6.76915
G1 X185.866 Y143.863 E6.79703
G1 X186.006 Y144.359 E6.83817
G1 X186.015 Y144.4 E6.84152
G1 X186.058 Y144.685 E6.86452
G1 X186.079 Y144.868 E6.87923
G1 X186.1 Y145.255 E6.91016
G1 X186.1 Y153.238 E7.5474
G1 X186.033 Y153.951 E7.60457
G1 X185.975 Y154.254 E7.62919
G1 X185.85 Y154.731 E7.66856
G1 X185.833 Y154.778 E7.67255
G1 X185.545 Y155.412 E7.72813
G1 X185.37 Y155.715 E7.75606
G1 X185.101 Y156.112 E7.79434
G1 X185.061 Y156.161 E7.79939
G1 X184.585 Y156.656 E7.85421
G1 X184.399 Y156.816 E7.87379
G1 X183.877 Y157.189 E7.92501
G1 X183.817 Y157.223 E7.93051
G1 X183.263 Y157.493 E7.97971
G1 X183.158 Y157.534 E7.9887
G1 X182.816 Y157.648 E8.01748
G1 X182.669 Y157.688 E8.02964
G1 X182.148 Y157.795 E8.0721
G1 X181.936 Y157.821 E8.08915
G1 X181.478 Y157.85 E8.12578
G1 X177.471 Y157.85 E8.44564
G1 X177.108 Y157.902 E8.47491
G1 X176.748 Y158.065 E8.50645
G1 X176.446 Y158.322 E8.53811
G1 X176.229 Y158.654 E8.56977
G1 X176.117 Y159.02 E8.60032
G1 X176.1 Y159.235 E8.61754
G1 X176.099 Y164.629 E9.04811
G1 X176.065 Y165.111 E9.08668
G1 X176.058 Y165.164 E9.09095
G1 X175.96 Y165.619 E9.1281
G1 X175.948 Y165.659 E9.13143
G1 X175.793 Y166.081 E9.16732
G1 X175.767 Y166.139 E9.17239
G1 X175.55 Y166.54 E9.20879
G1 X175.522 Y166.584 E9.21295
G1 X175.246 Y166.958 E9.25006
G1 X175.051 Y167.172 E9.27317
G1 X174.934 Y167.289 E9.28638
G1 X174.558 Y167.616 E9.32615
G1 X174.53 Y167.637 E9.32895
G1 X174.126 Y167.898 E9.36734
G1 X174.098 Y167.913 E9.36988
G1 X173.677 Y168.106 E9.40684
G1 X173.635 Y168.122 E9.41043
G1 X173.158 Y168.264 E9.45016
G1 X172.677 Y168.336 E9.48898
G1 X172.346 Y168.35 E9.51543
G1 X127.653 Y168.35 E13.08302
G1 X127.139 Y168.315 E13.12414
G1 X127.086 Y168.308 E13.12841
G1 X126.631 Y168.21 E13.16556
G1 X126.591 Y168.198 E13.1689
G1 X126.164 Y168.041 E13.20521
G1 X126.111 Y168.017 E13.20986
G1 X125.71 Y167.8 E13.24625
G1 X125.666 Y167.772 E13.25042
G1 X125.294 Y167.498 E13.2873
G1 X125.264 Y167.473 E13.29041
G1 X125.058 Y167.281 E13.31289
G1 X124.954 Y167.177 E13.32463
G1 X124.634 Y166.808 E13.36362
G1 X124.613 Y166.78 E13.36641
G1 X124.352 Y166.376 E13.40481
G1 X124.337 Y166.348 E13.40734
G1 X124.144 Y165.927 E13.44431
G1 X124.128 Y165.885 E13.4479
G1 X123.986 Y165.408 E13.48763
G1 X123.914 Y164.927 E13.52645
G1 X123.901 Y164.645 E13.54898
G1 X123.9 Y159.221 E13.98195
G1 X123.848 Y158.858 E14.01122
G1 X123.685 Y158.498 E14.04277
G1 X123.428 Y158.196 E14.07442
G1 X123.096 Y157.979 E14.10608
G1 X122.73 Y157.867 E14.13664
G1 X122.515 Y157.85 E14.15385
G1 X118.509 Y157.85 E14.47363
G1 X117.943 Y157.811 E14.51892
G1 X117.663 Y157.769 E14.54152
G1 X117.182 Y157.665 E14.5808
G1 X117.146 Y157.654 E14.58381
G1 X116.701 Y157.488 E14.62172
G1 X116.67 Y157.474 E14.62443
G1 X116.301 Y157.279 E14.65775
G1 X116.004 Y157.097 E14.68555
G1 X115.843 Y156.991 E14.70094
G1 X115.458 Y156.7 E14.73946
G1 X115.417 Y156.663 E14.74387
G1 X114.984 Y156.207 E14.79407
G1 X114.813 Y155.989 E14.81618
G1 X114.422 Y155.378 E14.87409
G1 X114.4 Y155.332 E14.87816
G1 X114.182 Y154.815 E14.92295
G1 X114.104 Y154.583 E14.94249
G1 X113.973 Y154.068 E14.9849
G1 X113.928 Y153.747 E15.01078
G1 X113.917 Y153.618 E15.02111
G1 X113.9 Y153.261 E15.04964
G1 X113.901 Y145.242 E15.68975
G1 X113.973 Y144.526 E15.7472
G1 X113.982 Y144.465 E15.75212
G1 X114.032 Y144.219 E15.77216
G1 X114.049 Y144.149 E15.77791
G1 X114.172 Y143.709 E15.81438
G1 X114.191 Y143.656 E15.81887
G1 X114.445 Y143.107 E15.86716
G1 X114.471 Y143.056 E15.87173
G1 X114.616 Y142.806 E15.8948
G1 X114.872 Y142.422 E15.93164
G1 X114.917 Y142.368 E15.93725
G1 X115.417 Y141.851 E15.99466
G1 X115.448 Y141.822 E15.99805
G1 X115.685 Y141.623 E16.02275
G1 X116.084 Y141.335 E16.06203
G1 X116.122 Y141.311 E16.06562
G1 X116.534 Y141.093 E16.10283
G1 X116.812 Y140.981 E16.12675
G1 X117.092 Y140.882 E16.15046
G1 X117.126 Y140.871 E16.15331
G1 X117.601 Y140.742 E16.1926
G1 X117.637 Y140.734 E16.19554
G1 X117.939 Y140.689 E16.21992
G1 X118.14 Y140.669 E16.23604
G1 X118.526 Y140.65 E16.26689
G1 X122.529 Y140.65 E16.58643
G1 X122.892 Y140.598 E16.6157
G1 X123.252 Y140.435 E16.64724
G1 X123.554 Y140.178 E16.6789
G1 X123.771 Y139.846 E16.71056
G1 X123.883 Y139.48 E16.74111
G1 X123.9 Y139.265 E16.75833
G1 X123.9 Y135.402 E17.06669
G1 X123.935 Y134.889 E17.10773
G1 X123.942 Y134.836 E17.112
G1 X124.04 Y134.381 E17.14915
G1 X124.054 Y134.334 E17.15307
G1 X124.207 Y133.919 E17.18838
G1 X124.233 Y133.861 E17.19345
G1 X124.45 Y133.46 E17.22985
G1 X124.478 Y133.416 E17.23401
G1 X124.748 Y133.049 E17.27038
G1 X124.774 Y133.017 E17.27367
G1 X124.969 Y132.808 E17.29649
G1 X125.066 Y132.711 E17.30744
G0 F9000 X124.8 Y132.989
G1 F1125 X124.8 Y166.999 E20.02226
G0 F9000 X126.4 Y168.127
G1 F1125 X126.4 Y131.867 E22.91669
G0 F9000 X128 Y131.65
G1 F1125 X128 Y168.35 E25.84624
G0 F9000 X129.6 Y168.35
G1 F1125 X129.6 Y131.65 E28.7758
G0 F9000 X131.2 Y131.65
G1 F1125 X131.2 Y168.35 E31.70535
G0 F9000 X132.8 Y168.35
G1 F1125 X132.8 Y130.813 E34.70172
G1 F2700 E27.70172
G0 F9000 X131.848 Y130.291
G0 X131.858 Y128.838
G0 X132.199 Y126.465
G0 X133.269 Y124.927
G0 X134.4 Y125.17
G1 F2700 E34.70172
G1 F1125 X134.4 Y168.35 E38.14853
G0 F9000 X136 Y168.35
G1 F1125 X136 Y123.578 E41.72242
G0 F9000 X137.6 Y122.676
G1 F1125 X137.6 Y168.35 E45.36832
G0 F9000 X139.2 Y168.35
G1 F1125 X139.2 Y122.215 E49.05102
G0 F9000 X140.8 Y122.109
G1 F1125 X140.8 Y168.35 E52.74217
G0 F9000 X142.4 Y168.35
G1 F1125 X142.4 Y122.346 E56.41441
G0 F9000 X144 Y122.964
G1 F1125 X144 Y168.35 E60.03732
G0 F9000 X145.6 Y168.35
G1 F1125 X145.6 Y123.403 E63.62518
G0 F9000 X147.2 Y122.637
G1 F1125 X147.2 Y168.35 E67.27419
G0 F9000 X148.8 Y168.35
G1 F1125 X148.8 Y122.196 E70.9584
G0 F9000 X150.4 Y122.115
G1 F1125 X150.4 Y168.35 E74.64908
G0 F9000 X152 Y168.35
G1 F1125 X152 Y122.375 E78.319
G0 F9000 X153.6 Y123.011
G1 F1125 X153.6 Y168.35 E81.93816
G0 F9000 X155.2 Y168.35
G1 F1125 X155.2 Y123.383 E85.52762
G0 F9000 X156.8 Y122.598
G1 F1125 X156.8 Y168.35 E89.17974
G0 F9000 X158.4 Y168.35
G1 F1125 X158.4 Y122.181 E92.86515
G0 F9000 X160 Y122.121
G1 F1125 X160 Y168.35 E96.55535
G0 F9000 X161.6 Y168.35
G1 F1125 X161.6 Y122.398 E100.22344
G0 F9000 X163.2 Y123.069
G1 F1125 X163.2 Y168.35 E103.83796
G0 F9000 X164.8 Y168.35
G1 F1125 X164.8 Y123.342 E107.4307
G0 F9000 X166.4 Y122.561
G1 F1125 X166.4 Y168.35 E111.08577
G0 F9000 X168 Y168.35
G1 F1125 X168 Y122.167 E114.7723
G0 F9000 X169.6 Y122.129
G1 F1125 X169.6 Y168.35 E118.46186
G0 F9000 X171.2 Y168.35
G1 F1125 X171.2 Y122.429 E122.12747
G0 F9000 X172.8 Y123.121
G1 F1125 X172.8 Y168.318 E125.73529
G0 F9000 X174.4 Y167.721
G1 F1125 X174.4 Y124.362 E129.19639
G0 F9000 X176 Y126.754
G1 F1125 X176 Y132.655 E129.66744
G0 F9000 X176 Y134.545
G1 F1125 X176 Y165.434 E132.13313
G1 F2700 E125.13313
G0 F9000 X177.124 Y165.225
G0 X177.549 Y158.914
G0 X177.6 Y157.85
G1 F2700 E132.13313
G1 F1125 X177.6 Y140.65 E133.50611
G0 F9000 X179.2 Y140.65
G1 F1125 X179.2 Y157.85 E134.87909
G0 F9000 X180.8 Y157.85
G1 F1125 X180.8 Y140.65 E136.25207
G0 F9000 X182.4 Y140.748
G1 F1125 X182.4 Y157.744 E137.60876
G0 F9000 X184 Y157.102
G1 F1125 X184 Y141.406 E138.86168
G0 F9000 X185.6 Y143.179
G1 F1125 X185.6 Y155.291 E139.82851
G1 F2700 E132.82851
G0 F9000 X186.47 Y155.938
G0 X185.864 Y156.86
G0 X175.664 Y168.064
G0 X175.139 Y168.51
G0 X174.575 Y168.864
G0 X173.455 Y169.288
G0 X172.702 Y169.402
G0 X127.552 Y169.411
G0 X126.366 Y169.242
G0 X125.642 Y168.973
G0 X124.637 Y168.335
G0 X123.74 Y167.389
G0 X123.386 Y166.825
G0 X122.962 Y165.705
G0 X122.871 Y165.096
G0 X122.718 Y159.002
G0 X123.2 Y158.046
G1 F2700 E139.82851
G1 F1125 X123.2 Y140.458 E141.23246
G0 F9000 X121.6 Y140.65
G1 F1125 X121.6 Y157.85 E142.60544
G0 F9000 X120 Y157.85
G1 F1125 X120 Y140.65 E143.97842
G0 F9000 X118.4 Y140.656
G1 F1125 X118.4 Y157.842 E145.35028
G0 F9000 X116.8 Y157.524
G1 F1125 X116.8 Y140.985 E146.6705
G0 F9000 X115.2 Y142.075
G1 F1125 X115.2 Y156.434 E147.81669
G1 F2700 E140.81669
G0 F300 X115.2 Y156.434 Z0.54
G0 F9000 X114.831 Y156.014
;TIME_ELAPSED:111.884274
;LAYER:-5
;TYPE:SUPPORT
G1 F2700 E147.81669
G1 F1125 X114.951 Y156.167 E147.8361
