;FLAVOR:Marlin
;TIME:1517
;Filament used: 0.840477m
;Layer height: 0.2
;MINX:138.856
;MINY:141.543
;MINZ:0.2
;MAXX:160.589
;MAXY:159.313
;MAXZ:21.4
;Generated with Cura_SteamEngine 4.12.0
M140 S60
M105
M190 S60
M104 S200
M105
M109 S200
M82 ;absolute extrusion mode
M201 X500.00 Y500.00 Z100.00 E5000.00 ;Setup machine max acceleration
M203 X500.00 Y500.00 Z10.00 E50.00 ;Setup machine max feedrate
M204 P500.00 R1000.00 T500.00 ;Setup Print/Retract/Travel acceleration
M205 X8.00 Y8.00 Z0.40 E5.00 ;Setup Jerk
M220 S100 ;Reset Feedrate
M221 S100 ;Reset Flowrate

G28 ;Home

G92 E0 ;Reset Extruder
G1 Z2.0 F3000 ;Move Z Axis up
G1 X10.1 Y20 Z0.28 F5000.0 ;Move to start position
G1 X10.1 Y200.0 Z0.28 F1500.0 E15 ;Draw the first line
G1 X10.4 Y200.0 Z0.28 F5000.0 ;Move to side a little
G1 X10.4 Y20 Z0.28 F1500.0 E30 ;Draw the second line
G92 E0 ;Reset Extruder
G1 Z2.0 F3000 ;Move Z Axis up

G92 E0
G92 E0
G1 F2700 E-7
;LAYER_COUNT:107
;LAYER:0
M107
G0 F6000 X145.197 Y153.854 Z0.2
;TYPE:SKIRT
G1 F2700 E0
G1 F1200 X146.522 Y155.139 E0.06139
G1 X146.522 Y156.801 E0.11667
G1 X146.38 Y156.604 E0.12475
G1 X146.154 Y156.358 E0.13586
G1 X146.102 Y156.327 E0.13787
G1 X145.996 Y156.099 E0.14623
G1 X145.873 Y155.766 E0.15804
G1 X145.706 Y155.417 E0.17091
G1 X145.555 Y154.984 E0.18616
G1 X145.459 Y154.792 E0.1933
G1 X145.441 Y154.646 E0.19819
G1 X145.297 Y154.18 E0.21442
G1 X145.229 Y154.048 E0.21935
G1 X145.197 Y153.854 E0.22589
G0 F6000 X144.818 Y153.96
G1 F1200 X144.721 Y153.621 E0.23762
G1 X144.623 Y153.422 E0.245
G1 X144.581 Y153.139 E0.25451
G1 X144.707 Y152.821 E0.26589
G1 X146.799 Y154.85 E0.36282
G1 X146.942 Y154.965 E0.36893
G1 X146.922 Y155.136 E0.37465
G1 X146.922 Y157.069 E0.43894
G1 X146.842 Y157.505 E0.45369
G1 X146.492 Y157.442 E0.46552
G1 X146.056 Y156.838 E0.49029
G1 X145.86 Y156.635 E0.49968
G1 X145.784 Y156.591 E0.5026
G1 X145.621 Y156.243 E0.51538
G1 X145.497 Y155.905 E0.52735
G1 X145.451 Y155.797 E0.53126
G1 X145.333 Y155.564 E0.53994
G1 X145.26 Y155.321 E0.54838
G1 X145.197 Y155.163 E0.55404
G1 X145.071 Y154.91 E0.56344
G1 X145.044 Y154.696 E0.57062
G1 X144.941 Y154.363 E0.58221
G1 X144.839 Y154.165 E0.58962
G1 X144.818 Y153.96 E0.59647
G0 F6000 X144.42 Y154
G1 F1200 X144.362 Y153.797 E0.60349
G1 X144.232 Y153.532 E0.61331
G1 X144.207 Y153.258 E0.62246
G1 X144.149 Y153.058 E0.62939
G1 X144.303 Y152.826 E0.63865
G1 X144.34 Y152.675 E0.64382
G1 X144.382 Y152.278 E0.6571
G1 X144.35 Y152.024 E0.66561
G1 X144.589 Y152.137 E0.67441
G1 X144.656 Y152.215 E0.67783
G1 X147.077 Y154.563 E0.79
G1 X147.311 Y154.732 E0.7996
G1 X147.438 Y154.799 E0.80438
G1 X147.378 Y154.884 E0.80784
G1 X147.322 Y155.136 E0.81642
G1 X147.322 Y157.103 E0.88184
G1 X147.163 Y157.968 E0.9111
G1 X146.262 Y157.806 E0.94154
G1 X145.732 Y157.072 E0.97166
G1 X145.473 Y156.868 E0.98262
G1 X145.252 Y156.396 E0.99996
G1 X145.122 Y156.043 E1.01247
G1 X145.094 Y155.978 E1.01482
G1 X144.961 Y155.715 E1.02462
G1 X144.877 Y155.436 E1.03432
G1 X144.839 Y155.341 E1.03772
G1 X144.682 Y155.026 E1.04942
G1 X144.647 Y154.746 E1.05881
G1 X144.585 Y154.546 E1.06577
G1 X144.449 Y154.281 E1.07568
G1 X144.42 Y154 E1.08508
G0 F6000 X144.022 Y154.041
G1 F1200 X144.003 Y153.973 E1.08743
G1 X143.839 Y153.64 E1.09977
G1 X143.808 Y153.295 E1.11129
G1 X143.788 Y153.223 E1.11378
G1 X143.671 Y152.992 E1.12239
G1 X143.892 Y152.746 E1.13339
G1 X143.942 Y152.633 E1.1375
G1 X143.984 Y152.236 E1.15078
G1 X143.958 Y152.115 E1.15489
G1 X143.179 Y150.771 E1.20656
G1 X143.106 Y150.687 E1.21026
G1 X142.913 Y150.356 E1.22301
G1 X142.885 Y150.319 E1.22455
G1 X142.557 Y149.973 E1.24041
G1 X142.518 Y148.606 E1.28589
G1 X142.462 Y148.473 E1.29069
G1 X142.185 Y148.187 E1.30393
G1 X142.052 Y148.126 E1.3088
G1 X139.747 Y147.997 E1.38558
G1 X139.759 Y147.9 E1.38884
G1 X139.741 Y147.569 E1.39986
G1 X139.822 Y146.803 E1.42548
G1 X139.954 Y146.455 E1.43786
G1 X139.966 Y146.405 E1.43957
G1 X140.133 Y144.827 E1.49235
G1 X140.649 Y144.554 E1.51176
G1 X140.683 Y144.532 E1.51311
G1 X140.965 Y144.301 E1.52523
G1 X141.205 Y144.17 E1.53433
G1 X141.499 Y143.928 E1.54699
G1 X141.725 Y143.802 E1.5556
G1 X141.998 Y143.578 E1.56735
G1 X142.343 Y143.399 E1.58027
G1 X142.739 Y143.317 E1.59372
G1 X142.89 Y143.524 E1.60225
G1 X142.492 Y143.639 E1.61602
G1 X142.271 Y143.745 E1.62418
G1 X141.979 Y143.959 E1.63622
G1 X141.941 Y143.995 E1.63796
G1 X141.782 Y144.194 E1.64643
G1 X141.756 Y144.236 E1.64807
G1 X141.49 Y144.815 E1.66927
G1 X141.473 Y144.915 E1.67264
G1 X141.518 Y145.436 E1.69003
G1 X141.551 Y145.531 E1.69338
G1 X141.834 Y145.951 E1.71022
G1 X142.51 Y147.023 E1.75237
G1 X142.406 Y147.307 E1.76243
G1 X142.37 Y147.58 E1.77159
G1 X142.37 Y147.624 E1.77306
G1 X142.405 Y147.944 E1.78376
G1 X142.48 Y148.193 E1.79241
G1 X142.947 Y149.093 E1.82614
G1 X142.778 Y149.561 E1.84269
G1 X142.788 Y149.721 E1.84802
G1 X142.971 Y150.075 E1.86127
G1 X143.095 Y150.175 E1.86657
G1 X143.581 Y150.312 E1.88336
G1 X144.047 Y151.21 E1.91701
G1 X144.204 Y151.41 E1.92547
G1 X144.235 Y151.44 E1.92691
G1 X144.496 Y151.646 E1.93796
G1 X144.742 Y151.769 E1.94711
G1 X144.843 Y151.814 E1.95079
G1 X144.935 Y151.928 E1.95566
G1 X147.356 Y154.276 E2.06783
G1 X147.57 Y154.42 E2.07641
G1 X147.871 Y154.548 E2.08729
G1 X148.12 Y154.604 E2.09578
G1 X148.487 Y154.618 E2.108
G1 X148.732 Y154.603 E2.11616
G1 X153.243 Y153.83 E2.26838
G1 X153.334 Y154.04 E2.276
G1 X153.162 Y154.168 E2.28313
G1 X152.953 Y154.247 E2.29056
G1 X152.622 Y154.494 E2.3043
G1 X152.417 Y154.573 E2.3116
G1 X152.142 Y154.784 E2.32313
G1 X148.214 Y154.658 E2.45384
G1 X148.069 Y154.715 E2.45903
G1 X147.783 Y154.993 E2.47229
G1 X147.722 Y155.136 E2.47746
G1 X147.722 Y157.138 E2.54405
G1 X147.515 Y158.261 E2.58203
G1 X147.464 Y158.429 E2.58787
G1 X146.032 Y158.171 E2.63626
G1 X145.407 Y157.306 E2.67176
G1 X145.199 Y157.189 E2.6797
G1 X145.126 Y157.072 E2.68428
G1 X144.886 Y156.559 E2.70312
G1 X144.747 Y156.181 E2.71652
G1 X144.588 Y155.866 E2.72825
G1 X144.494 Y155.551 E2.73919
G1 X144.481 Y155.519 E2.74033
G1 X144.294 Y155.142 E2.75433
G1 X144.25 Y154.796 E2.76593
G1 X144.23 Y154.729 E2.76826
G1 X144.058 Y154.395 E2.78075
G1 X144.022 Y154.041 E2.79259
G0 F6000 X141.979 Y147.722
G1 F1200 X140.144 Y147.618 E2.85372
G1 X140.142 Y147.587 E2.85475
G1 X140.215 Y146.895 E2.87789
G1 X140.328 Y146.596 E2.88853
G1 X140.364 Y146.447 E2.89362
G1 X140.508 Y145.08 E2.93934
G1 X140.836 Y144.907 E2.95168
G1 X141.119 Y144.691 E2.96352
G1 X141.074 Y144.95 E2.97226
G1 X141.119 Y145.471 E2.98965
G1 X141.219 Y145.754 E2.99964
G1 X141.495 Y146.164 E3.01608
G1 X142.066 Y147.07 E3.05169
G1 X141.973 Y147.536 E3.0675
G1 X141.979 Y147.722 E3.07369
G0 F6000 X141.596 Y147.3
G1 F1200 X140.58 Y147.243 E3.10753
G1 X140.606 Y146.991 E3.11596
G1 X140.702 Y146.738 E3.12496
G1 X140.761 Y146.489 E3.13347
G1 X140.827 Y145.863 E3.15441
G1 X140.887 Y145.977 E3.15869
G1 X141.173 Y146.402 E3.17573
G1 X141.632 Y147.13 E3.20436
G1 X141.596 Y147.3 E3.21013
G1 F2700 E-3.78987
;MESH:Bunny-LowPoly.stl
G0 F6000 X143.8 Y147.631
G0 X145.763 Y149.8
G0 X148.571 Y152.425
G0 X154.071 Y151.477
G0 X154.267 Y149.118
;TYPE:WALL-INNER
G1 F2700 E3.21013
G1 F1200 X154.25 Y151.629 E3.33541
G1 X148.512 Y152.612 E3.62585
G1 X146.479 Y150.641 E3.76712
G1 X146.306 Y150.132 E3.79394
G1 X145.644 Y149.946 E3.82825
G1 X144.427 Y147.601 E3.96006
G1 X144.467 Y147.49 E3.96594
G1 X144.835 Y146.962 E3.99805
G1 X143.811 Y145.338 E4.09384
G1 X146.152 Y144.662 E4.2154
G1 X146.793 Y144.812 E4.24824
G1 X147.22 Y144.235 E4.28406
G1 X152.014 Y143.669 E4.52489
G1 X152.991 Y143.851 E4.57447
G1 X153.104 Y143.875 E4.58024
G1 X157.053 Y145.093 E4.78641
G1 X157.082 Y145.105 E4.78798
G1 X158.115 Y146.373 E4.86957
G1 X157.555 Y148.004 E4.95561
G1 X154.267 Y149.118 E5.1288
G0 F6000 X154.665 Y149.405
G1 F1200 X154.648 Y151.966 E5.25658
G1 X148.516 Y153.017 E5.56696
G1 X148.349 Y153.011 E5.5753
G1 X146.131 Y150.86 E5.72945
G1 X145.995 Y150.46 E5.75053
G1 X145.369 Y150.284 E5.78297
G1 X143.991 Y147.63 E5.93216
G1 X144.109 Y147.304 E5.94946
G1 X144.355 Y146.951 E5.97092
G1 X143.19 Y145.102 E6.07995
G1 X143.7 Y144.955 E6.10643
G1 X146.141 Y144.249 E6.23321
G1 X146.628 Y144.363 E6.25816
G1 X147.002 Y143.858 E6.28951
G1 X152.027 Y143.265 E6.54195
G1 X153.069 Y143.459 E6.59483
G1 X153.206 Y143.488 E6.60181
G1 X157.195 Y144.718 E6.81007
G1 X157.328 Y144.773 E6.81725
G1 X158.565 Y146.292 E6.91499
G1 X157.882 Y148.281 E7.01991
G1 X157.812 Y148.339 E7.02444
G1 X154.665 Y149.405 E7.19021
G0 F6000 X155.063 Y149.692
;TYPE:WALL-OUTER
G1 F1200 X155.047 Y152.191 E7.27333
G1 X154.988 Y152.303 E7.27754
G1 X154.748 Y152.355 E7.28571
G1 X148.563 Y153.415 E7.49442
G1 X148.514 Y153.418 E7.49605
G1 X148.257 Y153.408 E7.50461
G1 X148.128 Y153.353 E7.50927
G1 X145.817 Y151.112 E7.61634
G1 X145.767 Y151.032 E7.61948
G1 X145.684 Y150.788 E7.62805
G1 X145.16 Y150.641 E7.64615
G1 X145.064 Y150.565 E7.65022
G1 X143.588 Y147.721 E7.75679
G1 X143.575 Y147.604 E7.76071
G1 X143.751 Y147.118 E7.7779
G1 X143.875 Y146.94 E7.78512
G1 X142.849 Y145.311 E7.84915
G1 X142.691 Y145.076 E7.85857
G1 X142.795 Y144.848 E7.8669
G1 X142.903 Y144.769 E7.87135
G1 X146.082 Y143.85 E7.98142
G1 X146.181 Y143.848 E7.98471
G1 X146.463 Y143.914 E7.99434
G1 X146.743 Y143.536 E8.00999
G1 X146.842 Y143.474 E8.01387
G1 X152.009 Y142.865 E8.18692
G1 X152.066 Y142.866 E8.18881
G1 X153.136 Y143.065 E8.22501
G1 X153.347 Y143.097 E8.23211
G1 X153.386 Y143.125 E8.23371
G1 X157.328 Y144.341 E8.37091
G1 X157.575 Y144.442 E8.37979
G1 X158.941 Y146.12 E8.45176
G1 X158.981 Y146.203 E8.45482
G1 X158.978 Y146.32 E8.45871
G1 X158.223 Y148.519 E8.53604
G1 X158.009 Y148.694 E8.54524
G1 X155.063 Y149.692 E8.64869
G0 F6000 X154.764 Y149.69
G0 X154.139 Y149.025
G0 X153.879 Y148.837
;TYPE:SKIN
G1 F1200 X153.862 Y151.3 E8.73061
G1 X148.642 Y152.195 E8.90676
G1 X146.818 Y150.427 E8.99125
G1 X146.609 Y149.812 E9.01286
G1 X145.913 Y149.617 E9.0369
G1 X144.866 Y147.599 E9.11251
G1 X145.303 Y146.973 E9.1379
G1 X144.418 Y145.569 E9.1931
G1 X146.162 Y145.065 E9.25348
G1 X146.955 Y145.25 E9.28057
G1 X147.433 Y144.603 E9.30732
G1 X152.001 Y144.064 E9.46031
G1 X152.914 Y144.234 E9.4912
G1 X153.007 Y144.253 E9.49435
G1 X156.852 Y145.439 E9.62819
G1 X157.676 Y146.451 E9.67159
G1 X157.248 Y147.697 E9.71541
G1 X153.879 Y148.837 E9.8337
G0 F6000 X154.139 Y149.025
G0 X157.418 Y147.866
G0 X157.917 Y146.408
G0 X156.978 Y145.25
G0 X156.261 Y144.965
G0 X156.132 Y145.384
G1 F1200 X157.428 Y146.68 E9.89466
G0 F6000 X157.283 Y147.1
G1 F1200 X155.314 Y145.132 E9.98726
G0 F6000 X154.496 Y144.879
G1 F1200 X157.138 Y147.522 E10.11155
G0 F6000 X156.748 Y147.697
G1 F1200 X153.678 Y144.627 E10.25595
G0 F6000 X152.876 Y144.391
G1 F1200 X156.325 Y147.84 E10.41819
G0 F6000 X155.902 Y147.983
G1 F1200 X152.182 Y144.262 E10.59319
G0 F6000 X151.624 Y144.27
G1 F1200 X155.48 Y148.126 E10.77456
G0 F6000 X155.057 Y148.268
G1 F1200 X151.118 Y144.33 E10.95982
G0 F6000 X150.613 Y144.39
G1 F1200 X154.634 Y148.411 E11.14895
G0 F6000 X154.211 Y148.554
G1 F1200 X150.106 Y144.449 E11.34204
G0 F6000 X149.6 Y144.509
G1 F1200 X153.788 Y148.697 E11.53903
G0 F6000 X153.716 Y149.191
G1 F1200 X149.094 Y144.568 E11.75646
G0 F6000 X148.588 Y144.628
G1 F1200 X153.712 Y149.752 E11.99747
G0 F6000 X153.708 Y150.314
G1 F1200 X148.082 Y144.688 E12.2621
G0 F6000 X147.576 Y144.747
G1 F1200 X153.704 Y150.876 E12.55037
G0 F6000 X153.467 Y151.204
G1 F1200 X147.305 Y145.042 E12.84021
G0 F6000 X147.065 Y145.368
G1 F1200 X152.984 Y151.287 E13.11862
G0 F6000 X152.501 Y151.37
G1 F1200 X146.422 Y145.29 E13.40458
G0 F6000 X145.878 Y145.313
G1 F1200 X152.019 Y151.453 E13.69341
G0 F6000 X151.536 Y151.536
G1 F1200 X145.439 Y145.439 E13.9802
G0 F6000 X145 Y145.566
G1 F1200 X151.053 Y151.619 E14.26491
G0 F6000 X150.57 Y151.701
G1 F1200 X144.897 Y146.028 E14.53175
G0 F6000 X144.525 Y146.262
G0 X144.988 Y146.966
G0 X145.405 Y147.102
G1 F1200 X150.087 Y151.784 E14.75198
G0 F6000 X149.604 Y151.867
G1 F1200 X145.173 Y147.436 E14.9604
G0 F6000 X145.342 Y148.171
G1 F1200 X149.121 Y151.95 E15.13815
G0 F6000 X149.194 Y152.383
G0 X148.571 Y152.425
G0 X145.991 Y149.929
G0 X146.111 Y149.505
G1 F1200 X145.953 Y149.348 E15.14556
G0 F6000 X145.295 Y149.688
G1 F2700 E8.14556
;MESH:NONMESH
G0 F300 X145.295 Y149.688 Z0.4
G0 F6000 X143.947 Y147.219
G0 X142.885 Y146.982
G0 X140.133 Y144.827
;TIME_ELAPSED:30.964558
;LAYER:1
M106 S85
;TYPE:SUPPORT
G1 F2700 E15.14556
G1 F1500 X140.669 Y144.543 E15.16574
G1 X140.962 Y144.301 E15.17838
G1 X141.192 Y144.182 E15.18699
G1 X141.5 Y143.927 E15.20029
G1 X141.71 Y143.814 E15.20822
G1 X141.999 Y143.577 E15.22065
G1 X142.342 Y143.399 E15.2335
G1 X142.74 Y143.317 E15.24702
G1 X142.86 Y143.481 E15.25378
G1 X142.875 Y143.582 E15.25718
G1 X142.73 Y143.689 E15.26317
G1 X142.086 Y144.662 E15.30198
G1 X142.11 Y145.429 E15.3275
G1 X142.8 Y146.33 E15.36525
G1 X143.024 Y146.688 E15.37929
G1 X142.943 Y146.755 E15.38279
G1 X142.36 Y148.368 E15.43983
G1 X142.129 Y148.13 E15.45086
G1 X139.747 Y147.996 E15.53022
G1 X139.76 Y147.923 E15.53268
G1 X139.741 Y147.569 E15.54447
G1 X139.822 Y146.803 E15.57009
G1 X139.963 Y146.43 E15.58336
G1 X140.133 Y144.827 E15.63697
G1 F2700 E8.63697
G0 F7500 X139.272 Y144.737
G0 X138.874 Y147.553
G0 X138.888 Y148.306
G0 X139.074 Y148.818
G0 X141.683 Y149.709
G0 X142.548 Y149.684
G1 F2700 E15.63697
G1 F1500 X142.869 Y150.304 E15.66019
G1 X142.556 Y149.973 E15.67534
G1 X142.548 Y149.684 E15.68496
G0 F7500 X143.263 Y150.916
G1 F1500 X143.518 Y151.123 E15.69588
G1 X145.014 Y151.541 E15.74755
G1 X145.208 Y152.115 E15.7677
G1 X145.364 Y152.355 E15.77722
G1 X147.128 Y154.068 E15.859
G1 X147.535 Y154.24 E15.8737
G1 X148.719 Y154.289 E15.91311
G1 X148.845 Y154.283 E15.91731
G1 X153.123 Y153.55 E16.06167
G1 X153.335 Y154.039 E16.07939
G1 X153.161 Y154.168 E16.0866
G1 X152.979 Y154.228 E16.09297
G1 X152.625 Y154.492 E16.10766
G1 X152.443 Y154.553 E16.11404
G1 X152.142 Y154.784 E16.12666
G1 X148.13 Y154.655 E16.26017
G1 X147.722 Y155.051 E16.27908
G1 X147.722 Y157.139 E16.34853
G1 X147.517 Y158.249 E16.38607
G1 X147.464 Y158.429 E16.39231
G1 X146.03 Y158.17 E16.44078
G1 X145.371 Y157.257 E16.47823
G1 X145.198 Y157.188 E16.48443
G1 X145.125 Y157.07 E16.48904
G1 X144.886 Y156.558 E16.50783
G1 X144.743 Y156.17 E16.52159
G1 X144.587 Y155.864 E16.53301
G1 X144.487 Y155.53 E16.54461
G1 X144.294 Y155.142 E16.55902
G1 X144.246 Y154.759 E16.57186
G1 X144.058 Y154.393 E16.58554
G1 X144.018 Y154.006 E16.59849
G1 X143.84 Y153.641 E16.61199
G1 X143.805 Y153.256 E16.62485
G1 X143.671 Y152.992 E16.6347
G1 X143.936 Y152.696 E16.64791
G1 X143.991 Y152.17 E16.6655
G1 X143.263 Y150.916 E16.71373
G0 F7500 X143.945 Y151.533
G1 F1500 X144 Y151.549 E16.71563
G1 X144.796 Y151.772 E16.74313
G1 X144.954 Y152.238 E16.75949
G1 X145.147 Y152.534 E16.77125
G1 X146 Y153.363 E16.81081
G1 X146 Y157.65 E16.95339
G1 X146.19 Y157.914 E16.96421
G1 X147.257 Y158.107 E17.00028
G1 X147.442 Y157.109 E17.03404
G1 X147.442 Y154.932 E17.10644
G1 X147.854 Y154.533 E17.12552
G1 X147.473 Y154.517 E17.1382
G1 X146.971 Y154.306 E17.15631
G1 X146 Y153.363 E17.20133
G0 F7500 X144 Y151.627
G1 F1500 X143.945 Y151.533 E17.20496
G1 F2700 E10.20496
G0 F7500 X142.955 Y152.109
G0 X141.704 Y150.327
G0 X141.673 Y148.959
G0 X142 Y147.842
G1 F2700 E17.20496
G1 F1500 X142.248 Y147.857 E17.21322
G1 X142.678 Y146.664 E17.2554
G1 X142.572 Y146.494 E17.26206
G1 X142 Y145.747 E17.29335
G1 X141.833 Y145.528 E17.30251
G1 X141.803 Y144.582 E17.33399
G1 X142 Y144.284 E17.34588
G1 X142 Y143.939 E17.35735
G1 X142.155 Y143.812 E17.36401
G1 X142.394 Y143.688 E17.37297
G1 X142 Y144.284 E17.39673
G0 F7500 X142 Y143.939
G1 F1500 X141.867 Y144.048 E17.40245
G1 X141.657 Y144.161 E17.41038
G1 X141.347 Y144.417 E17.42376
G1 X141.115 Y144.538 E17.43246
G1 X140.826 Y144.777 E17.44493
G1 X140.396 Y145.005 E17.46112
G1 X140.237 Y146.496 E17.51099
G1 X140.097 Y146.866 E17.52415
G1 X140.022 Y147.573 E17.5478
G1 X140.03 Y147.731 E17.55306
G1 X142 Y147.842 E17.61868
G1 X142 Y145.747 E17.68836
G1 F2700 E10.68836
G0 F7500 X143.736 Y143.608
G0 X143.687 Y143.159
G0 X143.301 Y142.605
G0 X142.807 Y142.421
G0 X142.05 Y142.578
G0 X141.52 Y142.851
G0 X139.325 Y144.281
G0 X138.874 Y147.553
