;FLAVOR:Marlin
;TIME:5801
;Filament used: 5.24226m
;Layer height: 0.2
;MINX:131.6
;MINY:120.244
;MINZ:0.2
;MAXX:168.4
;MAXY:158.9
;MAXZ:19
;Generated with Cura_SteamEngine 4.12.0
M140 S60
M105
M190 S60
M104 S200
M105
M109 S200
M82 ;absolute extrusion mode
M201 X500.00 Y500.00 Z100.00 E5000.00 ;Setup machine max acceleration
M203 X500.00 Y500.00 Z10.00 E50.00 ;Setup machine max feedrate
M204 P500.00 R1000.00 T500.00 ;Setup Print/Retract/Travel acceleration
M205 X8.00 Y8.00 Z0.40 E5.00 ;Setup Jerk
M220 S100 ;Reset Feedrate
M221 S100 ;Reset Flowrate

G28 ;Home

G92 E0 ;Reset Extruder
G1 Z2.0 F3000 ;Move Z Axis up
G1 X10.1 Y20 Z0.28 F5000.0 ;Move to start position
G1 X10.1 Y200.0 Z0.28 F1500.0 E15 ;Draw the first line
G1 X10.4 Y200.0 Z0.28 F5000.0 ;Move to side a little
G1 X10.4 Y20 Z0.28 F1500.0 E30 ;Draw the second line
G92 E0 ;Reset Extruder
G1 Z2.0 F3000 ;Move Z Axis up

G92 E0
G92 E0
G1 F2700 E-7
;LAYER_COUNT:95
;LAYER:0
M107
;MESH:card_holder_microSD_part_2.stl.stl
G0 F6000 X167.01 Y137.244 Z0.2
;TYPE:WALL-INNER
G1 F2700 E0
G1 F1200 X132.99 Y137.244 E1.69726
G1 X132.4 Y136.654 E1.73889
G1 X132.4 Y121.634 E2.48824
G1 X132.99 Y121.044 E2.52987
G1 X167.01 Y121.044 E4.22714
G1 X167.6 Y121.634 E4.26876
G1 X167.6 Y136.654 E5.01811
G1 X167.01 Y137.244 E5.05974
G0 F6000 X167.176 Y137.644
G1 F1200 X132.824 Y137.644 E6.77357
G1 X132 Y136.82 E6.83171
G1 X132 Y121.468 E7.59762
G1 X132.824 Y120.644 E7.65576
G1 X167.176 Y120.644 E9.36959
G1 X168 Y121.468 E9.42773
G1 X168 Y136.82 E10.19364
G1 X167.176 Y137.644 E10.25178
G0 F6000 X167.286 Y138.044
;TYPE:WALL-OUTER
G1 F1200 X132.724 Y138.044 E11.40131
G1 X132.615 Y138.001 E11.40521
G1 X131.649 Y137.035 E11.45065
G1 X131.6 Y136.93 E11.4545
G1 X131.6 Y121.368 E11.9721
G1 X131.642 Y121.26 E11.97595
G1 X132.609 Y120.293 E12.02144
G1 X132.714 Y120.244 E12.02529
G1 X167.276 Y120.244 E13.17483
G1 X167.385 Y120.287 E13.17872
G1 X168.351 Y121.253 E13.22416
G1 X168.4 Y121.358 E13.22802
G1 X168.4 Y136.92 E13.74561
G1 X168.358 Y137.028 E13.74946
G1 X167.391 Y137.995 E13.79495
G1 X167.286 Y138.044 E13.7988
G0 F6000 X167.191 Y137.615
G0 X166.85 Y136.854
;TYPE:SKIN
G1 F1200 X133.15 Y136.854 E14.91967
G1 X132.79 Y136.494 E14.9366
G1 X132.79 Y121.794 E15.42553
G1 X133.15 Y121.434 E15.44246
G1 X166.85 Y121.434 E16.56333
G1 X167.21 Y121.794 E16.58026
G1 X167.21 Y136.494 E17.06918
G1 X166.85 Y136.854 E17.08612
G0 F6000 X167.047 Y137.051
G0 X167.426 Y136.583
G0 X167.426 Y121.705
G0 X166.939 Y121.218
G0 X166.283 Y121.154
G0 X166.283 Y121.594
G1 F1200 X167.049 Y122.36 E17.12215
G0 F6000 X167.049 Y122.926
G1 F1200 X165.717 Y121.594 E17.1848
G0 F6000 X165.151 Y121.594
G1 F1200 X167.049 Y123.491 E17.27405
G0 F6000 X167.049 Y124.057
G1 F1200 X164.586 Y121.594 E17.38991
G0 F6000 X164.02 Y121.594
G1 F1200 X167.049 Y124.623 E17.53238
G0 F6000 X167.049 Y125.189
G1 F1200 X163.454 Y121.594 E17.70148
G0 F6000 X162.889 Y121.594
G1 F1200 X167.049 Y125.754 E17.89715
G0 F6000 X167.049 Y126.32
G1 F1200 X162.323 Y121.594 E18.11945
G0 F6000 X161.757 Y121.594
G1 F1200 X167.049 Y126.886 E18.36837
G0 F6000 X167.049 Y127.451
G1 F1200 X161.192 Y121.594 E18.64386
G0 F6000 X160.626 Y121.594
G1 F1200 X167.049 Y128.017 E18.94598
G0 F6000 X167.049 Y128.583
G1 F1200 X160.06 Y121.594 E19.27472
G0 F6000 X159.495 Y121.594
G1 F1200 X167.049 Y129.148 E19.63004
G0 F6000 X167.049 Y129.714
G1 F1200 X158.929 Y121.594 E20.01198
G0 F6000 X158.363 Y121.594
G1 F1200 X167.049 Y130.28 E20.42054
G0 F6000 X167.049 Y130.845
G1 F1200 X157.797 Y121.594 E20.8557
G0 F6000 X157.232 Y121.594
G1 F1200 X167.049 Y131.411 E21.31747
G0 F6000 X167.049 Y131.977
G1 F1200 X156.666 Y121.594 E21.80585
G0 F6000 X156.1 Y121.594
G1 F1200 X167.049 Y132.542 E22.32083
G0 F6000 X167.049 Y133.108
G1 F1200 X155.535 Y121.594 E22.86242
G0 F6000 X154.969 Y121.594
G1 F1200 X167.049 Y133.674 E23.43062
G0 F6000 X167.049 Y134.239
G1 F1200 X154.403 Y121.594 E24.02543
G0 F6000 X153.838 Y121.594
G1 F1200 X167.049 Y134.805 E24.64683
G0 F6000 X167.049 Y135.371
G1 F1200 X153.272 Y121.594 E25.29486
G0 F6000 X152.706 Y121.594
G1 F1200 X167.049 Y135.937 E25.96951
G0 F6000 X167.012 Y136.465
G1 F1200 X152.141 Y121.594 E26.669
G0 F6000 X151.575 Y121.594
G1 F1200 X166.674 Y136.693 E27.37921
G0 F6000 X166.109 Y136.693
G1 F1200 X151.009 Y121.594 E28.08944
G0 F6000 X150.444 Y121.594
G1 F1200 X165.543 Y136.693 E28.79965
G0 F6000 X164.977 Y136.693
G1 F1200 X149.878 Y121.594 E29.50986
G0 F6000 X149.312 Y121.594
G1 F1200 X164.412 Y136.693 E30.2201
G0 F6000 X163.846 Y136.693
G1 F1200 X148.746 Y121.594 E30.93033
G0 F6000 X148.181 Y121.594
G1 F1200 X163.28 Y136.693 E31.64054
G0 F6000 X162.715 Y136.693
G1 F1200 X147.615 Y121.594 E32.35078
G0 F6000 X147.049 Y121.594
G1 F1200 X162.149 Y136.693 E33.06101
G0 F6000 X161.583 Y136.693
G1 F1200 X146.484 Y121.594 E33.77122
G0 F6000 X145.918 Y121.594
G1 F1200 X161.018 Y136.693 E34.48146
G0 F6000 X160.452 Y136.693
G1 F1200 X145.352 Y121.594 E35.19169
G0 F6000 X144.787 Y121.594
G1 F1200 X159.886 Y136.693 E35.9019
G0 F6000 X159.321 Y136.693
G1 F1200 X144.221 Y121.594 E36.61214
G0 F6000 X143.655 Y121.594
G1 F1200 X158.755 Y136.693 E37.32237
G0 F6000 X158.189 Y136.693
G1 F1200 X143.09 Y121.594 E38.03258
G0 F6000 X142.524 Y121.594
G1 F1200 X157.624 Y136.693 E38.74282
G0 F6000 X157.058 Y136.693
G1 F1200 X141.958 Y121.594 E39.45305
G0 F6000 X141.393 Y121.594
G1 F1200 X156.492 Y136.693 E40.16326
G0 F6000 X155.926 Y136.693
G1 F1200 X140.827 Y121.594 E40.87347
G0 F6000 X140.261 Y121.594
G1 F1200 X155.361 Y136.693 E41.5837
G0 F6000 X154.795 Y136.693
G1 F1200 X139.696 Y121.594 E42.29392
G0 F6000 X139.13 Y121.594
G1 F1200 X154.229 Y136.693 E43.00413
G0 F6000 X153.664 Y136.693
G1 F1200 X138.564 Y121.594 E43.71436
G0 F6000 X137.998 Y121.594
G1 F1200 X153.098 Y136.693 E44.42459
G0 F6000 X152.532 Y136.693
G1 F1200 X137.433 Y121.594 E45.13481
G0 F6000 X136.867 Y121.594
G1 F1200 X151.967 Y136.693 E45.84504
G0 F6000 X151.401 Y136.693
G1 F1200 X136.301 Y121.594 E46.55527
G0 F6000 X135.736 Y121.594
G1 F1200 X150.835 Y136.693 E47.26548
G0 F6000 X150.27 Y136.693
G1 F1200 X135.17 Y121.594 E47.97572
G0 F6000 X134.604 Y121.594
G1 F1200 X149.704 Y136.693 E48.68595
G0 F6000 X149.138 Y136.693
G1 F1200 X134.039 Y121.594 E49.39616
G0 F6000 X133.473 Y121.594
G1 F1200 X148.573 Y136.693 E50.1064
G0 F6000 X148.007 Y136.693
G1 F1200 X133.061 Y121.747 E50.80941
G0 F6000 X132.949 Y122.201
G1 F1200 X147.441 Y136.693 E51.49107
G0 F6000 X146.875 Y136.693
G1 F1200 X132.949 Y122.767 E52.14611
G0 F6000 X132.949 Y123.332
G1 F1200 X146.31 Y136.693 E52.77457
G0 F6000 X145.744 Y136.693
G1 F1200 X132.949 Y123.898 E53.37641
G0 F6000 X132.949 Y124.464
G1 F1200 X145.178 Y136.693 E53.95162
G0 F6000 X144.613 Y136.693
G1 F1200 X132.949 Y125.029 E54.50026
G0 F6000 X132.949 Y125.595
G1 F1200 X144.047 Y136.693 E55.02227
G0 F6000 X143.481 Y136.693
G1 F1200 X132.949 Y126.161 E55.51767
G0 F6000 X132.949 Y126.726
G1 F1200 X142.916 Y136.693 E55.98648
G0 F6000 X142.35 Y136.693
G1 F1200 X132.949 Y127.292 E56.42868
G0 F6000 X132.949 Y127.858
G1 F1200 X141.784 Y136.693 E56.84425
G0 F6000 X141.219 Y136.693
G1 F1200 X132.949 Y128.424 E57.23322
G0 F6000 X132.949 Y128.989
G1 F1200 X140.653 Y136.693 E57.59559
G0 F6000 X140.087 Y136.693
G1 F1200 X132.949 Y129.555 E57.93134
G0 F6000 X132.949 Y130.121
G1 F1200 X139.522 Y136.693 E58.24049
G0 F6000 X138.956 Y136.693
G1 F1200 X132.949 Y130.686 E58.52305
G0 F6000 X132.949 Y131.252
G1 F1200 X138.39 Y136.693 E58.77897
G0 F6000 X137.825 Y136.693
G1 F1200 X132.949 Y131.818 E59.0083
G0 F6000 X132.949 Y132.383
G1 F1200 X137.259 Y136.693 E59.21103
G0 F6000 X136.693 Y136.693
G1 F1200 X132.949 Y132.949 E59.38714
G0 F6000 X132.949 Y133.515
G1 F1200 X136.127 Y136.693 E59.53662
G0 F6000 X135.562 Y136.693
G1 F1200 X132.949 Y134.08 E59.65953
G0 F6000 X132.949 Y134.646
G1 F1200 X134.996 Y136.693 E59.75581
G0 F6000 X134.43 Y136.693
G1 F1200 X132.949 Y135.212 E59.82547
G0 F6000 X132.949 Y135.777
G1 F1200 X133.865 Y136.693 E59.86856
G0 F6000 X133.299 Y136.693
G1 F1200 X132.949 Y136.343 E59.88502
G0 F6000 X132.21 Y136.343
G1 F2700 E52.88502
;MESH:card_holder_microSD_part_1.stl.stl
G0 F6000 X133.061 Y137.07
G0 X167.01 Y137.824
G0 X167.01 Y138.909
G0 X167.01 Y140.235
G0 X167.01 Y141.32
G0 X167.426 Y142.561
G0 X167.426 Y157.439
G0 X167.01 Y158.1
;TYPE:WALL-INNER
G1 F2700 E59.88502
G1 F1200 X132.99 Y158.1 E61.58229
G1 X132.4 Y157.51 E61.62392
G1 X132.4 Y142.491 E62.37322
G1 X132.99 Y141.9 E62.41488
G1 X167.01 Y141.9 E64.11214
G1 X167.6 Y142.49 E64.15377
G1 X167.6 Y157.51 E64.90312
G1 X167.01 Y158.1 E64.94475
G0 F6000 X167.176 Y158.5
G1 F1200 X132.824 Y158.5 E66.65858
G1 X132 Y157.676 E66.71672
G1 X132 Y142.325 E67.48258
G1 X132.824 Y141.5 E67.54075
G1 X167.176 Y141.5 E69.25458
G1 X168 Y142.324 E69.31272
G1 X168 Y157.676 E70.07863
G1 X167.176 Y158.5 E70.13677
G0 F6000 X167.286 Y158.9
;TYPE:WALL-OUTER
G1 F1200 X132.724 Y158.9 E71.28631
G1 X132.616 Y158.858 E71.29016
G1 X131.649 Y157.891 E71.33565
G1 X131.6 Y157.786 E71.3395
G1 X131.6 Y142.224 E71.8571
G1 X131.643 Y142.116 E71.86096
G1 X132.609 Y141.149 E71.90642
G1 X132.714 Y141.1 E71.91028
G1 X167.276 Y141.1 E73.05981
G1 X167.384 Y141.142 E73.06367
G1 X168.351 Y142.109 E73.10915
G1 X168.4 Y142.214 E73.11301
G1 X168.4 Y157.776 E73.6306
G1 X168.358 Y157.884 E73.63445
G1 X167.391 Y158.851 E73.67994
G1 X167.286 Y158.9 E73.68379
G0 F6000 X167.191 Y158.471
G0 X166.85 Y157.71
;TYPE:SKIN
G1 F1200 X133.15 Y157.71 E74.80466
G1 X132.79 Y157.35 E74.82159
G1 X132.79 Y142.652 E75.31045
G1 X133.151 Y142.29 E75.32745
G1 X166.85 Y142.29 E76.44829
G1 X167.21 Y142.65 E76.46522
G1 X167.21 Y157.35 E76.95415
G1 X166.85 Y157.71 E76.97108
G0 F6000 X167.047 Y157.907
G0 X167.426 Y157.439
G0 X167.426 Y142.561
G0 X167.032 Y142.167
G0 X166.774 Y142.01
G0 X166.774 Y142.45
G1 F1200 X167.049 Y142.724 E76.98399
G0 F6000 X167.049 Y143.29
G1 F1200 X166.208 Y142.45 E77.02352
G0 F6000 X165.643 Y142.45
G1 F1200 X167.049 Y143.855 E77.08964
G0 F6000 X167.049 Y144.421
G1 F1200 X165.077 Y142.45 E77.18237
G0 F6000 X164.511 Y142.45
G1 F1200 X167.049 Y144.987 E77.30172
G0 F6000 X167.049 Y145.552
G1 F1200 X163.946 Y142.45 E77.44766
G0 F6000 X163.38 Y142.45
G1 F1200 X167.049 Y146.118 E77.62021
G0 F6000 X167.049 Y146.684
G1 F1200 X162.814 Y142.45 E77.81939
G0 F6000 X162.249 Y142.45
G1 F1200 X167.049 Y147.25 E78.04517
G0 F6000 X167.049 Y147.815
G1 F1200 X161.683 Y142.45 E78.29754
G0 F6000 X161.117 Y142.45
G1 F1200 X167.049 Y148.381 E78.57654
G0 F6000 X167.049 Y148.947
G1 F1200 X160.552 Y142.45 E78.88214
G0 F6000 X159.986 Y142.45
G1 F1200 X167.049 Y149.512 E79.21434
G0 F6000 X167.049 Y150.078
G1 F1200 X159.42 Y142.45 E79.57316
G0 F6000 X158.855 Y142.45
G1 F1200 X167.049 Y150.644 E79.95858
G0 F6000 X167.049 Y151.209
G1 F1200 X158.289 Y142.45 E80.3706
G0 F6000 X157.723 Y142.45
G1 F1200 X167.049 Y151.775 E80.80925
G0 F6000 X167.049 Y152.341
G1 F1200 X157.158 Y142.45 E81.27449
G0 F6000 X156.592 Y142.45
G1 F1200 X167.049 Y152.906 E81.76633
G0 F6000 X167.049 Y153.472
G1 F1200 X156.026 Y142.45 E82.28479
G0 F6000 X155.46 Y142.45
G1 F1200 X167.049 Y154.038 E82.82988
G0 F6000 X167.049 Y154.603
G1 F1200 X154.895 Y142.45 E83.40154
G0 F6000 X154.329 Y142.45
G1 F1200 X167.049 Y155.169 E83.99983
G0 F6000 X167.049 Y155.735
G1 F1200 X153.763 Y142.45 E84.62474
G0 F6000 X153.198 Y142.45
G1 F1200 X167.049 Y156.301 E85.27625
G0 F6000 X167.049 Y156.866
G1 F1200 X152.632 Y142.45 E85.95436
G0 F6000 X152.066 Y142.45
G1 F1200 X166.975 Y157.358 E86.65561
G0 F6000 X166.6 Y157.549
G1 F1200 X151.501 Y142.45 E87.36582
G0 F6000 X150.935 Y142.45
G1 F1200 X166.034 Y157.549 E88.07603
G0 F6000 X165.468 Y157.549
G1 F1200 X150.369 Y142.45 E88.78624
G0 F6000 X149.804 Y142.45
G1 F1200 X164.902 Y157.549 E89.49643
G0 F6000 X164.337 Y157.549
G1 F1200 X149.238 Y142.45 E90.20664
G0 F6000 X148.672 Y142.45
G1 F1200 X163.771 Y157.549 E90.91685
G0 F6000 X163.205 Y157.549
G1 F1200 X148.107 Y142.45 E91.62703
G0 F6000 X147.541 Y142.45
G1 F1200 X162.64 Y157.549 E92.33725
G0 F6000 X162.074 Y157.549
G1 F1200 X146.975 Y142.45 E93.04746
G0 F6000 X146.409 Y142.45
G1 F1200 X161.508 Y157.549 E93.75767
G0 F6000 X160.943 Y157.549
G1 F1200 X145.844 Y142.45 E94.46788
G0 F6000 X145.278 Y142.45
G1 F1200 X160.377 Y157.549 E95.17809
G0 F6000 X159.811 Y157.549
G1 F1200 X144.712 Y142.45 E95.8883
G0 F6000 X144.147 Y142.45
G1 F1200 X159.246 Y157.549 E96.59851
G0 F6000 X158.68 Y157.549
G1 F1200 X143.581 Y142.45 E97.30872
G0 F6000 X143.015 Y142.45
G1 F1200 X158.114 Y157.549 E98.01893
G0 F6000 X157.549 Y157.549
G1 F1200 X142.45 Y142.45 E98.72914
G0 F6000 X141.884 Y142.45
G1 F1200 X156.983 Y157.549 E99.43935
G0 F6000 X156.417 Y157.549
G1 F1200 X141.318 Y142.45 E100.14956
G0 F6000 X140.753 Y142.45
G1 F1200 X155.851 Y157.549 E100.85975
G0 F6000 X155.286 Y157.549
G1 F1200 X140.187 Y142.45 E101.56996
G0 F6000 X139.621 Y142.45
G1 F1200 X154.72 Y157.549 E102.28017
G0 F6000 X154.154 Y157.549
G1 F1200 X139.056 Y142.45 E102.99036
G0 F6000 X138.49 Y142.45
G1 F1200 X153.589 Y157.549 E103.70057
G0 F6000 X153.023 Y157.549
G1 F1200 X137.924 Y142.45 E104.41078
G0 F6000 X137.359 Y142.45
G1 F1200 X152.457 Y157.549 E105.12097
G0 F6000 X151.892 Y157.549
G1 F1200 X136.793 Y142.45 E105.83118
G0 F6000 X136.227 Y142.45
G1 F1200 X151.326 Y157.549 E106.54139
G0 F6000 X150.76 Y157.549
G1 F1200 X135.661 Y142.45 E107.2516
G0 F6000 X135.096 Y142.45
G1 F1200 X150.195 Y157.549 E107.96181
G0 F6000 X149.629 Y157.549
G1 F1200 X134.53 Y142.45 E108.67202
G0 F6000 X133.964 Y142.45
G1 F1200 X149.063 Y157.549 E109.38223
G0 F6000 X148.498 Y157.549
G1 F1200 X133.399 Y142.45 E110.09244
G0 F6000 X133.025 Y142.641
G1 F1200 X147.932 Y157.549 E110.79364
G0 F6000 X147.366 Y157.549
G1 F1200 X132.949 Y143.131 E111.4718
G0 F6000 X132.949 Y143.697
G1 F1200 X146.801 Y157.549 E112.12336
G0 F6000 X146.235 Y157.549
G1 F1200 X132.949 Y144.263 E112.74829
G0 F6000 X132.949 Y144.828
G1 F1200 X145.669 Y157.549 E113.34662
G0 F6000 X145.103 Y157.549
G1 F1200 X132.949 Y145.394 E113.91833
G0 F6000 X132.949 Y145.96
G1 F1200 X144.538 Y157.549 E114.46344
G0 F6000 X143.972 Y157.549
G1 F1200 X132.949 Y146.525 E114.98195
G0 F6000 X132.949 Y147.091
G1 F1200 X143.406 Y157.549 E115.47384
G0 F6000 X142.841 Y157.549
G1 F1200 X132.949 Y147.657 E115.93913
G0 F6000 X132.949 Y148.223
G1 F1200 X142.275 Y157.549 E116.3778
G0 F6000 X141.709 Y157.549
G1 F1200 X132.949 Y148.788 E116.78987
G0 F6000 X132.949 Y149.354
G1 F1200 X141.144 Y157.549 E117.17533
G0 F6000 X140.578 Y157.549
G1 F1200 X132.949 Y149.92 E117.53418
G0 F6000 X132.949 Y150.485
G1 F1200 X140.012 Y157.549 E117.86642
G0 F6000 X139.447 Y157.549
G1 F1200 X132.949 Y151.051 E118.17207
G0 F6000 X132.949 Y151.617
G1 F1200 X138.881 Y157.549 E118.45109
G0 F6000 X138.315 Y157.549
G1 F1200 X132.949 Y152.182 E118.70352
G0 F6000 X132.949 Y152.748
G1 F1200 X137.75 Y157.549 E118.92934
G0 F6000 X137.184 Y157.549
G1 F1200 X132.949 Y153.314 E119.12854
G0 F6000 X132.949 Y153.879
G1 F1200 X136.618 Y157.549 E119.30114
G0 F6000 X136.053 Y157.549
G1 F1200 X132.949 Y154.445 E119.44715
G0 F6000 X132.949 Y155.011
G1 F1200 X135.487 Y157.549 E119.56653
G0 F6000 X134.921 Y157.549
G1 F1200 X132.949 Y155.576 E119.65931
G0 F6000 X132.949 Y156.142
G1 F1200 X134.355 Y157.549 E119.72546
G0 F6000 X133.79 Y157.549
G1 F1200 X132.949 Y156.708 E119.76502
G0 F6000 X132.949 Y157.273
G1 F1200 X133.224 Y157.549 E119.77798
G0 F6000 X133.224 Y158.29
G1 F2700 E112.77798
;MESH:NONMESH
G0 F300 X133.224 Y158.29 Z0.4
G0 F6000 X132.574 Y157.439
G0 X132.574 Y142.563
G0 X133.062 Y142.074
G0 X166.886 Y141.32
G0 X166.886 Y140.235
G0 X166.886 Y138.909
G0 X166.886 Y137.824
G0 X166.886 Y137.134
G1 F2700 E119.77798
G0 F6000 X166.886 Y136.944
;TIME_ELAPSED:191.320218
;LAYER:1
M106 S85
;TYPE:WALL-INNER
;MESH:card_holder_microSD_part_2.stl.stl
G1 F1500 X133.114 Y136.944 E121.46287
G1 X132.7 Y136.53 E121.49208
G1 X132.7 Y121.758 E122.22906
G1 X133.114 Y121.344 E122.25827
G1 X166.886 Y121.344 E123.94316
G1 X167.3 Y121.758 E123.97237
G1 X167.3 Y136.53 E124.70935
G1 X166.886 Y136.944 E124.73856
G0 F7500 X167.052 Y137.344
G1 F1500 X132.948 Y137.344 E126.44002
G1 X132.3 Y136.696 E126.48574
G1 X132.3 Y121.592 E127.23928
G1 X132.948 Y120.944 E127.285
