;FLAVOR:Marlin
;TIME:5779
;Filament used: 5.22784m
;Layer height: 0.2
;MINX:131.9
;MINY:120.544
;MINZ:0.2
;MAXX:168.1
;MAXY:158.6
;MAXZ:19
;Generated with Cura_SteamEngine 4.12.0
M140 S75
M105
M190 S75
M104 S200
M105
M109 S200
M82 ;absolute extrusion mode
M201 X500.00 Y500.00 Z100.00 E5000.00 ;Setup machine max acceleration
M203 X500.00 Y500.00 Z10.00 E50.00 ;Setup machine max feedrate
M204 P500.00 R1000.00 T500.00 ;Setup Print/Retract/Travel acceleration
M205 X8.00 Y8.00 Z0.40 E5.00 ;Setup Jerk
M220 S100 ;Reset Feedrate
M221 S100 ;Reset Flowrate

G28 ;Home

G92 E0 ;Reset Extruder
G1 Z2.0 F3000 ;Move Z Axis up
G1 X10.1 Y20 Z0.28 F5000.0 ;Move to start position
G1 X10.1 Y200.0 Z0.28 F1500.0 E15 ;Draw the first line
G1 X10.4 Y200.0 Z0.28 F5000.0 ;Move to side a little
G1 X10.4 Y20 Z0.28 F1500.0 E30 ;Draw the second line
G92 E0 ;Reset Extruder
G1 Z2.0 F3000 ;Move Z Axis up

G92 E0
G92 E0
G1 F2700 E-7
;LAYER_COUNT:95
;LAYER:0
M107
;MESH:card_holder_microSD_part_2.stl.stl
G0 F6000 X166.678 Y136.444 Z0.2
;TYPE:WALL-INNER
G1 F2700 E0
G1 F1200 X133.322 Y136.444 E1.66414
G1 X133.2 Y136.322 E1.67275
G1 X133.2 Y121.966 E2.38897
G1 X133.322 Y121.844 E2.39758
G1 X166.678 Y121.844 E4.06171
G1 X166.8 Y121.966 E4.07032
G1 X166.8 Y136.322 E4.78655
G1 X166.678 Y136.444 E4.79515
G0 F6000 X166.844 Y136.844
G1 F1200 X133.156 Y136.844 E6.47585
G1 X132.8 Y136.488 E6.50097
G1 X132.8 Y121.8 E7.23376
G1 X133.156 Y121.444 E7.25888
G1 X166.844 Y121.444 E8.93958
G1 X167.2 Y121.8 E8.9647
G1 X167.2 Y136.488 E9.69748
G1 X166.844 Y136.844 E9.7226
G0 F6000 X167.01 Y137.244
;TYPE:WALL-OUTER
G1 F1200 X132.99 Y137.244 E10.85411
G1 X132.4 Y136.654 E10.88186
G1 X132.4 Y121.634 E11.38143
G1 X132.99 Y121.044 E11.40918
G1 X167.01 Y121.044 E12.54069
G1 X167.6 Y121.634 E12.56844
G1 X167.6 Y136.654 E13.06801
G1 X167.01 Y137.244 E13.09576
G0 F6000 X166.842 Y136.838
G0 X166.41 Y136.054
;TYPE:SKIN
G1 F1200 X133.59 Y136.054 E14.18736
G1 X133.59 Y122.234 E14.64702
G1 X166.41 Y122.234 E15.73861
G1 X166.41 Y136.054 E16.19827
G0 F6000 X166.69 Y136.054
G0 X166.69 Y122.691
G0 X166.249 Y122.691
G1 F1200 X165.952 Y122.394 E16.21224
G0 F6000 X165.386 Y122.394
G1 F1200 X166.249 Y123.257 E16.25283
G0 F6000 X166.249 Y123.822
G1 F1200 X164.82 Y122.394 E16.32002
G0 F6000 X164.255 Y122.394
G1 F1200 X166.249 Y124.388 E16.41381
G0 F6000 X166.249 Y124.954
G1 F1200 X163.689 Y122.394 E16.53423
G0 F6000 X163.123 Y122.394
G1 F1200 X166.249 Y125.519 E16.68124
G0 F6000 X166.249 Y126.085
G1 F1200 X162.558 Y122.394 E16.85486
G0 F6000 X161.992 Y122.394
G1 F1200 X166.249 Y126.651 E17.05509
G0 F6000 X166.249 Y127.216
G1 F1200 X161.426 Y122.394 E17.28193
G0 F6000 X160.861 Y122.394
G1 F1200 X166.249 Y127.782 E17.53536
G0 F6000 X166.249 Y128.348
G1 F1200 X160.295 Y122.394 E17.81542
G0 F6000 X159.729 Y122.394
G1 F1200 X166.249 Y128.914 E18.1221
G0 F6000 X166.249 Y129.479
G1 F1200 X159.164 Y122.394 E18.45536
G0 F6000 X158.598 Y122.394
G1 F1200 X166.249 Y130.045 E18.81524
G0 F6000 X166.249 Y130.611
G1 F1200 X158.032 Y122.394 E19.20174
G0 F6000 X157.467 Y122.394
G1 F1200 X166.249 Y131.176 E19.61482
G0 F6000 X166.249 Y131.742
G1 F1200 X156.901 Y122.394 E20.05452
G0 F6000 X156.335 Y122.394
G1 F1200 X166.249 Y132.308 E20.52084
G0 F6000 X166.249 Y132.873
G1 F1200 X155.769 Y122.394 E21.01377
G0 F6000 X155.204 Y122.394
G1 F1200 X166.249 Y133.439 E21.53329
G0 F6000 X166.249 Y134.005
G1 F1200 X154.638 Y122.394 E22.07944
G0 F6000 X154.072 Y122.394
G1 F1200 X166.249 Y134.57 E22.65218
G0 F6000 X166.249 Y135.136
G1 F1200 X153.507 Y122.394 E23.25153
G0 F6000 X152.941 Y122.394
G1 F1200 X166.249 Y135.702 E23.87749
G0 F6000 X165.875 Y135.893
G1 F1200 X152.375 Y122.394 E24.51247
G0 F6000 X151.81 Y122.394
G1 F1200 X165.309 Y135.893 E25.14742
G0 F6000 X164.743 Y135.893
G1 F1200 X151.244 Y122.394 E25.78237
G0 F6000 X150.678 Y122.394
G1 F1200 X164.178 Y135.893 E26.41735
G0 F6000 X163.612 Y135.893
G1 F1200 X150.113 Y122.394 E27.0523
G0 F6000 X149.547 Y122.394
G1 F1200 X163.046 Y135.893 E27.68725
G0 F6000 X162.481 Y135.893
G1 F1200 X148.981 Y122.394 E28.32223
G0 F6000 X148.416 Y122.394
G1 F1200 X161.915 Y135.893 E28.95718
G0 F6000 X161.349 Y135.893
G1 F1200 X147.85 Y122.394 E29.59213
G0 F6000 X147.284 Y122.394
G1 F1200 X160.784 Y135.893 E30.2271
G0 F6000 X160.218 Y135.893
G1 F1200 X146.719 Y122.394 E30.86206
G0 F6000 X146.153 Y122.394
G1 F1200 X159.652 Y135.893 E31.49701
G0 F6000 X159.087 Y135.893
G1 F1200 X145.587 Y122.394 E32.13198
G0 F6000 X145.021 Y122.394
G1 F1200 X158.521 Y135.893 E32.76696
G0 F6000 X157.955 Y135.893
G1 F1200 X144.456 Y122.394 E33.40191
G0 F6000 X143.89 Y122.394
G1 F1200 X157.389 Y135.893 E34.03686
G0 F6000 X156.824 Y135.893
G1 F1200 X143.324 Y122.394 E34.67184
G0 F6000 X142.759 Y122.394
G1 F1200 X156.258 Y135.893 E35.30679
G0 F6000 X155.692 Y135.893
G1 F1200 X142.193 Y122.394 E35.94174
G0 F6000 X141.627 Y122.394
G1 F1200 X155.127 Y135.893 E36.57671
G0 F6000 X154.561 Y135.893
G1 F1200 X141.062 Y122.394 E37.21167
G0 F6000 X140.496 Y122.394
G1 F1200 X153.995 Y135.893 E37.84662
G0 F6000 X153.43 Y135.893
G1 F1200 X139.93 Y122.394 E38.48159
G0 F6000 X139.365 Y122.394
G1 F1200 X152.864 Y135.893 E39.11654
G0 F6000 X152.298 Y135.893
G1 F1200 X138.799 Y122.394 E39.7515
G0 F6000 X138.233 Y122.394
G1 F1200 X151.733 Y135.893 E40.38647
G0 F6000 X151.167 Y135.893
G1 F1200 X137.668 Y122.394 E41.02142
G0 F6000 X137.102 Y122.394
G1 F1200 X150.601 Y135.893 E41.65637
G0 F6000 X150.036 Y135.893
G1 F1200 X136.536 Y122.394 E42.29135
G0 F6000 X135.97 Y122.394
G1 F1200 X149.47 Y135.893 E42.92632
G0 F6000 X148.904 Y135.893
G1 F1200 X135.405 Y122.394 E43.56128
G0 F6000 X134.839 Y122.394
G1 F1200 X148.338 Y135.893 E44.19623
G0 F6000 X147.773 Y135.893
G1 F1200 X134.273 Y122.394 E44.8312
G0 F6000 X133.749 Y122.435
G1 F1200 X147.207 Y135.893 E45.46423
G0 F6000 X146.641 Y135.893
G1 F1200 X133.749 Y123.001 E46.07063
G0 F6000 X133.749 Y123.566
G1 F1200 X146.076 Y135.893 E46.65045
G0 F6000 X145.51 Y135.893
G1 F1200 X133.749 Y124.132 E47.20365
G0 F6000 X133.749 Y124.698
G1 F1200 X144.944 Y135.893 E47.73023
G0 F6000 X144.379 Y135.893
G1 F1200 X133.749 Y125.263 E48.23023
G0 F6000 X133.749 Y125.829
G1 F1200 X143.813 Y135.893 E48.70361
G0 F6000 X143.247 Y135.893
G1 F1200 X133.749 Y126.395 E49.15037
G0 F6000 X133.749 Y126.961
G1 F1200 X142.682 Y135.893 E49.57053
G0 F6000 X142.116 Y135.893
G1 F1200 X133.749 Y127.526 E49.96408
G0 F6000 X133.749 Y128.092
G1 F1200 X141.55 Y135.893 E50.33102
G0 F6000 X140.985 Y135.893
G1 F1200 X133.749 Y128.658 E50.67135
G0 F6000 X133.749 Y129.223
G1 F1200 X140.419 Y135.893 E50.98509
G0 F6000 X139.853 Y135.893
G1 F1200 X133.749 Y129.789 E51.2722
G0 F6000 X133.749 Y130.355
G1 F1200 X139.288 Y135.893 E51.53272
G0 F6000 X138.722 Y135.893
G1 F1200 X133.749 Y130.92 E51.76663
G0 F6000 X133.749 Y131.486
G1 F1200 X138.156 Y135.893 E51.97393
G0 F6000 X137.59 Y135.893
G1 F1200 X133.749 Y132.052 E52.15459
G0 F6000 X133.749 Y132.617
G1 F1200 X137.025 Y135.893 E52.30869
G0 F6000 X136.459 Y135.893
G1 F1200 X133.749 Y133.183 E52.43616
G0 F6000 X133.749 Y133.749
G1 F1200 X135.893 Y135.893 E52.537
G0 F6000 X135.328 Y135.893
G1 F1200 X133.749 Y134.314 E52.61128
G0 F6000 X133.749 Y134.88
G1 F1200 X134.762 Y135.893 E52.65892
G0 F6000 X134.196 Y135.893
G1 F1200 X133.749 Y135.446 E52.67995
G0 F6000 X133.01 Y135.446
G1 F2700 E45.67995
;MESH:card_holder_microSD_part_1.stl.stl
G0 F6000 X133.382 Y136.262
G0 X166.678 Y137.024
G0 X166.678 Y138.109
G0 X166.678 Y141.035
G0 X166.678 Y142.12
G0 X166.678 Y157.3
;TYPE:WALL-INNER
G1 F2700 E52.67995
G1 F1200 X133.322 Y157.3 E54.34409
G1 X133.2 Y157.178 E54.35269
G1 X133.2 Y142.822 E55.06892
G1 X133.322 Y142.7 E55.07753
G1 X166.678 Y142.7 E56.74166
G1 X166.8 Y142.822 E56.75027
G1 X166.8 Y157.178 E57.4665
G1 X166.678 Y157.3 E57.4751
G0 F6000 X166.844 Y157.7
G1 F1200 X133.156 Y157.7 E59.1558
G1 X132.8 Y157.344 E59.18092
G1 X132.8 Y142.656 E59.91371
G1 X133.156 Y142.3 E59.93883
G1 X166.844 Y142.3 E61.61953
G1 X167.2 Y142.656 E61.64465
G1 X167.2 Y157.344 E62.37743
G1 X166.844 Y157.7 E62.40255
G0 F6000 X167.01 Y158.1
;TYPE:WALL-OUTER
G1 F1200 X132.99 Y158.1 E63.53406
G1 X132.4 Y157.51 E63.56181
G1 X132.4 Y142.49 E64.06138
G1 X132.99 Y141.9 E64.08913
G1 X167.01 Y141.9 E65.22064
G1 X167.6 Y142.49 E65.24839
G1 X167.6 Y157.51 E65.74796
G1 X167.01 Y158.1 E65.77571
G0 F6000 X166.842 Y157.694
G0 X166.41 Y156.91
;TYPE:SKIN
G1 F1200 X133.59 Y156.91 E66.86731
G1 X133.59 Y143.09 E67.32696
G1 X166.41 Y143.09 E68.41856
G1 X166.41 Y156.91 E68.87822
G0 F6000 X166.69 Y156.91
G0 X166.69 Y143.621
G0 X166.249 Y143.621
G1 F1200 X165.877 Y143.249 E68.89572
G0 F6000 X165.311 Y143.249
G1 F1200 X166.249 Y144.187 E68.93984
G0 F6000 X166.249 Y144.753
G1 F1200 X164.745 Y143.249 E69.01058
G0 F6000 X164.18 Y143.249
G1 F1200 X166.249 Y145.318 E69.1079
G0 F6000 X166.249 Y145.884
G1 F1200 X163.614 Y143.249 E69.23184
G0 F6000 X163.048 Y143.249
G1 F1200 X166.249 Y146.45 E69.38241
G0 F6000 X166.249 Y147.015
G1 F1200 X162.483 Y143.249 E69.55955
G0 F6000 X161.917 Y143.249
G1 F1200 X166.249 Y147.581 E69.76331
G0 F6000 X166.249 Y148.147
G1 F1200 X161.351 Y143.249 E69.9937
G0 F6000 X160.786 Y143.249
G1 F1200 X166.249 Y148.713 E70.25068
G0 F6000 X166.249 Y149.278
G1 F1200 X160.22 Y143.249 E70.53427
G0 F6000 X159.654 Y143.249
G1 F1200 X166.249 Y149.844 E70.84448
G0 F6000 X166.249 Y150.41
G1 F1200 X159.089 Y143.249 E71.18129
G0 F6000 X158.523 Y143.249
G1 F1200 X166.249 Y150.975 E71.54469
G0 F6000 X166.249 Y151.541
G1 F1200 X157.957 Y143.249 E71.93472
G0 F6000 X157.392 Y143.249
G1 F1200 X166.249 Y152.107 E72.35135
G0 F6000 X166.249 Y152.672
G1 F1200 X156.826 Y143.249 E72.79458
G0 F6000 X156.26 Y143.249
G1 F1200 X166.249 Y153.238 E73.26444
G0 F6000 X166.249 Y153.804
G1 F1200 X155.695 Y143.249 E73.76089
G0 F6000 X155.129 Y143.249
G1 F1200 X166.249 Y154.369 E74.28394
G0 F6000 X166.249 Y154.935
G1 F1200 X154.563 Y143.249 E74.83361
G0 F6000 X153.997 Y143.249
G1 F1200 X166.249 Y155.501 E75.40991
G0 F6000 X166.249 Y156.066
G1 F1200 X153.432 Y143.249 E76.01278
G0 F6000 X152.866 Y143.249
G1 F1200 X166.249 Y156.632 E76.64228
G0 F6000 X165.8 Y156.749
G1 F1200 X152.3 Y143.249 E77.27727
G0 F6000 X151.735 Y143.249
G1 F1200 X165.234 Y156.749 E77.91225
G0 F6000 X164.668 Y156.749
G1 F1200 X151.169 Y143.249 E78.54722
G0 F6000 X150.603 Y143.249
G1 F1200 X164.103 Y156.749 E79.18222
G0 F6000 X163.537 Y156.749
G1 F1200 X150.038 Y143.249 E79.8172
G0 F6000 X149.472 Y143.249
G1 F1200 X162.971 Y156.749 E80.45217
G0 F6000 X162.406 Y156.749
G1 F1200 X148.906 Y143.249 E81.08717
G0 F6000 X148.341 Y143.249
G1 F1200 X161.84 Y156.749 E81.72215
G0 F6000 X161.274 Y156.749
G1 F1200 X147.775 Y143.249 E82.35712
G0 F6000 X147.209 Y143.249
G1 F1200 X160.709 Y156.749 E82.99212
G0 F6000 X160.143 Y156.749
G1 F1200 X146.644 Y143.249 E83.6271
G0 F6000 X146.078 Y143.249
G1 F1200 X159.577 Y156.749 E84.26207
G0 F6000 X159.012 Y156.749
G1 F1200 X145.512 Y143.249 E84.89707
G0 F6000 X144.946 Y143.249
G1 F1200 X158.446 Y156.749 E85.53207
G0 F6000 X157.88 Y156.749
G1 F1200 X144.381 Y143.249 E86.16704
G0 F6000 X143.815 Y143.249
G1 F1200 X157.314 Y156.749 E86.80202
G0 F6000 X156.749 Y156.749
G1 F1200 X143.249 Y143.249 E87.43702
G0 F6000 X142.684 Y143.249
G1 F1200 X156.183 Y156.749 E88.07199
G0 F6000 X155.617 Y156.749
G1 F1200 X142.118 Y143.249 E88.70697
G0 F6000 X141.552 Y143.249
G1 F1200 X155.052 Y156.749 E89.34197
G0 F6000 X154.486 Y156.749
G1 F1200 X140.987 Y143.249 E89.97694
G0 F6000 X140.421 Y143.249
G1 F1200 X153.92 Y156.749 E90.61192
G0 F6000 X153.355 Y156.749
G1 F1200 X139.855 Y143.249 E91.24691
G0 F6000 X139.29 Y143.249
G1 F1200 X152.789 Y156.749 E91.88189
G0 F6000 X152.223 Y156.749
G1 F1200 X138.724 Y143.249 E92.51686
G0 F6000 X138.158 Y143.249
G1 F1200 X151.658 Y156.749 E93.15186
G0 F6000 X151.092 Y156.749
G1 F1200 X137.593 Y143.249 E93.78684
G0 F6000 X137.027 Y143.249
G1 F1200 X150.526 Y156.749 E94.42181
G0 F6000 X149.961 Y156.749
G1 F1200 X136.461 Y143.249 E95.05681
G0 F6000 X135.896 Y143.249
G1 F1200 X149.395 Y156.749 E95.69179
G0 F6000 X148.829 Y156.749
G1 F1200 X135.33 Y143.249 E96.32676
G0 F6000 X134.764 Y143.249
G1 F1200 X148.264 Y156.749 E96.96176
G0 F6000 X147.698 Y156.749
G1 F1200 X134.198 Y143.249 E97.59676
G0 F6000 X133.749 Y143.366
G1 F1200 X147.132 Y156.749 E98.22625
G0 F6000 X146.566 Y156.749
G1 F1200 X133.749 Y143.932 E98.82913
G0 F6000 X133.749 Y144.497
G1 F1200 X146.001 Y156.749 E99.40542
G0 F6000 X145.435 Y156.749
G1 F1200 X133.749 Y145.063 E99.9551
G0 F6000 X133.749 Y145.629
G1 F1200 X144.869 Y156.749 E100.47815
G0 F6000 X144.304 Y156.749
G1 F1200 X133.749 Y146.195 E100.9746
G0 F6000 X133.749 Y146.76
G1 F1200 X143.738 Y156.749 E101.44445
G0 F6000 X143.172 Y156.749
G1 F1200 X133.749 Y147.326 E101.88768
G0 F6000 X133.749 Y147.892
G1 F1200 X142.607 Y156.749 E102.30431
G0 F6000 X142.041 Y156.749
G1 F1200 X133.749 Y148.457 E102.69434
G0 F6000 X133.749 Y149.023
G1 F1200 X141.475 Y156.749 E103.05775
G0 F6000 X140.91 Y156.749
G1 F1200 X133.749 Y149.589 E103.39455
G0 F6000 X133.749 Y150.154
G1 F1200 X140.344 Y156.749 E103.70476
G0 F6000 X139.778 Y156.749
G1 F1200 X133.749 Y150.72 E103.98835
G0 F6000 X133.749 Y151.286
G1 F1200 X139.213 Y156.749 E104.24534
G0 F6000 X138.647 Y156.749
G1 F1200 X133.749 Y151.851 E104.47572
G0 F6000 X133.749 Y152.417
G1 F1200 X138.081 Y156.749 E104.67949
G0 F6000 X137.516 Y156.749
G1 F1200 X133.749 Y152.983 E104.85665
G0 F6000 X133.749 Y153.548
G1 F1200 X136.95 Y156.749 E105.00722
G0 F6000 X136.384 Y156.749
G1 F1200 X133.749 Y154.114 E105.13116
G0 F6000 X133.749 Y154.68
G1 F1200 X135.818 Y156.749 E105.22848
G0 F6000 X135.253 Y156.749
G1 F1200 X133.749 Y155.246 E105.2992
G0 F6000 X133.749 Y155.811
G1 F1200 X134.687 Y156.749 E105.34332
G0 F6000 X134.121 Y156.749
G1 F1200 X133.749 Y156.377 E105.36082
G0 F6000 X133.01 Y156.377
G1 F2700 E98.36082
;MESH:NONMESH
G0 F300 X133.01 Y156.377 Z0.4
G0 F6000 X133.382 Y142.882
G0 X166.886 Y142.12
G0 X166.886 Y141.035
G0 X166.886 Y138.109
G0 X166.886 Y137.024
G0 X166.886 Y136.944
;TIME_ELAPSED:168.907096
;LAYER:1
M140 S60
M106 S85
;TYPE:WALL-INNER
;MESH:card_holder_microSD_part_2.stl.stl
G1 F2700 E105.36082
G1 F1500 X133.114 Y136.944 E107.04571
G1 X132.7 Y136.53 E107.07492
G1 X132.7 Y121.758 E107.8119
G1 X133.114 Y121.344 E107.84111
G1 X166.886 Y121.344 E109.526
G1 X167.3 Y121.758 E109.55521
G1 X167.3 Y136.53 E110.29219
G1 X166.886 Y136.944 E110.3214
G0 F7500 X167.052 Y137.344
G1 F1500 X132.948 Y137.344 E112.02285
G1 X132.3 Y136.696 E112.06857
G1 X132.3 Y121.592 E112.82211
G1 X132.948 Y120.944 E112.86783
G1 X167.052 Y120.944 E114.56929
G1 X167.7 Y121.592 E114.61501
G1 X167.7 Y136.696 E115.36855
G1 X167.052 Y137.344 E115.41427
G0 F7500 X167.218 Y137.744
;TYPE:WALL-OUTER
G1 F1500 X132.782 Y137.744 E116.55962
G1 X131.9 Y136.862 E116.6011
G1 X131.9 Y121.426 E117.11451
G1 X132.782 Y120.544 E117.15599
G1 X167.218 Y120.544 E118.30134
G1 X168.1 Y121.426 E118.34283
G1 X168.1 Y136.862 E118.85623
G1 X167.218 Y137.744 E118.89772
G0 F7500 X167.05 Y137.338
G0 X166.726 Y136.554
;TYPE:SKIN
G1 F1500 X133.274 Y136.554 E120.01033
G1 X133.09 Y136.37 E120.01899
G1 X133.09 Y121.918 E120.49966
G1 X133.274 Y121.734 E120.50832
G1 X166.726 Y121.734 E121.62094
G1 X166.91 Y121.918 E121.62959
G1 X166.91 Y136.37 E122.11027
G1 X166.726 Y136.554 E122.11892
G0 F7500 X166.247 Y136.393
G1 F1500 X166.749 Y135.892 E122.14251
G0 F7500 X166.749 Y135.326
G1 F1500 X165.682 Y136.393 E122.1927
G0 F7500 X165.116 Y136.393
G1 F1500 X166.749 Y134.761 E122.26949
G0 F7500 X166.749 Y134.195
G1 F1500 X164.55 Y136.393 E122.3729
G0 F7500 X163.985 Y136.393
G1 F1500 X166.749 Y133.629 E122.50291
G0 F7500 X166.749 Y133.064
G1 F1500 X163.419 Y136.393 E122.65952
G0 F7500 X162.853 Y136.393
G1 F1500 X166.749 Y132.498 E122.84275
G0 F7500 X166.749 Y131.932
G1 F1500 X162.288 Y136.393 E123.05258
G0 F7500 X161.722 Y136.393
G1 F1500 X166.749 Y131.367 E123.28901
G0 F7500 X166.749 Y130.801
G1 F1500 X161.156 Y136.393 E123.55207
G0 F7500 X160.591 Y136.393
G1 F1500 X166.749 Y130.235 E123.84172
G0 F7500 X166.749 Y129.669
G1 F1500 X160.025 Y136.393 E124.158
G0 F7500 X159.459 Y136.393
G1 F1500 X166.749 Y129.104 E124.50087
G0 F7500 X166.749 Y128.538
